TigerWuu/newton/newton/examples/diffsim/gt/chirp_traj/20260616_133149/chirp_04_shoulder_lift.csv
t,freq_hz,shoulder_pan_cmd,shoulder_pan_pos,shoulder_lift_cmd,shoulder_lift_pos,elbow_flex_cmd,elbow_flex_pos,wrist_flex_cmd,wrist_flex_pos,wrist_roll_cmd,wrist_roll_pos
0.0,0.1,0.0,0.17582417582417584,-20.0,-19.164835164835164,25.0,26.813186813186814,90.0,89.62637362637362,0.0,-0.3076923076923077
0.02,0.1019,0.0,0.17582417582417584,-19.999812261794883,-19.164835164835164,25.0,26.813186813186814,90.0,89.62637362637362,0.0,-0.3076923076923077
0.04,0.1038,0.0,0.17582417582417584,-19.998485581243013,-19.164835164835164,25.0,26.813186813186814,90.0,89.62637362637362,0.0,-0.3076923076923077
0.06,0.1057,0.0,0.17582417582417584,-19.99485039605244,-19.164835164835164,25.0,26.813186813186814,90.0,89.62637362637362,0.0,-0.3076923076923077
0.08,0.1076,0.0,0.17582417582417584,-19.987711640930304,-19.164835164835164,25.0,26.813186813186814,90.0,89.62637362637362,0.0,-0.3076923076923077
0.1,0.10950000000000001,0.0,0.17582417582417584,-19.975857821826303,-19.164835164835164,25.0,26.813186813186814,90.0,89.62637362637362,0.0,-0.3076923076923077
0.12,0.1114,0.0,0.17582417582417584,-19.95807046040073,-19.164835164835164,25.0,26.813186813186814,90.0,89.62637362637362,0.0,-0.3076923076923077
0.14,0.11330000000000001,0.0,0.17582417582417584,-19.933133850611437,-19.164835164835164,25.0,26.813186813186814,90.0,89.62637362637362,0.0,-0.3076923076923077
0.16,0.11520000000000001,0.0,0.17582417582417584,-19.899845065261864,-19.164835164835164,25.0,26.813186813186814,90.0,89.62637362637362,0.0,-0.3076923076923077
0.18,0.11710000000000001,0.0,0.17582417582417584,-19.857024146592384,-19.164835164835164,25.0,26.813186813186814,90.0,89.62637362637362,0.0,-0.3076923076923077
0.2,0.11900000000000001,0.0,0.17582417582417584,-19.803524411569075,-19.164835164835164,25.0,26.813186813186814,90.0,89.62637362637362,0.0,-0.3076923076923077
0.22,0.12090000000000001,0.0,0.17582417582417584,-19.738242799466356,-19.164835164835164,25.0,26.813186813186814,90.0,89.62637362637362,0.0,-0.3076923076923077
0.24,0.1228,0.0,0.17582417582417584,-19.660130186691163,-19.164835164835164,25.0,26.813186813186814,90.0,89.62637362637362,0.0,-0.3076923076923077
0.26,0.1247,0.0,0.17582417582417584,-19.568201591593112,-19.164835164835164,25.0,26.813186813186814,90.0,89.62637362637362,0.0,-0.3076923076923077
0.28,0.12660000000000002,0.0,0.17582417582417584,-19.461546190283087,-19.164835164835164,25.0,26.813186813186814,90.0,89.62637362637362,0.0,-0.3076923076923077
0.3,0.1285,0.0,0.17582417582417584,-19.339337063275334,-19.164835164835164,25.0,26.813186813186814,90.0,89.62637362637362,0.0,-0.3076923076923077
0.32,0.13040000000000002,0.0,0.17582417582417584,-19.200840592106623,-19.164835164835164,25.0,26.813186813186814,90.0,89.62637362637362,0.0,-0.3076923076923077
0.34,0.1323,0.0,0.17582417582417584,-19.04542542499929,-19.164835164835164,25.0,26.813186813186814,90.0,89.62637362637362,0.0,-0.3076923076923077
0.36,0.1342,0.0,0.17582417582417584,-18.872570931148168,-19.076923076923077,25.0,26.813186813186814,90.0,89.62637362637362,0.0,-0.3076923076923077
0.38,0.1361,0.0,0.17582417582417584,-18.681875064347054,-18.9010989010989,25.0,26.813186813186814,90.0,89.62637362637362,0.0,-0.3076923076923077
0.4,0.138,0.0,0.17582417582417584,-18.47306155844691,-18.9010989010989,25.0,26.813186813186814,90.0,89.62637362637362,0.0,-0.3076923076923077
0.42,0.1399,0.0,0.17582417582417584,-18.245986379569157,-18.725274725274726,25.0,26.813186813186814,90.0,89.62637362637362,0.0,-0.3076923076923077
0.44,0.1418,0.0,0.17582417582417584,-18.000643363093822,-18.63736263736264,25.0,26.813186813186814,90.0,89.62637362637362,0.0,-0.3076923076923077
0.46,0.1437,0.0,0.17582417582417584,-17.737168967208095,-18.373626373626372,25.0,26.725274725274726,90.0,89.62637362637362,0.0,-0.3076923076923077
0.48,0.1456,0.0,0.17582417582417584,-17.45584607923626,-18.10989010989011,25.0,26.725274725274726,90.0,89.62637362637362,0.0,-0.3076923076923077
0.5,0.14750000000000002,0.0,0.17582417582417584,-17.15710681607124,-17.846153846153847,25.0,26.725274725274726,90.0,89.62637362637362,0.0,-0.3076923076923077
0.52,0.1494,0.0,0.17582417582417584,-16.841534265779945,-17.582417582417584,25.0,26.725274725274726,90.0,89.62637362637362,0.0,-0.3076923076923077
0.54,0.15130000000000002,0.0,0.17582417582417584,-16.509863123841853,-17.318681318681318,25.0,26.725274725274726,90.0,89.62637362637362,0.0,-0.3076923076923077
0.56,0.1532,0.0,0.17582417582417584,-16.16297918447978,-17.054945054945055,25.0,26.725274725274726,90.0,89.62637362637362,0.0,-0.3076923076923077
0.58,0.15510000000000002,0.0,0.17582417582417584,-15.801917655124065,-16.703296703296704,25.0,26.725274725274726,90.0,89.62637362637362,0.0,-0.3076923076923077
0.6,0.157,0.0,0.17582417582417584,-15.427860270180561,-16.35164835164835,25.0,26.725274725274726,90.0,89.62637362637362,0.0,-0.3076923076923077
0.62,0.1589,0.0,0.17582417582417584,-15.042131188907334,-16.087912087912088,25.0,26.725274725274726,90.0,89.62637362637362,0.0,-0.3076923076923077
0.64,0.1608,0.0,0.17582417582417584,-14.646191671295533,-15.736263736263735,25.0,26.725274725274726,90.0,89.62637362637362,0.0,-0.3076923076923077
0.66,0.1627,0.0,0.17582417582417584,-14.24163353534341,-15.384615384615385,25.0,26.725274725274726,90.0,89.62637362637362,0.0,-0.3076923076923077
0.68,0.16460000000000002,0.0,0.17582417582417584,-13.830171408946635,-15.032967032967033,25.0,26.725274725274726,90.0,89.62637362637362,0.0,-0.3076923076923077
0.7,0.16649999999999998,0.0,0.17582417582417584,-13.413633799737937,-14.593406593406593,25.0,26.725274725274726,90.0,89.62637362637362,0.0,-0.3076923076923077
0.72,0.1684,0.0,0.17582417582417584,-12.993953016521452,-14.241758241758241,25.0,26.725274725274726,90.0,89.62637362637362,0.0,-0.3076923076923077
0.74,0.1703,0.0,0.17582417582417584,-12.57315398638544,-13.802197802197803,25.0,26.725274725274726,90.0,89.62637362637362,0.0,-0.3076923076923077
0.76,0.17220000000000002,0.0,0.17582417582417584,-12.153342022058336,-13.45054945054945,25.0,26.725274725274726,90.0,89.62637362637362,0.0,-0.3076923076923077
0.78,0.1741,0.0,0.17582417582417584,-11.73668960451164,-13.010989010989011,25.0,26.725274725274726,90.0,89.62637362637362,0.0,-0.3076923076923077
0.8,0.17600000000000002,0.0,0.17582417582417584,-11.325422256117738,-12.571428571428571,25.0,26.725274725274726,90.0,89.62637362637362,0.0,-0.3076923076923077
0.82,0.1779,0.0,0.17582417582417584,-10.921803589748293,-12.131868131868131,25.0,26.725274725274726,90.0,89.62637362637362,0.0,-0.3076923076923077
0.84,0.17980000000000002,0.0,0.17582417582417584,-10.528119628952867,-11.780219780219781,25.0,26.725274725274726,90.0,89.62637362637362,0.0,-0.3076923076923077
0.86,0.1817,0.0,0.17582417582417584,-10.146662503690287,-11.340659340659341,25.0,26.725274725274726,90.0,89.62637362637362,0.0,-0.3076923076923077
0.88,0.1836,0.0,0.17582417582417584,-9.77971363489728,-10.901098901098901,25.0,26.725274725274726,90.0,89.62637362637362,0.0,-0.3076923076923077
0.9,0.1855,0.0,0.17582417582417584,-9.429526529371994,-10.54945054945055,25.0,26.725274725274726,90.0,89.62637362637362,0.0,-0.3076923076923077
0.92,0.1874,0.0,0.17582417582417584,-9.098309313924648,-10.10989010989011,25.0,26.725274725274726,90.0,89.62637362637362,0.0,-0.3076923076923077
0.94,0.1893,0.0,0.17582417582417584,-8.788207144408029,-9.67032967032967,25.0,26.725274725274726,90.0,89.62637362637362,0.0,-0.3076923076923077
0.96,0.1912,0.0,0.17582417582417584,-8.501284630992151,-9.31868131868132,25.0,26.725274725274726,90.0,89.62637362637362,0.0,-0.3076923076923077
0.98,0.1931,0.0,0.17582417582417584,-8.239508425800484,-8.967032967032967,25.0,26.725274725274726,90.0,89.62637362637362,0.0,-0.3076923076923077
1.0,0.195,0.0,0.17582417582417584,-8.00473012269364,-8.615384615384615,25.0,26.725274725274726,90.0,89.62637362637362,0.0,-0.3076923076923077
1.02,0.19690000000000002,0.0,0.17582417582417584,-7.786619463187213,-8.351648351648352,25.0,26.725274725274726,90.0,89.62637362637362,0.0,-0.3076923076923077
1.04,0.1988,0.0,0.17582417582417584,-7.573907384305773,-8.175824175824175,25.0,26.725274725274726,90.0,89.62637362637362,0.0,-0.3076923076923077
1.06,0.20070000000000002,0.0,0.17582417582417584,-7.366944748604952,-7.912087912087912,25.0,26.725274725274726,90.0,89.62637362637362,0.0,-0.3076923076923077
1.08,0.2026,0.0,0.17582417582417584,-7.166087211170259,-7.648351648351649,25.0,26.725274725274726,90.0,89.62637362637362,0.0,-0.3076923076923077
1.1,0.20450000000000002,0.0,0.17582417582417584,-6.971694841151685,-7.472527472527473,25.0,26.725274725274726,90.0,89.62637362637362,0.0,-0.3076923076923077
1.12,0.20640000000000003,0.0,0.17582417582417584,-6.784131715877548,-7.208791208791209,25.0,26.725274725274726,90.0,89.62637362637362,0.0,-0.3076923076923077
1.14,0.20829999999999999,0.0,0.17582417582417584,-6.60376548703573,-6.945054945054945,25.0,26.725274725274726,90.0,89.62637362637362,0.0,-0.3076923076923077
1.16,0.2102,0.0,0.17582417582417584,-6.430966918453878,-6.857142857142857,25.0,26.725274725274726,90.0,89.62637362637362,0.0,-0.3076923076923077
1.18,0.2121,0.0,0.17582417582417584,-6.266109395057457,-6.681318681318682,25.0,26.725274725274726,90.0,89.62637362637362,0.0,-0.3076923076923077
1.2,0.214,0.0,0.17582417582417584,-6.109568402636148,-6.5054945054945055,25.0,26.725274725274726,90.0,89.62637362637362,0.0,-0.3076923076923077
1.22,0.2159,0.0,0.17582417582417584,-5.961720978104928,-6.329670329670329,25.0,26.725274725274726,90.0,89.62637362637362,0.0,-0.3076923076923077
1.24,0.2178,0.0,0.17582417582417584,-5.822945130006534,-6.241758241758242,25.0,26.725274725274726,90.0,89.62637362637362,0.0,-0.3076923076923077
1.26,0.2197,0.0,0.17582417582417584,-5.693619229066657,-5.978021978021978,25.0,26.725274725274726,90.0,89.62637362637362,0.0,-0.3076923076923077
1.28,0.22160000000000002,0.0,0.17582417582417584,-5.574121368682739,-5.802197802197802,25.0,26.725274725274726,90.0,89.62637362637362,0.0,-0.3076923076923077
1.3,0.22350000000000003,0.0,0.17582417582417584,-5.464828695301115,-5.802197802197802,25.0,26.725274725274726,90.0,89.62637362637362,0.0,-0.3076923076923077
1.32,0.22540000000000002,0.0,0.17582417582417584,-5.366116708716053,-5.714285714285714,25.0,26.725274725274726,90.0,89.62637362637362,0.0,-0.3076923076923077
1.34,0.2273,0.0,0.17582417582417584,-5.278358532407784,-5.450549450549451,25.0,26.725274725274726,90.0,89.62637362637362,0.0,-0.3076923076923077
1.36,0.22920000000000001,0.0,0.17582417582417584,-5.201924154124818,-5.450549450549451,25.0,26.725274725274726,90.0,89.62637362637362,0.0,-0.3076923076923077
1.38,0.2311,0.0,0.17582417582417584,-5.137179637009112,-5.362637362637362,25.0,26.725274725274726,90.0,89.62637362637362,0.0,-0.3076923076923077
1.4,0.23299999999999998,0.0,0.17582417582417584,-5.084486301660483,-5.274725274725275,25.0,26.725274725274726,90.0,89.62637362637362,0.0,-0.3076923076923077
1.42,0.2349,0.0,0.17582417582417584,-5.044199879639574,-5.186813186813187,25.0,26.725274725274726,90.0,89.62637362637362,0.0,-0.3076923076923077
1.44,0.2368,0.0,0.17582417582417584,-5.016669639016138,-5.010989010989011,25.0,26.725274725274726,90.0,89.53846153846153,0.0,-0.3076923076923077
1.46,0.2387,0.0,0.17582417582417584,-5.002237482681771,-4.923076923076923,25.0,26.725274725274726,90.0,89.53846153846153,0.0,-0.3076923076923077
1.48,0.2406,0.0,0.17582417582417584,-5.001237020263183,-4.923076923076923,25.0,26.725274725274726,90.0,89.53846153846153,0.0,-0.3076923076923077
1.5,0.24250000000000002,0.0,0.17582417582417584,-5.013992614593576,-4.747252747252747,25.0,26.725274725274726,90.0,89.53846153846153,0.0,-0.3076923076923077
1.52,0.2444,0.0,0.17582417582417584,-5.04081840382573,-4.747252747252747,25.0,26.725274725274726,90.0,89.53846153846153,0.0,-0.3076923076923077
1.54,0.24630000000000002,0.0,0.17582417582417584,-5.082017300400649,-4.747252747252747,25.0,26.725274725274726,90.0,89.53846153846153,0.0,-0.3076923076923077
1.56,0.2482,0.0,0.17582417582417584,-5.1378799682200125,-4.747252747252747,25.0,26.725274725274726,90.0,89.53846153846153,0.0,-0.3076923076923077
1.58,0.2501,0.0,0.17582417582417584,-5.2086837795090855,-4.747252747252747,25.0,26.725274725274726,90.0,89.53846153846153,0.0,-0.3076923076923077
1.6,0.252,0.0,0.17582417582417584,-5.294691752998707,-4.747252747252747,25.0,26.725274725274726,90.0,89.53846153846153,0.0,-0.3076923076923077
1.62,0.2539,0.0,0.17582417582417584,-5.39615147520057,-4.747252747252747,25.0,26.725274725274726,90.0,89.53846153846153,0.0,-0.3076923076923077
1.64,0.2558,0.0,0.17582417582417584,-5.513294006698693,-4.747252747252747,25.0,26.725274725274726,90.0,89.53846153846153,0.0,-0.3076923076923077
1.66,0.25770000000000004,0.0,0.17582417582417584,-5.646332775531397,-4.747252747252747,25.0,26.725274725274726,90.0,89.53846153846153,0.0,-0.3076923076923077
1.68,0.2596,0.0,0.17582417582417584,-5.795462459892308,-4.747252747252747,25.0,26.725274725274726,90.0,89.53846153846153,0.0,-0.3076923076923077
1.7,0.2615,0.0,0.17582417582417584,-5.960857862534915,-4.747252747252747,25.0,26.725274725274726,90.0,89.53846153846153,0.0,-0.3076923076923077
1.72,0.26339999999999997,0.0,0.17582417582417584,-6.1426727794231155,-4.747252747252747,25.0,26.725274725274726,90.0,89.53846153846153,0.0,-0.3076923076923077
1.74,0.2653,0.0,0.17582417582417584,-6.341038865329269,-4.747252747252747,25.0,26.725274725274726,90.0,89.53846153846153,0.0,-0.3076923076923077
1.76,0.2672,0.0,0.17582417582417584,-6.556064499241073,-4.747252747252747,25.0,26.725274725274726,90.0,89.53846153846153,0.0,-0.3076923076923077
1.78,0.2691,0.0,0.17582417582417584,-6.787833652598673,-4.747252747252747,25.0,26.725274725274726,90.0,89.53846153846153,0.0,-0.3076923076923077
1.8,0.271,0.0,0.17582417582417584,-7.036404763543096,-4.747252747252747,25.0,26.725274725274726,90.0,89.53846153846153,0.0,-0.3076923076923077
1.82,0.27290000000000003,0.0,0.17582417582417584,-7.301809620515879,-4.835164835164835,25.0,26.725274725274726,90.0,89.53846153846153,0.0,-0.3076923076923077
1.84,0.27480000000000004,0.0,0.17582417582417584,-7.584052258706958,-4.835164835164835,25.0,26.725274725274726,90.0,89.53846153846153,0.0,-0.3076923076923077
1.86,0.27670000000000006,0.0,0.17582417582417584,-7.8831078730027695,-5.010989010989011,25.0,26.725274725274726,90.0,89.53846153846153,0.0,-0.3076923076923077
1.88,0.27859999999999996,0.0,0.17582417582417584,-8.198921751238457,-5.274725274725275,25.0,26.725274725274726,90.0,89.53846153846153,0.0,-0.3076923076923077
1.9,0.28049999999999997,0.0,0.17582417582417584,-8.53140823170645,-5.450549450549451,25.0,26.725274725274726,90.0,89.53846153846153,0.0,-0.3076923076923077
1.92,0.2824,0.0,0.17582417582417584,-8.880449689016993,-5.714285714285714,25.0,26.725274725274726,90.0,89.53846153846153,0.0,-0.3076923076923077
1.94,0.2843,0.0,0.17582417582417584,-9.24589555254517,-5.978021978021978,25.0,26.725274725274726,90.0,89.53846153846153,0.0,-0.3076923076923077
1.96,0.2862,0.0,0.17582417582417584,-9.627561361830558,-6.241758241758242,25.0,26.725274725274726,90.0,89.53846153846153,0.0,-0.3076923076923077
1.98,0.2881,0.0,0.17582417582417584,-10.025227863421067,-6.5054945054945055,25.0,26.725274725274726,90.0,89.53846153846153,0.0,-0.3076923076923077
2.0,0.29000000000000004,0.0,0.17582417582417584,-10.438640153769652,-6.857142857142857,25.0,26.725274725274726,90.0,89.53846153846153,0.0,-0.3076923076923077
2.02,0.29190000000000005,0.0,0.17582417582417584,-10.867506872900403,-7.208791208791209,25.0,26.725274725274726,90.0,89.53846153846153,0.0,-0.3076923076923077
2.04,0.2938,0.0,0.17582417582417584,-11.311499453659101,-7.56043956043956,25.0,26.725274725274726,90.0,89.53846153846153,0.0,-0.3076923076923077
2.06,0.2957,0.0,0.17582417582417584,-11.77025143145033,-7.912087912087912,25.0,26.725274725274726,90.0,89.53846153846153,0.0,-0.3076923076923077
2.08,0.2976,0.0,0.17582417582417584,-12.24335781943859,-8.263736263736265,25.0,26.725274725274726,90.0,89.53846153846153,0.0,-0.3076923076923077
2.1,0.2995,0.0,0.17582417582417584,-12.73037455425314,-8.703296703296703,25.0,26.725274725274726,90.0,89.53846153846153,0.0,-0.3076923076923077
2.12,0.3014,0.0,0.17582417582417584,-13.230818017284529,-9.142857142857142,25.0,26.725274725274726,90.0,89.53846153846153,0.0,-0.3076923076923077
2.14,0.3033,0.0,0.17582417582417584,-13.744164636693696,-9.582417582417582,25.0,26.725274725274726,90.0,89.53846153846153,0.0,-0.3076923076923077
2.16,0.3052,0.0,0.17582417582417584,-14.269850575271514,-10.021978021978022,25.0,26.725274725274726,90.0,89.53846153846153,0.0,-0.3076923076923077
2.18,0.30710000000000004,0.0,0.17582417582417584,-14.80727150928577,-10.54945054945055,25.0,26.725274725274726,90.0,89.53846153846153,0.0,-0.3076923076923077
2.2,0.30900000000000005,0.0,0.17582417582417584,-15.355782503433957,-11.076923076923077,25.0,26.725274725274726,90.0,89.53846153846153,0.0,-0.3076923076923077
2.22,0.31090000000000007,0.0,0.17582417582417584,-15.91469798698163,-11.604395604395604,25.0,26.725274725274726,90.0,89.53846153846153,0.0,-0.3076923076923077
2.24,0.3128,0.0,0.17582417582417584,-16.483291836106762,-12.131868131868131,25.0,26.725274725274726,90.0,89.53846153846153,0.0,-0.3076923076923077
2.26,0.3147,0.0,0.17582417582417584,-17.060797567390246,-12.659340659340659,25.0,26.725274725274726,90.0,89.53846153846153,0.0,-0.3076923076923077
2.28,0.3166,0.0,0.17582417582417584,-17.64640864728895,-13.186813186813186,25.0,26.725274725274726,90.0,89.53846153846153,0.0,-0.3076923076923077
2.3,0.3185,0.0,0.17582417582417584,-18.239278922300358,-13.802197802197803,25.0,26.725274725274726,90.0,89.53846153846153,0.0,-0.3076923076923077
2.32,0.3204,0.0,0.17582417582417584,-18.83852317437685,-14.32967032967033,25.0,26.725274725274726,90.0,89.53846153846153,0.0,-0.3076923076923077
2.34,0.32230000000000003,0.0,0.17582417582417584,-19.44321780596911,-14.945054945054945,25.0,26.725274725274726,90.0,89.53846153846153,0.0,-0.3076923076923077
2.36,0.3242,0.0,0.17582417582417584,-20.052401658875006,-15.56043956043956,25.0,26.725274725274726,90.0,89.53846153846153,0.0,-0.3076923076923077
2.38,0.3261,0.0,0.17582417582417584,-20.665076970838594,-16.175824175824175,25.0,26.725274725274726,90.0,89.53846153846153,0.0,-0.3076923076923077
2.4,0.32799999999999996,0.0,0.17582417582417584,-21.2802104735847,-16.703296703296704,25.0,26.725274725274726,90.0,89.53846153846153,0.0,-0.3076923076923077
2.42,0.32989999999999997,0.0,0.17582417582417584,-21.896734635685736,-17.318681318681318,25.0,26.725274725274726,90.0,89.53846153846153,0.0,-0.3076923076923077
2.44,0.3318,0.0,0.17582417582417584,-22.51354905334072,-18.021978021978022,25.0,26.725274725274726,90.0,89.53846153846153,0.0,-0.3076923076923077
2.46,0.3337,0.0,0.17582417582417584,-23.129521991797688,-18.54945054945055,25.0,26.725274725274726,90.0,89.53846153846153,0.0,-0.3076923076923077
2.48,0.3356,0.0,0.17582417582417584,-23.743492079773667,-19.164835164835164,25.0,26.725274725274726,90.0,89.53846153846153,0.0,-0.3076923076923077
2.5,0.3375,0.0,0.17582417582417584,-24.35427015881693,-19.86813186813187,25.0,26.725274725274726,90.0,89.53846153846153,0.0,-0.3076923076923077
2.52,0.33940000000000003,0.0,0.17582417582417584,-24.96064128911705,-20.483516483516482,25.0,26.725274725274726,90.0,89.53846153846153,0.0,-0.3076923076923077
2.54,0.34130000000000005,0.0,0.17582417582417584,-25.561366912797418,-21.0989010989011,25.0,26.725274725274726,90.0,89.53846153846153,0.0,-0.3076923076923077
2.56,0.3432,0.0,0.17582417582417584,-26.155187175223485,-21.802197802197803,25.0,26.725274725274726,90.0,89.53846153846153,0.0,-0.3076923076923077
2.58,0.3451,0.0,0.17582417582417584,-26.74082340432733,-22.32967032967033,25.0,26.725274725274726,90.0,89.53846153846153,0.0,-0.3076923076923077
2.6,0.34700000000000003,0.0,0.17582417582417584,-27.31698074738677,-22.945054945054945,25.0,26.725274725274726,90.0,89.62637362637362,0.0,-0.3076923076923077
2.62,0.3489,0.0,0.17582417582417584,-27.882350964104297,-23.560439560439562,25.0,26.725274725274726,90.0,89.62637362637362,0.0,-0.3076923076923077
2.64,0.3508,0.0,0.17582417582417584,-28.43561537420947,-24.175824175824175,25.0,26.725274725274726,90.0,89.71428571428571,0.0,-0.3076923076923077
2.66,0.3527,0.0,0.17582417582417584,-28.975447957157858,-24.791208791208792,25.0,26.725274725274726,90.0,89.89010989010988,0.0,-0.3076923076923077
2.68,0.3546,0.0,0.17582417582417584,-29.500518600822236,-25.318681318681318,25.0,26.725274725274726,90.0,90.15384615384616,0.0,-0.3076923076923077
2.7,0.35650000000000004,0.0,0.17582417582417584,-30.009496495368143,-25.934065934065934,25.0,26.725274725274726,90.0,90.24175824175825,0.0,-0.3076923076923077
2.72,0.35840000000000005,0.0,0.17582417582417584,-30.50105366777705,-26.46153846153846,25.0,26.725274725274726,90.0,90.24175824175825,0.0,-0.04395604395604396
2.74,0.36030000000000006,0.0,0.17582417582417584,-30.973868651729735,-27.076923076923077,25.0,26.725274725274726,90.0,90.24175824175825,0.0,0.04395604395604396
2.76,0.36219999999999997,0.0,0.17582417582417584,-31.426630286789138,-27.604395604395606,25.0,26.725274725274726,90.0,90.24175824175825,0.0,0.04395604395604396
2.78,0.3641,0.0,0.17582417582417584,-31.85804164003092,-28.13186813186813,25.0,26.725274725274726,90.0,90.24175824175825,0.0,0.04395604395604396
2.8,0.366,0.0,0.17582417582417584,-32.266824042460996,-28.65934065934066,25.0,26.725274725274726,90.0,90.24175824175825,0.0,0.04395604395604396
2.82,0.3679,0.0,0.17582417582417584,-32.65172123173709,-29.186813186813186,25.0,26.725274725274726,90.0,90.24175824175825,0.0,0.04395604395604396
2.84,0.3698,0.0,0.17582417582417584,-33.0115035918766,-29.714285714285715,25.0,26.725274725274726,90.0,90.24175824175825,0.0,0.04395604395604396
2.86,0.37170000000000003,0.0,0.17582417582417584,-33.3449724797907,-30.153846153846153,25.0,26.725274725274726,90.0,90.24175824175825,0.0,0.04395604395604396
2.88,0.37360000000000004,0.0,0.17582417582417584,-33.65096462763634,-30.593406593406595,25.0,26.725274725274726,90.0,90.24175824175825,0.0,0.04395604395604396
2.9,0.37549999999999994,0.0,0.17582417582417584,-33.92835660912817,-30.945054945054945,25.0,26.725274725274726,90.0,90.24175824175825,0.0,0.04395604395604396
2.92,0.37739999999999996,0.0,0.17582417582417584,-34.176069357103806,-31.384615384615383,25.0,26.725274725274726,90.0,90.32967032967034,0.0,0.04395604395604396
2.94,0.37929999999999997,0.0,0.17582417582417584,-34.39307271879449,-31.64835164835165,25.0,26.725274725274726,90.0,90.32967032967034,0.0,0.04395604395604396
2.96,0.3812,0.0,0.17582417582417584,-34.57839003442003,-32.0,25.0,26.725274725274726,90.0,90.32967032967034,0.0,0.04395604395604396
2.98,0.3831,0.0,0.17582417582417584,-34.73110272390932,-32.26373626373626,25.0,26.725274725274726,90.0,90.32967032967034,0.0,0.04395604395604396
3.0,0.385,0.0,0.17582417582417584,-34.850354865748365,-32.61538461538461,25.0,26.725274725274726,90.0,90.32967032967034,0.0,0.04395604395604396
3.02,0.3869,0.0,0.17582417582417584,-34.93535775118216,-32.79120879120879,25.0,26.725274725274726,90.0,90.32967032967034,0.0,0.04395604395604396
3.04,0.38880000000000003,0.0,0.17582417582417584,-34.985394396249816,-32.967032967032964,25.0,26.725274725274726,90.0,90.32967032967034,0.0,0.04395604395604396
3.06,0.39070000000000005,0.0,0.17582417582417584,-34.999823993418914,-33.142857142857146,25.0,26.725274725274726,90.0,90.41758241758242,0.0,0.04395604395604396
3.08,0.39260000000000006,0.0,0.17582417582417584,-34.978086283910855,-33.31868131868132,25.0,26.725274725274726,90.0,90.41758241758242,0.0,0.04395604395604396
3.1,0.3945000000000001,0.0,0.17582417582417584,-34.9197058311792,-33.31868131868132,25.0,26.725274725274726,90.0,90.41758241758242,0.0,0.04395604395604396
3.12,0.3964,0.0,0.17582417582417584,-34.82429617542297,-33.31868131868132,25.0,26.725274725274726,90.0,90.41758241758242,0.0,0.04395604395604396
3.14,0.3983,0.0,0.17582417582417584,-34.69156384849304,-33.31868131868132,25.0,26.725274725274726,90.0,90.41758241758242,0.0,0.04395604395604396
3.16,0.4002,0.0,0.17582417582417584,-34.52131222808679,-33.31868131868132,25.0,26.725274725274726,90.0,90.41758241758242,0.0,0.04395604395604396
3.18,0.4021,0.0,0.17582417582417584,-34.313445209731,-33.31868131868132,25.0,26.725274725274726,90.0,90.41758241758242,0.0,0.04395604395604396
3.2,0.404,0.0,0.17582417582417584,-34.067970674730326,-33.31868131868132,25.0,26.725274725274726,90.0,90.41758241758242,0.0,0.04395604395604396
3.22,0.40590000000000004,0.0,0.17582417582417584,-33.78500373201557,-33.31868131868132,25.0,26.725274725274726,90.0,90.41758241758242,0.0,0.04395604395604396
3.24,0.40780000000000005,0.0,0.17582417582417584,-33.464769711666875,-33.31868131868132,25.0,26.725274725274726,90.0,90.41758241758242,0.0,0.04395604395604396
3.26,0.40969999999999995,0.0,0.17582417582417584,-33.10760688781911,-33.31868131868132,25.0,26.725274725274726,90.0,90.41758241758242,0.0,0.04395604395604396
3.28,0.41159999999999997,0.0,0.17582417582417584,-32.713968908683796,-33.23076923076923,25.0,26.725274725274726,90.0,90.41758241758242,0.0,0.04395604395604396
3.3,0.4135,0.0,0.17582417582417584,-32.2844269115522,-33.05494505494506,25.0,26.725274725274726,90.0,90.41758241758242,0.0,0.04395604395604396
3.32,0.4154,0.0,0.17582417582417584,-31.8196713008794,-32.879120879120876,25.0,26.725274725274726,90.0,90.41758241758242,0.0,0.04395604395604396
3.34,0.4173,0.0,0.17582417582417584,-31.320513167898035,-32.7032967032967,25.0,26.725274725274726,90.0,90.41758241758242,0.0,0.04395604395604396
3.36,0.4192,0.0,0.17582417582417584,-30.78788533067508,-32.35164835164835,25.0,26.725274725274726,90.0,90.41758241758242,0.0,0.04395604395604396
3.38,0.42110000000000003,0.0,0.17582417582417584,-30.222842974110943,-31.912087912087912,25.0,26.725274725274726,90.0,90.41758241758242,0.0,0.04395604395604396
3.4,0.42300000000000004,0.0,0.17582417582417584,-29.62656387009261,-31.560439560439562,25.0,26.725274725274726,90.0,90.41758241758242,0.0,0.04395604395604396
3.42,0.42490000000000006,0.0,0.17582417582417584,-29.00034815885218,-31.032967032967033,25.0,26.725274725274726,90.0,90.41758241758242,0.0,0.04395604395604396
3.44,0.42679999999999996,0.0,0.17582417582417584,-28.345617673557186,-30.505494505494507,25.0,26.725274725274726,90.0,90.41758241758242,0.0,0.04395604395604396
3.46,0.42869999999999997,0.0,0.17582417582417584,-27.663914791266045,-30.065934065934066,25.0,26.725274725274726,90.0,90.41758241758242,0.0,0.04395604395604396
3.48,0.4306,0.0,0.17582417582417584,-26.95690079463005,-29.45054945054945,25.0,26.725274725274726,90.0,90.41758241758242,0.0,0.04395604395604396
3.5,0.4325,0.0,0.17582417582417584,-26.226353730107466,-28.747252747252748,25.0,26.725274725274726,90.0,90.41758241758242,0.0,0.04395604395604396
3.52,0.4344,0.0,0.17582417582417584,-25.474165749982525,-28.13186813186813,25.0,26.725274725274726,90.0,90.41758241758242,0.0,0.04395604395604396
3.54,0.4363,0.0,0.17582417582417584,-24.70233992714784,-27.516483516483518,25.0,26.725274725274726,90.0,90.41758241758242,0.0,0.04395604395604396
3.56,0.43820000000000003,0.0,0.17582417582417584,-23.912986533416436,-26.813186813186814,25.0,26.725274725274726,90.0,90.32967032967034,0.0,0.04395604395604396
3.58,0.44010000000000005,0.0,0.17582417582417584,-23.10831877407504,-26.10989010989011,25.0,26.725274725274726,90.0,90.32967032967034,0.0,0.04395604395604396
3.6,0.44200000000000006,0.0,0.17582417582417584,-22.290647973473952,-25.318681318681318,25.0,26.725274725274726,90.0,90.32967032967034,0.0,0.04395604395604396
3.62,0.4439000000000001,0.0,0.17582417582417584,-21.462378208665765,-24.615384615384617,25.0,26.725274725274726,90.0,90.32967032967034,0.0,0.04395604395604396
3.64,0.4458,0.0,0.17582417582417584,-20.62600039045364,-23.824175824175825,25.0,26.725274725274726,90.0,90.32967032967034,0.0,0.04395604395604396
3.66,0.4477,0.0,0.17582417582417584,-19.784085793682497,-23.032967032967033,25.0,26.725274725274726,90.0,90.32967032967034,0.0,0.04395604395604396
3.68,0.4496,0.0,0.17582417582417584,-18.9392790412009,-22.24175824175824,25.0,26.725274725274726,90.0,90.32967032967034,0.0,0.04395604395604396
3.7,0.4515,0.0,0.17582417582417584,-18.094290548627857,-21.45054945054945,25.0,26.725274725274726,90.0,90.24175824175825,0.0,0.04395604395604396
3.72,0.4534,0.0,0.17582417582417584,-17.251888439870505,-20.65934065934066,25.0,26.725274725274726,90.0,90.24175824175825,0.0,0.04395604395604396
3.74,0.45530000000000004,0.0,0.17582417582417584,-16.414889946248632,-19.86813186813187,25.0,26.725274725274726,90.0,90.24175824175825,0.0,0.04395604395604396
3.76,0.45719999999999994,0.0,0.17582417582417584,-15.58615230507652,-18.98901098901099,25.0,26.725274725274726,90.0,90.15384615384616,0.0,0.04395604395604396
3.78,0.45909999999999995,0.0,0.17582417582417584,-14.768563176624541,-18.10989010989011,25.0,26.725274725274726,90.0,89.97802197802197,0.0,0.04395604395604396
3.8,0.46099999999999997,0.0,0.17582417582417584,-13.965030601518094,-17.318681318681318,25.0,26.725274725274726,90.0,89.62637362637362,0.0,0.04395604395604396
3.82,0.4629,0.0,0.17582417582417584,-13.178472523816144,-16.439560439560438,25.0,26.725274725274726,90.0,89.62637362637362,0.0,0.04395604395604396
3.84,0.4648,0.0,0.17582417582417584,-12.411805908233935,-15.648351648351648,25.0,26.725274725274726,90.0,89.53846153846153,0.0,-0.21978021978021978
3.86,0.4667,0.0,0.17582417582417584,-11.667935483216764,-14.857142857142858,25.0,26.725274725274726,90.0,89.53846153846153,0.0,-0.3076923076923077
3.88,0.4686,0.0,0.17582417582417584,-10.949742144818119,-13.978021978021978,25.0,26.725274725274726,90.0,89.53846153846153,0.0,-0.3076923076923077
3.9,0.47050000000000003,0.0,0.17582417582417584,-10.260071059570008,-13.186813186813186,25.0,26.725274725274726,90.0,89.53846153846153,0.0,-0.3076923076923077
3.92,0.47240000000000004,0.0,0.17582417582417584,-9.601719507735702,-12.395604395604396,25.0,26.725274725274726,90.0,89.53846153846153,0.0,-0.3076923076923077
3.94,0.47430000000000005,0.0,0.17582417582417584,-8.97742451148714,-11.692307692307692,25.0,26.725274725274726,90.0,89.45054945054945,0.0,-0.3076923076923077
3.96,0.47619999999999996,0.0,0.17582417582417584,-8.389850295630712,-10.901098901098901,25.0,26.725274725274726,90.0,89.45054945054945,0.0,-0.3076923076923077
3.98,0.47809999999999997,0.0,0.17582417582417584,-7.841575631494912,-10.197802197802197,25.0,26.725274725274726,90.0,89.45054945054945,0.0,-0.3076923076923077
4.0,0.48,0.0,0.17582417582417584,-7.335081117469771,-9.494505494505495,25.0,26.725274725274726,90.0,89.45054945054945,0.0,-0.3076923076923077
4.02,0.4819,0.0,0.17582417582417584,-6.872736452429134,-8.87912087912088,25.0,26.725274725274726,90.0,89.45054945054945,0.0,-0.3076923076923077
4.04,0.4838,0.0,0.17582417582417584,-6.4567877608489255,-8.263736263736265,25.0,26.725274725274726,90.0,89.45054945054945,0.0,-0.3076923076923077
4.06,0.4857,0.0,0.17582417582417584,-6.089345030836995,-7.648351648351649,25.0,26.725274725274726,90.0,89.45054945054945,0.0,-0.3076923076923077
4.08,0.48760000000000003,0.0,0.17582417582417584,-5.772369728484556,-7.208791208791209,25.0,26.725274725274726,90.0,89.45054945054945,0.0,-0.3076923076923077
4.1,0.48949999999999994,0.0,0.17582417582417584,-5.50766265391897,-6.681318681318682,25.0,26.725274725274726,90.0,89.45054945054945,0.0,-0.3076923076923077
4.12,0.49140000000000006,0.0,0.17582417582417584,-5.2968521061510465,-6.241758241758242,25.0,26.725274725274726,90.0,89.45054945054945,0.0,-0.3076923076923077
4.14,0.49329999999999996,0.0,0.17582417582417584,-5.141382425251118,-5.802197802197802,25.0,26.725274725274726,90.0,89.45054945054945,0.0,-0.3076923076923077
4.16,0.4952,0.0,0.17582417582417584,-5.042502981527539,-5.538461538461538,25.0,26.725274725274726,90.0,89.45054945054945,0.0,-0.3076923076923077
4.18,0.4971,0.0,0.17582417582417584,-5.001257682200732,-5.274725274725275,25.0,26.725274725274726,90.0,89.45054945054945,0.0,-0.3076923076923077
4.2,0.499,0.0,0.17582417582417584,-5.018475066539763,-5.0989010989010985,25.0,26.725274725274726,90.0,89.45054945054945,0.0,-0.3076923076923077
4.22,0.5009,0.0,0.17582417582417584,-5.094759060537969,-5.0989010989010985,25.0,26.725274725274726,90.0,89.45054945054945,0.0,-0.3076923076923077
4.24,0.5028,0.0,0.17582417582417584,-5.230480461927257,-5.0989010989010985,25.0,26.725274725274726,90.0,89.45054945054945,0.0,-0.3076923076923077
4.26,0.5047,0.0,0.17582417582417584,-5.4257692256488586,-5.010989010989011,25.0,26.725274725274726,90.0,89.45054945054945,0.0,-0.3076923076923077
4.28,0.5066,0.0,0.17582417582417584,-5.680507618793905,-5.010989010989011,25.0,26.725274725274726,90.0,89.45054945054945,0.0,-0.3076923076923077
4.3,0.5085,0.0,0.17582417582417584,-5.99432431248324,-5.010989010989011,25.0,26.725274725274726,90.0,89.45054945054945,0.0,-0.3076923076923077
4.32,0.5104000000000001,0.0,0.17582417582417584,-6.366589476159049,-5.010989010989011,25.0,26.725274725274726,90.0,89.45054945054945,0.0,-0.3076923076923077
4.34,0.5123,0.0,0.17582417582417584,-6.796410937297287,-5.010989010989011,25.0,26.725274725274726,90.0,89.45054945054945,0.0,-0.3076923076923077
4.36,0.5142,0.0,0.17582417582417584,-7.282631466611502,-5.010989010989011,25.0,26.725274725274726,90.0,89.45054945054945,0.0,-0.3076923076923077
4.38,0.5161,0.0,0.17582417582417584,-7.823827245394536,-5.010989010989011,25.0,26.725274725274726,90.0,89.45054945054945,0.0,-0.3076923076923077
4.4,0.518,0.0,0.17582417582417584,-8.418307567733352,-5.0989010989010985,25.0,26.725274725274726,90.0,89.45054945054945,0.0,-0.3076923076923077
4.42,0.5199,0.0,0.17582417582417584,-9.064115825927551,-5.362637362637362,25.0,26.725274725274726,90.0,89.45054945054945,0.0,-0.3076923076923077
4.44,0.5218,0.0,0.17582417582417584,-9.759031822549076,-5.626373626373627,25.0,26.725274725274726,90.0,89.45054945054945,0.0,-0.3076923076923077
4.46,0.5237,0.0,0.17582417582417584,-10.500575447196846,-6.065934065934066,25.0,26.725274725274726,90.0,89.45054945054945,0.0,-0.3076923076923077
4.48,0.5256000000000001,0.0,0.17582417582417584,-11.286011750141355,-6.593406593406593,25.0,26.725274725274726,90.0,89.45054945054945,0.0,-0.3076923076923077
4.5,0.5275,0.0,0.17582417582417584,-12.112357438721066,-7.1208791208791204,25.0,26.725274725274726,90.0,89.45054945054945,0.0,-0.3076923076923077
4.52,0.5294,0.0,0.17582417582417584,-12.976388815569145,-7.736263736263736,25.0,26.725274725274726,90.0,89.45054945054945,0.0,-0.3076923076923077
4.54,0.5313,0.0,0.17582417582417584,-13.87465117052519,-8.351648351648352,25.0,26.725274725274726,90.0,89.45054945054945,0.0,-0.3076923076923077
4.56,0.5332,0.0,0.17582417582417584,-14.803469630450317,-9.054945054945055,25.0,26.725274725274726,90.0,89.45054945054945,0.0,-0.3076923076923077
4.58,0.5351,0.0,0.17582417582417584,-15.758961463138728,-9.758241758241759,25.0,26.725274725274726,90.0,89.45054945054945,0.0,-0.3076923076923077
4.6,0.5369999999999999,0.0,0.17582417582417584,-16.737049823132338,-10.637362637362637,25.0,26.725274725274726,90.0,89.45054945054945,0.0,-0.3076923076923077
4.62,0.5389,0.0,0.17582417582417584,-17.73347891853807,-11.428571428571429,25.0,26.725274725274726,90.0,89.45054945054945,0.0,-0.3076923076923077
4.64,0.5408,0.0,0.17582417582417584,-18.743830568948226,-12.395604395604396,25.0,26.725274725274726,90.0,89.45054945054945,0.0,-0.3076923076923077
4.66,0.5427000000000001,0.0,0.17582417582417584,-19.76354211532743,-13.274725274725276,25.0,26.725274725274726,90.0,89.45054945054945,0.0,-0.3076923076923077
4.68,0.5446,0.0,0.17582417582417584,-20.787925633286328,-14.241758241758241,25.0,26.725274725274726,90.0,89.45054945054945,0.0,-0.3076923076923077
4.7,0.5465,0.0,0.17582417582417584,-21.81218839158036,-15.208791208791208,25.0,26.725274725274726,90.0,89.45054945054945,0.0,-0.3076923076923077
4.72,0.5484,0.0,0.17582417582417584,-22.83145448798527,-16.175824175824175,25.0,26.725274725274726,90.0,89.45054945054945,0.0,-0.3076923076923077
4.74,0.5503,0.0,0.17582417582417584,-23.840787584988608,-17.142857142857142,25.0,26.725274725274726,90.0,89.45054945054945,0.0,-0.3076923076923077
4.76,0.5522,0.0,0.17582417582417584,-24.83521465803893,-18.197802197802197,25.0,26.725274725274726,90.0,89.45054945054945,0.0,-0.3076923076923077
4.78,0.5541,0.0,0.17582417582417584,-25.809750659493382,-19.164835164835164,25.0,26.725274725274726,90.0,89.45054945054945,0.0,-0.3076923076923077
4.8,0.5559999999999999,0.0,0.17582417582417584,-26.759423991954073,-20.21978021978022,25.0,26.725274725274726,90.0,89.45054945054945,0.0,-0.3076923076923077
4.82,0.5579000000000001,0.0,0.17582417582417584,-27.67930267546283,-21.274725274725274,25.0,26.725274725274726,90.0,89.45054945054945,0.0,-0.3076923076923077
4.84,0.5598,0.0,0.17582417582417584,-28.564521084099788,-22.32967032967033,25.0,26.725274725274726,90.0,89.45054945054945,0.0,-0.3076923076923077
4.86,0.5617000000000001,0.0,0.17582417582417584,-29.410307118981194,-23.296703296703296,25.0,26.725274725274726,90.0,89.45054945054945,0.0,-0.3076923076923077
4.88,0.5636,0.0,0.17582417582417584,-30.21200967654823,-24.263736263736263,25.0,26.725274725274726,90.0,89.45054945054945,0.0,-0.3076923076923077
4.9,0.5655,0.0,0.17582417582417584,-30.965126263463226,-25.23076923076923,25.0,26.725274725274726,90.0,89.62637362637362,0.0,-0.3076923076923077
4.92,0.5674,0.0,0.17582417582417584,-31.66533060245321,-26.10989010989011,25.0,26.725274725274726,90.0,89.89010989010988,0.0,-0.3076923076923077
4.94,0.5693,0.0,0.17582417582417584,-32.308500067148515,-26.98901098901099,25.0,26.725274725274726,90.0,90.06593406593407,0.0,-0.3076923076923077
4.96,0.5712,0.0,0.17582417582417584,-32.89074277842494,-27.86813186813187,25.0,26.725274725274726,90.0,90.15384615384616,0.0,-0.04395604395604396
4.98,0.5731,0.0,0.17582417582417584,-33.40842419005437,-28.65934065934066,25.0,26.725274725274726,90.0,90.15384615384616,0.0,0.04395604395604396
5.0,0.575,0.0,0.17582417582417584,-33.8581929876693,-29.45054945054945,25.0,26.725274725274726,90.0,90.15384615384616,0.0,-0.04395604395604396
5.02,0.5769,0.0,0.17582417582417584,-34.23700612222785,-30.153846153846153,25.0,26.725274725274726,90.0,90.15384615384616,0.0,-0.04395604395604396
5.04,0.5788,0.0,0.17582417582417584,-34.54215279739019,-30.857142857142858,25.0,26.725274725274726,90.0,90.15384615384616,0.0,0.04395604395604396
5.06,0.5807,0.0,0.17582417582417584,-34.77127722955552,-31.384615384615383,25.0,26.725274725274726,90.0,90.15384615384616,0.0,0.04395604395604396
5.08,0.5826,0.0,0.17582417582417584,-34.92239999981629,-31.912087912087912,25.0,26.725274725274726,90.0,90.15384615384616,0.0,0.04395604395604396
5.1,0.5845,0.0,0.17582417582417584,-34.99393781881935,-32.26373626373626,25.0,26.725274725274726,90.0,90.15384615384616,0.0,0.04395604395604396
5.12,0.5864,0.0,0.17582417582417584,-34.98472152853265,-32.61538461538461,25.0,26.725274725274726,90.0,90.15384615384616,0.0,0.04395604395604396
5.14,0.5882999999999999,0.0,0.17582417582417584,-34.89401216924045,-32.879120879120876,25.0,26.725274725274726,90.0,90.24175824175825,0.0,0.04395604395604396
5.16,0.5902000000000001,0.0,0.17582417582417584,-34.72151494576594,-33.05494505494506,25.0,26.725274725274726,90.0,90.24175824175825,0.0,0.04395604395604396
5.18,0.5921,0.0,0.17582417582417584,-34.46739093397497,-33.23076923076923,25.0,26.725274725274726,90.0,90.24175824175825,0.0,0.04395604395604396
5.2,0.5940000000000001,0.0,0.17582417582417584,-34.132266377063885,-33.23076923076923,25.0,26.725274725274726,90.0,90.24175824175825,0.0,0.04395604395604396
5.22,0.5959,0.0,0.17582417582417584,-33.71723943098975,-33.23076923076923,25.0,26.725274725274726,90.0,90.24175824175825,0.0,0.04395604395604396
5.24,0.5978,0.0,0.17582417582417584,-33.22388422965725,-33.23076923076923,25.0,26.725274725274726,90.0,90.24175824175825,0.0,0.04395604395604396
5.26,0.5997,0.0,0.17582417582417584,-32.65425215312589,-33.23076923076923,25.0,26.725274725274726,90.0,90.24175824175825,0.0,0.04395604395604396
5.28,0.6016,0.0,0.17582417582417584,-32.010870196114396,-33.142857142857146,25.0,26.725274725274726,90.0,90.24175824175825,0.0,0.04395604395604396
5.3,0.6034999999999999,0.0,0.17582417582417584,-31.29673634942882,-32.879120879120876,25.0,26.725274725274726,90.0,90.24175824175825,0.0,0.04395604395604396
5.32,0.6054,0.0,0.17582417582417584,-30.51531192357168,-32.527472527472526,25.0,26.725274725274726,90.0,90.24175824175825,0.0,0.04395604395604396
5.34,0.6073,0.0,0.17582417582417584,-29.670510761652316,-32.08791208791209,25.0,26.725274725274726,90.0,90.24175824175825,0.0,0.04395604395604396
5.36,0.6092,0.0,0.17582417582417584,-28.76668530773025,-31.560439560439562,25.0,26.725274725274726,90.0,90.24175824175825,0.0,0.04395604395604396
5.38,0.6111,0.0,0.17582417582417584,-27.808609516812425,-30.945054945054945,25.0,26.725274725274726,90.0,90.24175824175825,0.0,0.04395604395604396
5.4,0.613,0.0,0.17582417582417584,-26.8014586137817,-30.24175824175824,25.0,26.725274725274726,90.0,90.24175824175825,0.0,0.04395604395604396
5.42,0.6149,0.0,0.17582417582417584,-25.75078573046096,-29.53846153846154,25.0,26.725274725274726,90.0,90.24175824175825,0.0,0.04395604395604396
5.44,0.6168,0.0,0.17582417582417584,-24.662495472681012,-28.65934065934066,25.0,26.725274725274726,90.0,90.24175824175825,0.0,0.04395604395604396
5.46,0.6187,0.0,0.17582417582417584,-23.542814492497342,-27.78021978021978,25.0,26.725274725274726,90.0,90.24175824175825,0.0,0.04395604395604396
5.48,0.6206,0.0,0.17582417582417584,-22.39825916443532,-26.813186813186814,25.0,26.725274725274726,90.0,90.24175824175825,0.0,0.04395604395604396
5.5,0.6224999999999999,0.0,0.17582417582417584,-21.235600488687304,-25.846153846153847,25.0,26.725274725274726,90.0,90.24175824175825,0.0,0.04395604395604396
5.52,0.6244,0.0,0.17582417582417584,-20.061826368361125,-24.791208791208792,25.0,26.725274725274726,90.0,90.24175824175825,0.0,0.04395604395604396
5.54,0.6263,0.0,0.17582417582417584,-18.884101432020216,-23.736263736263737,25.0,26.725274725274726,90.0,90.24175824175825,0.0,0.04395604395604396
5.56,0.6282,0.0,0.17582417582417584,-17.709724596663456,-22.681318681318682,25.0,26.725274725274726,90.0,90.24175824175825,0.0,0.04395604395604396
5.58,0.6301,0.0,0.17582417582417584,-16.546084589782616,-21.53846153846154,25.0,26.725274725274726,90.0,90.24175824175825,0.0,0.04395604395604396
5.6,0.6319999999999999,0.0,0.17582417582417584,-15.400613672001835,-20.395604395604394,25.0,26.725274725274726,90.0,90.24175824175825,0.0,0.04395604395604396
5.62,0.6339,0.0,0.17582417582417584,-14.280739823836141,-19.34065934065934,25.0,26.725274725274726,90.0,90.15384615384616,0.0,0.04395604395604396
5.64,0.6357999999999999,0.0,0.17582417582417584,-13.19383768110611,-18.197802197802197,25.0,26.725274725274726,90.0,89.97802197802197,0.0,0.04395604395604396
5.66,0.6377,0.0,0.17582417582417584,-12.147178523281871,-17.054945054945055,25.0,26.725274725274726,90.0,89.62637362637362,0.0,0.04395604395604396
5.68,0.6396,0.0,0.17582417582417584,-11.147879637311341,-15.912087912087912,25.0,26.725274725274726,90.0,89.53846153846153,0.0,0.04395604395604396
5.7,0.6415,0.0,0.17582417582417584,-10.202853396075831,-14.76923076923077,25.0,26.725274725274726,90.0,89.53846153846153,0.0,-0.21978021978021978
5.72,0.6434,0.0,0.17582417582417584,-9.318756405327669,-13.714285714285714,25.0,26.725274725274726,90.0,89.53846153846153,0.0,-0.3076923076923077
5.74,0.6453,0.0,0.17582417582417584,-8.501939085569571,-12.659340659340659,25.0,26.725274725274726,90.0,89.53846153846153,0.0,-0.3076923076923077
5.76,0.6472,0.0,0.17582417582417584,-7.758396065656804,-11.604395604395604,25.0,26.725274725274726,90.0,89.53846153846153,0.0,-0.3076923076923077
5.78,0.6491,0.0,0.17582417582417584,-7.093717772735918,-10.637362637362637,25.0,26.725274725274726,90.0,89.45054945054945,0.0,-0.3076923076923077
5.8,0.6509999999999999,0.0,0.17582417582417584,-6.513043608309337,-9.67032967032967,25.0,26.725274725274726,90.0,89.45054945054945,0.0,-0.3076923076923077
5.82,0.6529,0.0,0.17582417582417584,-6.021017102563551,-8.791208791208792,25.0,26.725274725274726,90.0,89.45054945054945,0.0,-0.3076923076923077
5.84,0.6547999999999999,0.0,0.17582417582417584,-5.621743438472539,-8.0,25.0,26.725274725274726,90.0,89.45054945054945,0.0,-0.3076923076923077
5.86,0.6567000000000001,0.0,0.17582417582417584,-5.318749733453744,-7.2967032967032965,25.0,26.725274725274726,90.0,89.45054945054945,0.0,-0.3076923076923077
5.88,0.6586,0.0,0.17582417582417584,-5.114948459401441,-6.593406593406593,25.0,26.725274725274726,90.0,89.45054945054945,0.0,-0.3076923076923077
5.9,0.6605,0.0,0.17582417582417584,-5.012604371656442,-6.065934065934066,25.0,26.725274725274726,90.0,89.45054945054945,0.0,-0.3076923076923077
5.92,0.6624,0.0,0.17582417582417584,-5.013305303830492,-5.626373626373627,25.0,26.725274725274726,90.0,89.45054945054945,0.0,-0.3076923076923077
5.94,0.6643,0.0,0.17582417582417584,-5.117937168341067,-5.274725274725275,25.0,26.725274725274726,90.0,89.45054945054945,0.0,-0.3076923076923077
5.96,0.6662,0.0,0.17582417582417584,-5.326663482017798,-5.274725274725275,25.0,26.725274725274726,90.0,89.45054945054945,0.0,-0.3076923076923077
5.98,0.6681,0.0,0.17582417582417584,-5.63890971222744,-5.274725274725275,25.0,26.725274725274726,90.0,89.45054945054945,0.0,-0.3076923076923077
6.0,0.67,0.0,0.17582417582417584,-6.053352711676244,-5.274725274725275,25.0,26.725274725274726,90.0,89.45054945054945,0.0,-0.3076923076923077
6.02,0.6718999999999999,0.0,0.17582417582417584,-6.567915479463897,-5.274725274725275,25.0,26.725274725274726,90.0,89.45054945054945,0.0,-0.3076923076923077
6.04,0.6738,0.0,0.17582417582417584,-7.179767452189484,-5.274725274725275,25.0,26.725274725274726,90.0,89.45054945054945,0.0,-0.3076923076923077
6.06,0.6757,0.0,0.17582417582417584,-7.8853304920917076,-5.274725274725275,25.0,26.725274725274726,90.0,89.45054945054945,0.0,-0.3076923076923077
6.08,0.6776,0.0,0.17582417582417584,-8.680290699518979,-5.274725274725275,25.0,26.725274725274726,90.0,89.45054945054945,0.0,-0.3076923076923077
6.1,0.6795,0.0,0.17582417582417584,-9.559616134678391,-5.362637362637362,25.0,26.725274725274726,90.0,89.45054945054945,0.0,-0.3076923076923077
6.12,0.6814,0.0,0.17582417582417584,-10.51758048885541,-5.802197802197802,25.0,26.725274725274726,90.0,89.45054945054945,0.0,-0.3076923076923077
6.14,0.6832999999999999,0.0,0.17582417582417584,-11.547792698399721,-6.241758241758242,25.0,26.725274725274726,90.0,89.45054945054945,0.0,-0.3076923076923077
6.16,0.6852,0.0,0.17582417582417584,-12.643232446056228,-6.857142857142857,25.0,26.725274725274726,90.0,89.45054945054945,0.0,-0.3076923076923077
6.18,0.6870999999999999,0.0,0.17582417582417584,-13.796291444016344,-7.56043956043956,25.0,26.725274725274726,90.0,89.45054945054945,0.0,-0.3076923076923077
6.2,0.6890000000000001,0.0,0.17582417582417584,-14.99882034175924,-8.351648351648352,25.0,26.725274725274726,90.0,89.45054945054945,0.0,-0.3076923076923077
6.22,0.6909,0.0,0.17582417582417584,-16.24218104972771,-9.23076923076923,25.0,26.725274725274726,90.0,89.45054945054945,0.0,-0.3076923076923077
6.24,0.6928,0.0,0.17582417582417584,-17.51730421759121,-10.10989010989011,25.0,26.725274725274726,90.0,89.45054945054945,0.0,-0.3076923076923077
6.26,0.6947,0.0,0.17582417582417584,-18.814751553710376,-11.164835164835164,25.0,26.725274725274726,90.0,89.45054945054945,0.0,-0.3076923076923077
6.28,0.6966,0.0,0.17582417582417584,-20.124782620931295,-12.395604395604396,25.0,26.725274725274726,90.0,89.45054945054945,0.0,-0.3076923076923077
6.3,0.6985,0.0,0.17582417582417584,-21.437425693469034,-13.538461538461538,25.0,26.725274725274726,90.0,89.45054945054945,0.0,-0.3076923076923077
6.32,0.7004,0.0,0.17582417582417584,-22.742552210907125,-14.68131868131868,25.0,26.725274725274726,90.0,89.45054945054945,0.0,-0.3076923076923077
6.34,0.7022999999999999,0.0,0.17582417582417584,-24.029954318735317,-15.912087912087912,25.0,26.725274725274726,90.0,89.45054945054945,0.0,-0.3076923076923077
6.36,0.7042,0.0,0.17582417582417584,-25.289424940906706,-17.142857142857142,25.0,26.725274725274726,90.0,89.45054945054945,0.0,-0.3076923076923077
6.38,0.7061,0.0,0.17582417582417584,-26.5108397891078,-18.373626373626372,25.0,26.725274725274726,90.0,89.45054945054945,0.0,-0.3076923076923077
6.4,0.7080000000000001,0.0,0.17582417582417584,-27.68424067633821,-19.604395604395606,25.0,26.725274725274726,90.0,89.45054945054945,0.0,-0.3076923076923077
6.42,0.7099,0.0,0.17582417582417584,-28.799919469459738,-20.923076923076923,25.0,26.725274725274726,90.0,89.45054945054945,0.0,-0.3076923076923077
6.44,0.7118,0.0,0.17582417582417584,-29.84850198711227,-22.153846153846153,25.0,26.725274725274726,90.0,89.45054945054945,0.0,-0.3076923076923077
6.46,0.7137,0.0,0.17582417582417584,-30.821031126240417,-23.47252747252747,25.0,26.725274725274726,90.0,89.45054945054945,0.0,-0.3076923076923077
6.48,0.7156,0.0,0.17582417582417584,-31.70904848288977,-24.703296703296704,25.0,26.725274725274726,90.0,89.45054945054945,0.0,-0.3076923076923077
6.5,0.7175,0.0,0.17582417582417584,-32.504673721299994,-25.846153846153847,25.0,26.725274725274726,90.0,89.62637362637362,0.0,-0.3076923076923077
6.52,0.7193999999999999,0.0,0.17582417582417584,-33.200680940024014,-26.98901098901099,25.0,26.725274725274726,90.0,89.89010989010988,0.0,-0.3076923076923077
6.54,0.7212999999999999,0.0,0.17582417582417584,-33.79057128514816,-28.043956043956044,25.0,26.725274725274726,90.0,90.06593406593407,0.0,-0.3076923076923077
6.56,0.7232,0.0,0.17582417582417584,-34.26864106895981,-29.01098901098901,25.0,26.725274725274726,90.0,90.15384615384616,0.0,-0.04395604395604396
6.58,0.7251,0.0,0.17582417582417584,-34.63004466781765,-29.978021978021978,25.0,26.725274725274726,90.0,90.15384615384616,0.0,0.13186813186813187
6.6,0.727,0.0,0.17582417582417584,-34.870851495688854,-30.76923076923077,25.0,26.725274725274726,90.0,90.15384615384616,0.0,0.04395604395604396
6.62,0.7289,0.0,0.17582417582417584,-34.98809637992163,-31.384615384615383,25.0,26.725274725274726,90.0,90.15384615384616,0.0,0.04395604395604396
6.64,0.7308,0.0,0.17582417582417584,-34.97982270334485,-32.0,25.0,26.725274725274726,90.0,90.15384615384616,0.0,0.13186813186813187
6.66,0.7327,0.0,0.17582417582417584,-34.845117721688496,-32.43956043956044,25.0,26.725274725274726,90.0,90.15384615384616,0.0,0.13186813186813187
6.68,0.7345999999999999,0.0,0.17582417582417584,-34.584139517474256,-32.7032967032967,25.0,26.725274725274726,90.0,90.24175824175825,0.0,0.13186813186813187
6.7,0.7365,0.0,0.17582417582417584,-34.19813511074159,-32.879120879120876,25.0,26.725274725274726,90.0,90.24175824175825,0.0,0.13186813186813187
6.72,0.7384,0.0,0.17582417582417584,-33.689449312969074,-32.967032967032964,25.0,26.725274725274726,90.0,90.24175824175825,0.0,0.13186813186813187
6.74,0.7403,0.0,0.17582417582417584,-33.06152398296855,-32.967032967032964,25.0,26.725274725274726,90.0,90.24175824175825,0.0,0.13186813186813187
6.76,0.7422,0.0,0.17582417582417584,-32.31888742193013,-32.967032967032964,25.0,26.725274725274726,90.0,90.24175824175825,0.0,0.13186813186813187
6.78,0.7441,0.0,0.17582417582417584,-31.467133728656915,-32.879120879120876,25.0,26.725274725274726,90.0,90.24175824175825,0.0,0.13186813186813187
6.8,0.746,0.0,0.17582417582417584,-30.512892024753505,-32.61538461538461,25.0,26.725274725274726,90.0,90.24175824175825,0.0,0.13186813186813187
6.82,0.7479,0.0,0.17582417582417584,-29.463785552440964,-32.175824175824175,25.0,26.725274725274726,90.0,90.24175824175825,0.0,0.13186813186813187
6.84,0.7498,0.0,0.17582417582417584,-28.32838074401516,-31.64835164835165,25.0,26.725274725274726,90.0,90.24175824175825,0.0,0.13186813186813187
6.86,0.7517,0.0,0.17582417582417584,-27.116126460922658,-30.945054945054945,25.0,26.725274725274726,90.0,90.24175824175825,0.0,0.13186813186813187
6.88,0.7535999999999999,0.0,0.17582417582417584,-25.83728370111369,-30.24175824175824,25.0,26.725274725274726,90.0,90.24175824175825,0.0,0.13186813186813187
6.9,0.7555000000000001,0.0,0.17582417582417584,-24.502846174804063,-29.274725274725274,25.0,26.725274725274726,90.0,90.24175824175825,0.0,0.13186813186813187
6.92,0.7574,0.0,0.17582417582417584,-23.124452250038612,-28.307692307692307,25.0,26.725274725274726,90.0,90.24175824175825,0.0,0.13186813186813187
6.94,0.7593,0.0,0.17582417582417584,-21.714288869460514,-27.252747252747252,25.0,26.725274725274726,90.0,90.24175824175825,0.0,0.13186813186813187
6.96,0.7612,0.0,0.17582417582417584,-20.28498813738913,-26.10989010989011,25.0,26.725274725274726,90.0,90.24175824175825,0.0,0.13186813186813187
6.98,0.7631,0.0,0.17582417582417584,-18.84951737058171,-24.87912087912088,25.0,26.725274725274726,90.0,90.24175824175825,0.0,0.13186813186813187
7.0,0.765,0.0,0.17582417582417584,-17.421063495808845,-23.64835164835165,25.0,26.725274725274726,90.0,90.24175824175825,0.0,0.13186813186813187
7.02,0.7668999999999999,0.0,0.17582417582417584,-16.012912761484863,-22.24175824175824,25.0,26.725274725274726,90.0,90.24175824175825,0.0,0.13186813186813187
7.04,0.7688,0.0,0.17582417582417584,-14.638326807964155,-20.923076923076923,25.0,26.725274725274726,90.0,90.24175824175825,0.0,0.13186813186813187
7.06,0.7706999999999999,0.0,0.17582417582417584,-13.31041621066499,-19.604395604395606,25.0,26.725274725274726,90.0,90.24175824175825,0.0,0.13186813186813187
7.08,0.7726,0.0,0.17582417582417584,-12.04201267085908,-18.197802197802197,25.0,26.725274725274726,90.0,89.97802197802197,0.0,0.13186813186813187
7.1,0.7745,0.0,0.17582417582417584,-10.84554107978423,-16.791208791208792,25.0,26.725274725274726,90.0,89.62637362637362,0.0,0.13186813186813187
7.12,0.7764,0.0,0.17582417582417584,-9.732892721748126,-15.472527472527473,25.0,26.725274725274726,90.0,89.53846153846153,0.0,0.04395604395604396
7.14,0.7783,0.0,0.17582417582417584,-8.715300910246727,-14.153846153846153,25.0,26.725274725274726,90.0,89.53846153846153,0.0,-0.3076923076923077
7.16,0.7802,0.0,0.17582417582417584,-7.803220367039335,-12.923076923076923,25.0,26.725274725274726,90.0,89.53846153846153,0.0,-0.3076923076923077
7.18,0.7820999999999999,0.0,0.17582417582417584,-7.006211656938733,-11.692307692307692,25.0,26.725274725274726,90.0,89.45054945054945,0.0,-0.3076923076923077
7.2,0.784,0.0,0.17582417582417584,-6.332831980227503,-10.461538461538462,25.0,26.725274725274726,90.0,89.45054945054945,0.0,-0.3076923076923077
7.22,0.7858999999999999,0.0,0.17582417582417584,-5.790533599675307,-9.406593406593407,25.0,26.725274725274726,90.0,89.45054945054945,0.0,-0.3076923076923077
7.24,0.7878000000000001,0.0,0.17582417582417584,-5.385571139801211,-8.351648351648352,25.0,26.725274725274726,90.0,89.45054945054945,0.0,-0.3076923076923077
7.26,0.7897,0.0,0.17582417582417584,-5.122918942163276,-7.472527472527473,25.0,26.725274725274726,90.0,89.45054945054945,0.0,-0.3076923076923077
7.28,0.7916,0.0,0.17582417582417584,-5.0061995920590405,-6.769230769230769,25.0,26.725274725274726,90.0,89.45054945054945,0.0,-0.3076923076923077
7.3,0.7935,0.0,0.17582417582417584,-5.037624649263337,-6.153846153846154,25.0,26.725274725274726,90.0,89.45054945054945,0.0,-0.3076923076923077
7.32,0.7954,0.0,0.17582417582417584,-5.217948518643594,-5.714285714285714,25.0,26.725274725274726,90.0,89.45054945054945,0.0,-0.3076923076923077
7.34,0.7973,0.0,0.17582417582417584,-5.546436286192595,-5.450549450549451,25.0,26.725274725274726,90.0,89.45054945054945,0.0,-0.3076923076923077
7.36,0.7992,0.0,0.17582417582417584,-6.020846222885027,-5.362637362637362,25.0,26.725274725274726,90.0,89.45054945054945,0.0,-0.3076923076923077
7.38,0.8010999999999999,0.0,0.17582417582417584,-6.637427523658948,-5.362637362637362,25.0,26.725274725274726,90.0,89.45054945054945,0.0,-0.3076923076923077
7.4,0.803,0.0,0.17582417582417584,-7.390933702780089,-5.362637362637362,25.0,26.725274725274726,90.0,89.45054945054945,0.0,-0.3076923076923077
7.42,0.8049,0.0,0.17582417582417584,-8.274651911066071,-5.450549450549451,25.0,26.725274725274726,90.0,89.45054945054945,0.0,-0.3076923076923077
7.44,0.8068000000000001,0.0,0.17582417582417584,-9.280448276304082,-5.626373626373627,25.0,26.725274725274726,90.0,89.45054945054945,0.0,-0.3076923076923077
7.46,0.8087,0.0,0.17582417582417584,-10.39882919719906,-5.802197802197802,25.0,26.725274725274726,90.0,89.45054945054945,0.0,-0.3076923076923077
7.48,0.8106,0.0,0.17582417582417584,-11.61901834502614,-6.153846153846154,25.0,26.725274725274726,90.0,89.45054945054945,0.0,-0.3076923076923077
7.5,0.8125,0.0,0.17582417582417584,-12.929048947610045,-6.681318681318682,25.0,26.725274725274726,90.0,89.45054945054945,0.0,-0.3076923076923077
7.52,0.8143999999999999,0.0,0.17582417582417584,-14.315870749253467,-7.384615384615385,25.0,26.725274725274726,90.0,89.45054945054945,0.0,-0.3076923076923077
7.54,0.8163,0.0,0.17582417582417584,-15.765470859783843,-8.263736263736265,25.0,26.725274725274726,90.0,89.45054945054945,0.0,-0.3076923076923077
7.56,0.8181999999999999,0.0,0.17582417582417584,-17.26300752809312,-9.31868131868132,25.0,26.725274725274726,90.0,89.45054945054945,0.0,-0.3076923076923077
7.58,0.8200999999999999,0.0,0.17582417582417584,-18.79295570255992,-10.373626373626374,25.0,26.725274725274726,90.0,89.45054945054945,0.0,-0.3076923076923077
7.6,0.822,0.0,0.17582417582417584,-20.339263074750903,-11.516483516483516,25.0,26.725274725274726,90.0,89.45054945054945,0.0,-0.3076923076923077
7.62,0.8239,0.0,0.17582417582417584,-21.885515146014544,-12.747252747252746,25.0,26.725274725274726,90.0,89.45054945054945,0.0,-0.3076923076923077
7.64,0.8258,0.0,0.17582417582417584,-23.415107711174542,-14.153846153846153,25.0,26.725274725274726,90.0,89.45054945054945,0.0,-0.3076923076923077
7.66,0.8277,0.0,0.17582417582417584,-24.91142502165854,-15.472527472527473,25.0,26.725274725274726,90.0,89.45054945054945,0.0,-0.3076923076923077
7.68,0.8296,0.0,0.17582417582417584,-26.35802177412129,-16.87912087912088,25.0,26.725274725274726,90.0,89.45054945054945,0.0,-0.3076923076923077
7.7,0.8315,0.0,0.17582417582417584,-27.738806971916226,-18.373626373626372,25.0,26.725274725274726,90.0,89.45054945054945,0.0,-0.3076923076923077
7.72,0.8333999999999999,0.0,0.17582417582417584,-29.038227627476623,-19.86813186813187,25.0,26.725274725274726,90.0,89.45054945054945,0.0,-0.3076923076923077
7.74,0.8353,0.0,0.17582417582417584,-30.241450215470152,-21.36263736263736,25.0,26.725274725274726,90.0,89.45054945054945,0.0,-0.3076923076923077
7.76,0.8371999999999999,0.0,0.17582417582417584,-31.334537750986136,-22.857142857142858,25.0,26.725274725274726,90.0,89.45054945054945,0.0,-0.3076923076923077
7.78,0.8391,0.0,0.17582417582417584,-32.30462035529391,-24.263736263736263,25.0,26.725274725274726,90.0,89.45054945054945,0.0,-0.3076923076923077
7.8,0.841,0.0,0.17582417582417584,-33.14005718490651,-25.67032967032967,25.0,26.725274725274726,90.0,89.53846153846153,0.0,-0.3076923076923077
7.82,0.8429,0.0,0.17582417582417584,-33.83058763859695,-26.98901098901099,25.0,26.725274725274726,90.0,89.71428571428571,0.0,-0.3076923076923077
7.84,0.8448,0.0,0.17582417582417584,-34.3674698221237,-28.21978021978022,25.0,26.725274725274726,90.0,90.06593406593407,0.0,-0.3076923076923077
7.86,0.8467,0.0,0.17582417582417584,-34.74360434193517,-29.274725274725274,25.0,26.725274725274726,90.0,90.15384615384616,0.0,-0.21978021978021978
7.88,0.8486,0.0,0.17582417582417584,-34.95364161690322,-30.32967032967033,25.0,26.725274725274726,90.0,90.15384615384616,0.0,0.13186813186813187
7.9,0.8505,0.0,0.17582417582417584,-34.99407104072611,-31.032967032967033,25.0,26.725274725274726,90.0,90.15384615384616,0.0,0.13186813186813187
7.92,0.8523999999999999,0.0,0.17582417582417584,-34.863290496234946,-31.736263736263737,25.0,26.725274725274726,90.0,90.15384615384616,0.0,0.04395604395604396
7.94,0.8543000000000001,0.0,0.17582417582417584,-34.56165491528296,-32.26373626373626,25.0,26.725274725274726,90.0,90.15384615384616,0.0,0.13186813186813187
7.96,0.8562,0.0,0.17582417582417584,-34.091502792690996,-32.61538461538461,25.0,26.725274725274726,90.0,90.24175824175825,0.0,0.13186813186813187
7.98,0.8581,0.0,0.17582417582417584,-33.457159798017145,-32.7032967032967,25.0,26.725274725274726,90.0,90.24175824175825,0.0,0.13186813186813187
8.0,0.86,0.0,0.17582417582417584,-32.664918882530245,-32.79120879120879,25.0,26.725274725274726,90.0,90.24175824175825,0.0,0.13186813186813187
8.02,0.8619,0.0,0.17582417582417584,-31.722996548183637,-32.79120879120879,25.0,26.725274725274726,90.0,90.24175824175825,0.0,0.13186813186813187
8.04,0.8637999999999999,0.0,0.17582417582417584,-30.64146522779597,-32.527472527472526,25.0,26.725274725274726,90.0,90.24175824175825,0.0,0.13186813186813187
8.06,0.8657,0.0,0.17582417582417584,-29.43216201794783,-32.175824175824175,25.0,26.725274725274726,90.0,90.24175824175825,0.0,0.13186813186813187
8.08,0.8676,0.0,0.17582417582417584,-28.10857430495073,-31.736263736263737,25.0,26.725274725274726,90.0,90.24175824175825,0.0,0.13186813186813187
8.1,0.8694999999999999,0.0,0.17582417582417584,-26.685703126053212,-31.032967032967033,25.0,26.725274725274726,90.0,90.24175824175825,0.0,0.13186813186813187
8.12,0.8714,0.0,0.17582417582417584,-25.179905409076294,-30.153846153846153,25.0,26.725274725274726,90.0,90.24175824175825,0.0,0.13186813186813187
8.14,0.8733000000000001,0.0,0.17582417582417584,-23.608716529996915,-29.186813186813186,25.0,26.725274725274726,90.0,90.24175824175825,0.0,0.13186813186813187
8.16,0.8752,0.0,0.17582417582417584,-21.990654915643507,-28.043956043956044,25.0,26.725274725274726,90.0,90.24175824175825,0.0,0.13186813186813187
8.18,0.8771,0.0,0.17582417582417584,-20.345010693570952,-26.9010989010989,25.0,26.725274725274726,90.0,90.24175824175825,0.0,0.13186813186813187
8.2,0.8789999999999999,0.0,0.17582417582417584,-18.691620649323575,-25.582417582417584,25.0,26.725274725274726,90.0,90.24175824175825,0.0,0.13186813186813187
8.22,0.8809,0.0,0.17582417582417584,-17.050631988665888,-24.175824175824175,25.0,26.725274725274726,90.0,90.24175824175825,0.0,0.13186813186813187
8.24,0.8828,0.0,0.17582417582417584,-15.44225761512589,-22.76923076923077,25.0,26.725274725274726,90.0,90.24175824175825,0.0,0.13186813186813187
8.26,0.8846999999999999,0.0,0.17582417582417584,-13.88652581764088,-21.274725274725274,25.0,26.725274725274726,90.0,90.24175824175825,0.0,0.13186813186813187
8.28,0.8865999999999999,0.0,0.17582417582417584,-12.403027415774378,-19.78021978021978,25.0,26.725274725274726,90.0,90.15384615384616,0.0,0.13186813186813187
8.3,0.8885000000000001,0.0,0.17582417582417584,-11.010663527713481,-18.197802197802197,25.0,26.725274725274726,90.0,89.97802197802197,0.0,0.13186813186813187
8.32,0.8904,0.0,0.17582417582417584,-9.727397206220695,-16.703296703296704,25.0,26.725274725274726,90.0,89.62637362637362,0.0,0.13186813186813187
8.34,0.8923,0.0,0.17582417582417584,-8.570012227501362,-15.208791208791208,25.0,26.725274725274726,90.0,89.53846153846153,0.0,0.04395604395604396
8.36,0.8941999999999999,0.0,0.17582417582417584,-7.553882315558075,-13.626373626373626,25.0,26.725274725274726,90.0,89.53846153846153,0.0,-0.3076923076923077
8.38,0.8961,0.0,0.17582417582417584,-6.692754038573744,-12.219780219780219,25.0,26.725274725274726,90.0,89.45054945054945,0.0,-0.3076923076923077
8.4,0.898,0.0,0.17582417582417584,-5.998546523253847,-10.901098901098901,25.0,26.725274725274726,90.0,89.45054945054945,0.0,-0.3076923076923077
8.42,0.8999,0.0,0.17582417582417584,-5.481170997500678,-9.582417582417582,25.0,26.725274725274726,90.0,89.45054945054945,0.0,-0.3076923076923077
8.44,0.9017999999999999,0.0,0.17582417582417584,-5.148372991541768,-8.351648351648352,25.0,26.725274725274726,90.0,89.45054945054945,0.0,-0.3076923076923077
8.46,0.9037000000000001,0.0,0.17582417582417584,-5.005599803553039,-7.472527472527473,25.0,26.725274725274726,90.0,89.45054945054945,0.0,-0.3076923076923077
8.48,0.9056000000000001,0.0,0.17582417582417584,-5.0558955694349965,-6.681318681318682,25.0,26.725274725274726,90.0,89.45054945054945,0.0,-0.3076923076923077
8.5,0.9075,0.0,0.17582417582417584,-5.299825969878253,-6.065934065934066,25.0,26.725274725274726,90.0,89.45054945054945,0.0,-0.3076923076923077
8.52,0.9094,0.0,0.17582417582417584,-5.735434264012834,-5.714285714285714,25.0,26.725274725274726,90.0,89.45054945054945,0.0,-0.3076923076923077
8.54,0.9112999999999999,0.0,0.17582417582417584,-6.35822996122336,-5.626373626373627,25.0,26.725274725274726,90.0,89.45054945054945,0.0,-0.3076923076923077
8.56,0.9132,0.0,0.17582417582417584,-7.1612110351974625,-5.626373626373627,25.0,26.725274725274726,90.0,89.45054945054945,0.0,-0.3076923076923077
8.58,0.9151,0.0,0.17582417582417584,-8.1349201515973,-5.626373626373627,25.0,26.725274725274726,90.0,89.45054945054945,0.0,-0.3076923076923077
8.6,0.9169999999999999,0.0,0.17582417582417584,-9.26753492809637,-5.714285714285714,25.0,26.725274725274726,90.0,89.45054945054945,0.0,-0.3076923076923077
8.62,0.9188999999999999,0.0,0.17582417582417584,-10.54499177856707,-5.8901098901098905,25.0,26.725274725274726,90.0,89.45054945054945,0.0,-0.3076923076923077
8.64,0.9208000000000001,0.0,0.17582417582417584,-11.951142418042755,-6.241758241758242,25.0,26.725274725274726,90.0,89.45054945054945,0.0,-0.3076923076923077
8.66,0.9227,0.0,0.17582417582417584,-13.46794162815656,-6.769230769230769,25.0,26.725274725274726,90.0,89.45054945054945,0.0,-0.3076923076923077
8.68,0.9246,0.0,0.17582417582417584,-15.075664410807697,-7.472527472527473,25.0,26.725274725274726,90.0,89.45054945054945,0.0,-0.3076923076923077
8.7,0.9264999999999999,0.0,0.17582417582417584,-16.753150197725905,-8.43956043956044,25.0,26.725274725274726,90.0,89.45054945054945,0.0,-0.3076923076923077
8.72,0.9284,0.0,0.17582417582417584,-18.478071342421767,-9.494505494505495,25.0,26.725274725274726,90.0,89.45054945054945,0.0,-0.3076923076923077
8.74,0.9303,0.0,0.17582417582417584,-20.227222705703984,-10.725274725274724,25.0,26.725274725274726,90.0,89.45054945054945,0.0,-0.3076923076923077
8.76,0.9321999999999999,0.0,0.17582417582417584,-21.976828763423203,-11.956043956043956,25.0,26.725274725274726,90.0,89.45054945054945,0.0,-0.3076923076923077
8.78,0.9340999999999999,0.0,0.17582417582417584,-23.70286432202674,-13.538461538461538,25.0,26.725274725274726,90.0,89.45054945054945,0.0,-0.3076923076923077
8.8,0.936,0.0,0.17582417582417584,-25.381384630233516,-15.032967032967033,25.0,26.725274725274726,90.0,89.45054945054945,0.0,-0.3076923076923077
8.82,0.9379000000000001,0.0,0.17582417582417584,-26.988860429578292,-16.52747252747253,25.0,26.725274725274726,90.0,89.45054945054945,0.0,-0.3076923076923077
8.84,0.9398,0.0,0.17582417582417584,-28.502513298091053,-18.10989010989011,25.0,26.725274725274726,90.0,89.45054945054945,0.0,-0.3076923076923077
8.86,0.9417,0.0,0.17582417582417584,-29.90064651470596,-19.78021978021978,25.0,26.725274725274726,90.0,89.45054945054945,0.0,-0.3076923076923077
8.88,0.9436000000000001,0.0,0.17582417582417584,-31.1629666111075,-21.36263736263736,25.0,26.725274725274726,90.0,89.45054945054945,0.0,-0.3076923076923077
8.9,0.9455,0.0,0.17582417582417584,-32.27089078577151,-23.032967032967033,25.0,26.725274725274726,90.0,89.45054945054945,0.0,-0.3076923076923077
8.92,0.9474,0.0,0.17582417582417584,-33.207835434162654,-24.615384615384617,25.0,26.725274725274726,90.0,89.45054945054945,0.0,-0.3076923076923077
8.94,0.9492999999999999,0.0,0.17582417582417584,-33.95948120065107,-26.197802197802197,25.0,26.725274725274726,90.0,89.53846153846153,0.0,-0.3076923076923077
8.96,0.9512,0.0,0.17582417582417584,-34.51401018188792,-27.604395604395606,25.0,26.725274725274726,90.0,89.8021978021978,0.0,-0.3076923076923077
8.98,0.9531000000000001,0.0,0.17582417582417584,-34.862311207224565,-28.923076923076923,25.0,26.725274725274726,90.0,90.06593406593407,0.0,-0.3076923076923077
9.0,0.955,0.0,0.17582417582417584,-34.99814948722491,-30.065934065934066,25.0,26.725274725274726,90.0,90.15384615384616,0.0,-0.13186813186813187
9.02,0.9569,0.0,0.17582417582417584,-34.9182973532261,-30.945054945054945,25.0,26.725274725274726,90.0,90.15384615384616,0.0,0.04395604395604396
9.04,0.9587999999999999,0.0,0.17582417582417584,-34.6226233049219,-31.64835164835165,25.0,26.725274725274726,90.0,90.15384615384616,0.0,0.04395604395604396
9.06,0.9607,0.0,0.17582417582417584,-34.114137133628134,-32.175824175824175,25.0,26.725274725274726,90.0,90.15384615384616,0.0,0.04395604395604396
9.08,0.9626,0.0,0.17582417582417584,-33.398989489717636,-32.35164835164835,25.0,26.725274725274726,90.0,90.24175824175825,0.0,0.13186813186813187
9.1,0.9644999999999999,0.0,0.17582417582417584,-32.486424906130324,-32.43956043956044,25.0,26.725274725274726,90.0,90.24175824175825,0.0,0.13186813186813187
9.12,0.9663999999999999,0.0,0.17582417582417584,-31.38868796738618,-32.43956043956044,25.0,26.725274725274726,90.0,90.24175824175825,0.0,0.13186813186813187
9.14,0.9683,0.0,0.17582417582417584,-30.12088301580364,-32.35164835164835,25.0,26.725274725274726,90.0,90.24175824175825,0.0,0.13186813186813187
9.16,0.9702,0.0,0.17582417582417584,-28.70078850358692,-31.912087912087912,25.0,26.725274725274726,90.0,90.24175824175825,0.0,0.13186813186813187
9.18,0.9721,0.0,0.17582417582417584,-27.14862782040113,-31.384615384615383,25.0,26.725274725274726,90.0,90.24175824175825,0.0,0.13186813186813187
9.2,0.9739999999999999,0.0,0.17582417582417584,-25.486799139880066,-30.681318681318682,25.0,26.725274725274726,90.0,90.24175824175825,0.0,0.13186813186813187
9.22,0.9759000000000001,0.0,0.17582417582417584,-23.73956752375464,-29.714285714285715,25.0,26.725274725274726,90.0,90.24175824175825,0.0,0.13186813186813187
9.24,0.9778,0.0,0.17582417582417584,-21.93272318740944,-28.571428571428573,25.0,26.725274725274726,90.0,90.24175824175825,0.0,0.13186813186813187
9.26,0.9797,0.0,0.17582417582417584,-20.09321045414746,-27.34065934065934,25.0,26.725274725274726,90.0,90.24175824175825,0.0,0.13186813186813187
9.28,0.9815999999999999,0.0,0.17582417582417584,-18.248732496038464,-25.934065934065934,25.0,26.725274725274726,90.0,90.24175824175825,0.0,0.13186813186813187
9.3,0.9835,0.0,0.17582417582417584,-16.427337466088424,-24.439560439560438,25.0,26.725274725274726,90.0,90.24175824175825,0.0,0.13186813186813187
9.32,0.9854,0.0,0.17582417582417584,-14.656992059457128,-22.857142857142858,25.0,26.725274725274726,90.0,90.24175824175825,0.0,0.13186813186813187
9.34,0.9873,0.0,0.17582417582417584,-12.96514889116515,-21.274725274725274,25.0,26.725274725274726,90.0,90.24175824175825,0.0,0.13186813186813187
9.36,0.9892,0.0,0.17582417582417584,-11.37831433586315,-19.604395604395606,25.0,26.725274725274726,90.0,90.24175824175825,0.0,0.13186813186813187
9.38,0.9911000000000001,0.0,0.17582417582417584,-9.921623634602785,-17.934065934065934,25.0,26.725274725274726,90.0,89.89010989010988,0.0,0.13186813186813187
9.4,0.993,0.0,0.17582417582417584,-8.618430128364613,-16.263736263736263,25.0,26.725274725274726,90.0,89.62637362637362,0.0,0.13186813186813187
9.42,0.9949,0.0,0.17582417582417584,-7.489915424076065,-14.68131868131868,25.0,26.725274725274726,90.0,89.53846153846153,0.0,-0.04395604395604396
9.44,0.9967999999999999,0.0,0.17582417582417584,-6.554727133334387,-13.010989010989011,25.0,26.725274725274726,90.0,89.45054945054945,0.0,-0.3076923076923077
9.46,0.9987,0.0,0.17582417582417584,-5.8286505461345826,-11.428571428571429,25.0,26.725274725274726,90.0,89.45054945054945,0.0,-0.3076923076923077
9.48,1.0006000000000002,0.0,0.17582417582417584,-5.324320212525814,-10.021978021978022,25.0,26.725274725274726,90.0,89.45054945054945,0.0,-0.3076923076923077
9.5,1.0025,0.0,0.17582417582417584,-5.050976907090027,-8.703296703296703,25.0,26.725274725274726,90.0,89.45054945054945,0.0,-0.3076923076923077
9.52,1.0044,0.0,0.17582417582417584,-5.014274849205936,-7.56043956043956,25.0,26.725274725274726,90.0,89.45054945054945,0.0,-0.3076923076923077
9.54,1.0063,0.0,0.17582417582417584,-5.216143352862542,-6.769230769230769,25.0,26.725274725274726,90.0,89.45054945054945,0.0,-0.3076923076923077
9.56,1.0082,0.0,0.17582417582417584,-5.65470629185101,-6.153846153846154,25.0,26.725274725274726,90.0,89.45054945054945,0.0,-0.3076923076923077
9.58,1.0101,0.0,0.17582417582417584,-6.32426189981385,-5.8901098901098905,25.0,26.725274725274726,90.0,89.45054945054945,0.0,-0.3076923076923077
9.6,1.012,0.0,0.17582417582417584,-7.2153244918880475,-5.8901098901098905,25.0,26.725274725274726,90.0,89.45054945054945,0.0,-0.3076923076923077
9.62,1.0139,0.0,0.17582417582417584,-8.314728709117363,-5.8901098901098905,25.0,26.725274725274726,90.0,89.45054945054945,0.0,-0.3076923076923077
9.64,1.0158,0.0,0.17582417582417584,-9.605795863391995,-5.978021978021978,25.0,26.725274725274726,90.0,89.45054945054945,0.0,-0.3076923076923077
9.66,1.0177,0.0,0.17582417582417584,-11.068560915542179,-6.241758241758242,25.0,26.725274725274726,90.0,89.45054945054945,0.0,-0.3076923076923077
9.68,1.0196,0.0,0.17582417582417584,-12.680057569437315,-6.5054945054945055,25.0,26.725274725274726,90.0,89.45054945054945,0.0,-0.3076923076923077
9.7,1.0215,0.0,0.17582417582417584,-14.414657928301796,-7.032967032967033,25.0,26.725274725274726,90.0,89.45054945054945,0.0,-0.3076923076923077
9.72,1.0234,0.0,0.17582417582417584,-16.244462154111943,-7.824175824175824,25.0,26.725274725274726,90.0,89.45054945054945,0.0,-0.3076923076923077
9.74,1.0253,0.0,0.17582417582417584,-18.139732615143853,-8.791208791208792,25.0,26.725274725274726,90.0,89.45054945054945,0.0,-0.3076923076923077
9.76,1.0272000000000001,0.0,0.17582417582417584,-20.069366118554726,-10.021978021978022,25.0,26.725274725274726,90.0,89.45054945054945,0.0,-0.3076923076923077
9.78,1.0291,0.0,0.17582417582417584,-22.00139702176625,-11.340659340659341,25.0,26.725274725274726,90.0,89.45054945054945,0.0,-0.3076923076923077
9.8,1.0310000000000001,0.0,0.17582417582417584,-23.903523315033024,-12.923076923076923,25.0,26.725274725274726,90.0,89.45054945054945,0.0,-0.3076923076923077
9.82,1.0329000000000002,0.0,0.17582417582417584,-25.74364718328896,-14.417582417582418,25.0,26.725274725274726,90.0,89.45054945054945,0.0,-0.3076923076923077
9.84,1.0348,0.0,0.17582417582417584,-27.490421102085293,-16.175824175824175,25.0,26.725274725274726,90.0,89.45054945054945,0.0,-0.3076923076923077
9.86,1.0367,0.0,0.17582417582417584,-29.113790212181176,-17.934065934065934,25.0,26.725274725274726,90.0,89.45054945054945,0.0,-0.3076923076923077
9.88,1.0386000000000002,0.0,0.17582417582417584,-30.585521560070866,-19.692307692307693,25.0,26.725274725274726,90.0,89.45054945054945,0.0,-0.3076923076923077
9.9,1.0405,0.0,0.17582417582417584,-31.87971079495971,-21.45054945054945,25.0,26.725274725274726,90.0,89.45054945054945,0.0,-0.3076923076923077
9.92,1.0424,0.0,0.17582417582417584,-32.97325708137447,-23.208791208791208,25.0,26.725274725274726,90.0,89.45054945054945,0.0,-0.3076923076923077
9.94,1.0443,0.0,0.17582417582417584,-33.846297322842744,-24.87912087912088,25.0,26.725274725274726,90.0,89.45054945054945,0.0,-0.3076923076923077
9.96,1.0462,0.0,0.17582417582417584,-34.482591295120194,-26.46153846153846,25.0,26.725274725274726,90.0,89.53846153846153,0.0,-0.3076923076923077
9.98,1.0481,0.0,0.17582417582417584,-34.86984995340903,-27.956043956043956,25.0,26.725274725274726,90.0,89.8021978021978,0.0,-0.3076923076923077
10.0,1.05,0.0,0.17582417582417584,-35.0,-29.36263736263736,25.0,26.725274725274726,90.0,90.06593406593407,0.0,-0.3076923076923077
10.02,1.0519,0.0,0.17582417582417584,-34.869378766758786,-30.505494505494507,25.0,26.725274725274726,90.0,90.15384615384616,0.0,-0.13186813186813187
10.04,1.0538,0.0,0.17582417582417584,-34.47885456787699,-31.296703296703296,25.0,26.725274725274726,90.0,90.15384615384616,0.0,0.13186813186813187
10.06,1.0557,0.0,0.17582417582417584,-33.83386889642141,-31.824175824175825,25.0,26.725274725274726,90.0,90.15384615384616,0.0,0.13186813186813187
10.08,1.0576,0.0,0.17582417582417584,-32.94439815486685,-32.175824175824175,25.0,26.725274725274726,90.0,90.15384615384616,0.0,0.13186813186813187
10.1,1.0595,0.0,0.17582417582417584,-31.824834003960262,-32.26373626373626,25.0,26.725274725274726,90.0,90.24175824175825,0.0,0.13186813186813187
10.12,1.0614,0.0,0.17582417582417584,-30.493782862758984,-32.175824175824175,25.0,26.725274725274726,90.0,90.24175824175825,0.0,0.13186813186813187
10.14,1.0633000000000001,0.0,0.17582417582417584,-28.973786570536017,-31.912087912087912,25.0,26.725274725274726,90.0,90.24175824175825,0.0,0.13186813186813187
10.16,1.0652000000000001,0.0,0.17582417582417584,-27.290967702090697,-31.47252747252747,25.0,26.725274725274726,90.0,90.24175824175825,0.0,0.13186813186813187
10.18,1.0671,0.0,0.17582417582417584,-25.474604484512536,-30.857142857142858,25.0,26.725274725274726,90.0,90.24175824175825,0.0,0.13186813186813187
10.2,1.069,0.0,0.17582417582417584,-23.55664166785023,-29.89010989010989,25.0,26.725274725274726,90.0,90.24175824175825,0.0,0.13186813186813187
10.22,1.0709000000000002,0.0,0.17582417582417584,-21.571145026667708,-28.747252747252748,25.0,26.725274725274726,90.0,90.24175824175825,0.0,0.13186813186813187
10.24,1.0728,0.0,0.17582417582417584,-19.55370838696151,-27.428571428571427,25.0,26.725274725274726,90.0,90.24175824175825,0.0,0.13186813186813187
10.26,1.0747,0.0,0.17582417582417584,-17.540823157294295,-25.934065934065934,25.0,26.725274725274726,90.0,90.24175824175825,0.0,0.13186813186813187
10.28,1.0766,0.0,0.17582417582417584,-15.569221269844283,-24.35164835164835,25.0,26.725274725274726,90.0,90.24175824175825,0.0,0.13186813186813187
10.3,1.0785,0.0,0.17582417582417584,-13.67520318413151,-22.681318681318682,25.0,26.725274725274726,90.0,90.24175824175825,0.0,0.13186813186813187
10.32,1.0804,0.0,0.17582417582417584,-11.893963153919232,-20.923076923076923,25.0,26.725274725274726,90.0,90.24175824175825,0.0,0.13186813186813187
10.34,1.0823,0.0,0.17582417582417584,-10.258924289787519,-19.164835164835164,25.0,26.725274725274726,90.0,90.15384615384616,0.0,0.13186813186813187
10.36,1.0842,0.0,0.17582417582417584,-8.801096053366084,-17.406593406593405,25.0,26.725274725274726,90.0,89.8021978021978,0.0,0.13186813186813187
10.38,1.0861,0.0,0.17582417582417584,-7.548466685362955,-15.56043956043956,25.0,26.725274725274726,90.0,89.53846153846153,0.0,0.13186813186813187
10.4,1.088,0.0,0.17582417582417584,-6.525442693824413,-13.802197802197803,25.0,26.725274725274726,90.0,89.53846153846153,0.0,-0.13186813186813187
10.42,1.0899,0.0,0.17582417582417584,-5.752346911542862,-12.131868131868131,25.0,26.725274725274726,90.0,89.45054945054945,0.0,-0.3076923076923077
10.44,1.0918,0.0,0.17582417582417584,-5.244985776922254,-10.54945054945055,25.0,26.725274725274726,90.0,89.45054945054945,0.0,-0.3076923076923077
10.46,1.0937000000000001,0.0,0.17582417582417584,-5.0142954104384305,-9.142857142857142,25.0,26.725274725274726,90.0,89.45054945054945,0.0,-0.3076923076923077
10.48,1.0956000000000001,0.0,0.17582417582417584,-5.06607476339949,-7.824175824175824,25.0,26.725274725274726,90.0,89.45054945054945,0.0,-0.3076923076923077
10.5,1.0975000000000001,0.0,0.17582417582417584,-5.400812625978874,-6.945054945054945,25.0,26.725274725274726,90.0,89.45054945054945,0.0,-0.3076923076923077
10.52,1.0994,0.0,0.17582417582417584,-6.0136136208801965,-6.329670329670329,25.0,26.725274725274726,90.0,89.45054945054945,0.0,-0.3076923076923077
10.54,1.1013,0.0,0.17582417582417584,-6.894226505072581,-6.065934065934066,25.0,26.725274725274726,90.0,89.45054945054945,0.0,-0.3076923076923077
10.56,1.1032000000000002,0.0,0.17582417582417584,-8.027176186131442,-6.065934065934066,25.0,26.725274725274726,90.0,89.45054945054945,0.0,-0.3076923076923077
10.58,1.1051000000000002,0.0,0.17582417582417584,-9.391998866410757,-6.065934065934066,25.0,26.725274725274726,90.0,89.45054945054945,0.0,-0.3076923076923077
10.6,1.107,0.0,0.17582417582417584,-10.96357769482365,-6.241758241758242,25.0,26.725274725274726,90.0,89.45054945054945,0.0,-0.3076923076923077
10.62,1.1089,0.0,0.17582417582417584,-12.712574271688238,-6.593406593406593,25.0,26.725274725274726,90.0,89.45054945054945,0.0,-0.3076923076923077
10.64,1.1108000000000002,0.0,0.17582417582417584,-14.605949357507427,-7.032967032967033,25.0,26.725274725274726,90.0,89.45054945054945,0.0,-0.3076923076923077
10.66,1.1127,0.0,0.17582417582417584,-16.60756422277511,-7.824175824175824,25.0,26.725274725274726,90.0,89.45054945054945,0.0,-0.3076923076923077
10.68,1.1146,0.0,0.17582417582417584,-18.678852283767988,-8.791208791208792,25.0,26.725274725274726,90.0,89.45054945054945,0.0,-0.3076923076923077
10.7,1.1165,0.0,0.17582417582417584,-20.779549038419752,-10.10989010989011,25.0,26.725274725274726,90.0,89.45054945054945,0.0,-0.3076923076923077
10.72,1.1184,0.0,0.17582417582417584,-22.868466884497593,-11.516483516483516,25.0,26.725274725274726,90.0,89.45054945054945,0.0,-0.3076923076923077
10.74,1.1203,0.0,0.17582417582417584,-24.904300204172706,-13.098901098901099,25.0,26.725274725274726,90.0,89.45054945054945,0.0,-0.3076923076923077
10.76,1.1222,0.0,0.17582417582417584,-26.846445165904793,-14.76923076923077,25.0,26.725274725274726,90.0,89.45054945054945,0.0,-0.3076923076923077
10.78,1.1241,0.0,0.17582417582417584,-28.655818053017395,-16.615384615384617,25.0,26.725274725274726,90.0,89.45054945054945,0.0,-0.3076923076923077
10.8,1.1260000000000001,0.0,0.17582417582417584,-30.29565560002753,-18.46153846153846,25.0,26.725274725274726,90.0,89.45054945054945,0.0,-0.3076923076923077
10.82,1.1279000000000001,0.0,0.17582417582417584,-31.73228081844802,-20.307692307692307,25.0,26.725274725274726,90.0,89.45054945054945,0.0,-0.3076923076923077
10.84,1.1298000000000001,0.0,0.17582417582417584,-32.93581813289566,-22.24175824175824,25.0,26.725274725274726,90.0,89.45054945054945,0.0,-0.3076923076923077
10.86,1.1317000000000002,0.0,0.17582417582417584,-33.880842328595364,-24.087912087912088,25.0,26.725274725274726,90.0,89.45054945054945,0.0,-0.3076923076923077
10.88,1.1336000000000002,0.0,0.17582417582417584,-34.5469468284729,-25.75824175824176,25.0,26.725274725274726,90.0,89.45054945054945,0.0,-0.3076923076923077
10.9,1.1355000000000002,0.0,0.17582417582417584,-34.9192181604408,-27.516483516483518,25.0,26.725274725274726,90.0,89.62637362637362,0.0,-0.3076923076923077
10.92,1.1374000000000002,0.0,0.17582417582417584,-34.98860512449032,-29.01098901098901,25.0,26.725274725274726,90.0,90.06593406593407,0.0,-0.3076923076923077
10.94,1.1393,0.0,0.17582417582417584,-34.75217309902475,-30.24175824175824,25.0,26.725274725274726,90.0,90.15384615384616,0.0,-0.3076923076923077
10.96,1.1412000000000002,0.0,0.17582417582417584,-34.21323610396663,-31.032967032967033,25.0,26.725274725274726,90.0,90.15384615384616,0.0,0.13186813186813187
10.98,1.1431000000000002,0.0,0.17582417582417584,-33.38136162570325,-31.64835164835165,25.0,26.725274725274726,90.0,90.15384615384616,0.0,0.13186813186813187
11.0,1.145,0.0,0.17582417582417584,-32.27224576137536,-32.0,25.0,26.725274725274726,90.0,90.15384615384616,0.0,0.04395604395604396
11.02,1.1469,0.0,0.17582417582417584,-30.90745890790729,-32.0,25.0,26.725274725274726,90.0,90.24175824175825,0.0,0.13186813186813187
11.04,1.1488,0.0,0.17582417582417584,-29.314064951027902,-31.824175824175825,25.0,26.725274725274726,90.0,90.24175824175825,0.0,0.13186813186813187
11.06,1.1507,0.0,0.17582417582417584,-27.524119644832655,-31.47252747252747,25.0,26.725274725274726,90.0,90.24175824175825,0.0,0.13186813186813187
11.08,1.1526,0.0,0.17582417582417584,-25.574056554778615,-30.945054945054945,25.0,26.725274725274726,90.0,90.24175824175825,0.0,0.13186813186813187
11.1,1.1545,0.0,0.17582417582417584,-23.50397150727776,-30.065934065934066,25.0,26.725274725274726,90.0,90.24175824175825,0.0,0.13186813186813187
11.12,1.1564,0.0,0.17582417582417584,-21.356818888748023,-28.923076923076923,25.0,26.725274725274726,90.0,90.24175824175825,0.0,0.13186813186813187
11.14,1.1583,0.0,0.17582417582417584,-19.17753530941015,-27.604395604395606,25.0,26.725274725274726,90.0,90.24175824175825,0.0,0.13186813186813187
11.16,1.1602000000000001,0.0,0.17582417582417584,-17.012108038851437,-26.10989010989011,25.0,26.725274725274726,90.0,90.24175824175825,0.0,0.13186813186813187
11.18,1.1621000000000001,0.0,0.17582417582417584,-14.906607182366301,-24.35164835164835,25.0,26.725274725274726,90.0,90.24175824175825,0.0,0.13186813186813187
11.2,1.164,0.0,0.17582417582417584,-12.906201756076996,-22.593406593406595,25.0,26.725274725274726,90.0,90.24175824175825,0.0,0.13186813186813187
11.22,1.1659000000000002,0.0,0.17582417582417584,-11.054180598372454,-20.747252747252748,25.0,26.725274725274726,90.0,90.24175824175825,0.0,0.13186813186813187
11.24,1.1678000000000002,0.0,0.17582417582417584,-9.390999396773786,-18.9010989010989,25.0,26.725274725274726,90.0,90.06593406593407,0.0,0.13186813186813187
11.26,1.1697000000000002,0.0,0.17582417582417584,-7.953374993216826,-16.967032967032967,25.0,26.725274725274726,90.0,89.8021978021978,0.0,0.13186813186813187
11.28,1.1716,0.0,0.17582417582417584,-6.773447546809532,-15.032967032967033,25.0,26.725274725274726,90.0,89.53846153846153,0.0,0.13186813186813187
11.3,1.1735000000000002,0.0,0.17582417582417584,-5.8780300813026045,-13.186813186813186,25.0,26.725274725274726,90.0,89.45054945054945,0.0,-0.21978021978021978
11.32,1.1754000000000002,0.0,0.17582417582417584,-5.287963435254634,-11.340659340659341,25.0,26.725274725274726,90.0,89.45054945054945,0.0,-0.3076923076923077
11.34,1.1773,0.0,0.17582417582417584,-5.0175926871522645,-9.846153846153847,25.0,26.725274725274726,90.0,89.45054945054945,0.0,-0.21978021978021978
11.36,1.1792,0.0,0.17582417582417584,-5.074378777045606,-8.351648351648352,25.0,26.725274725274726,90.0,89.45054945054945,0.0,-0.3076923076923077
11.38,1.1811000000000003,0.0,0.17582417582417584,-5.458656332121114,-7.2967032967032965,25.0,26.725274725274726,90.0,89.45054945054945,0.0,-0.3076923076923077
11.4,1.183,0.0,0.17582417582417584,-6.1635456771459864,-6.593406593406593,25.0,26.725274725274726,90.0,89.45054945054945,0.0,-0.3076923076923077
11.42,1.1849,0.0,0.17582417582417584,-7.175023731593409,-6.241758241758242,25.0,26.725274725274726,90.0,89.45054945054945,0.0,-0.3076923076923077
11.44,1.1868,0.0,0.17582417582417584,-8.472155030799785,-6.241758241758242,25.0,26.725274725274726,90.0,89.45054945054945,0.0,-0.3076923076923077
11.46,1.1887,0.0,0.17582417582417584,-10.02748053231851,-6.329670329670329,25.0,26.725274725274726,90.0,89.45054945054945,0.0,-0.3076923076923077
11.48,1.1906,0.0,0.17582417582417584,-11.807558259107378,-6.5054945054945055,25.0,26.725274725274726,90.0,89.45054945054945,0.0,-0.3076923076923077
11.5,1.1925000000000001,0.0,0.17582417582417584,-13.773646269892573,-6.857142857142857,25.0,26.725274725274726,90.0,89.45054945054945,0.0,-0.3076923076923077
11.52,1.1944000000000001,0.0,0.08791208791208792,-15.882515016901227,-7.472527472527473,25.0,26.725274725274726,90.0,89.45054945054945,0.0,-0.3076923076923077
11.54,1.1963,0.0,0.08791208791208792,-18.087372934590196,-8.351648351648352,25.0,26.725274725274726,90.0,89.45054945054945,0.0,-0.3076923076923077
11.56,1.1982000000000002,0.0,0.08791208791208792,-20.33888617996316,-9.406593406593407,25.0,26.725274725274726,90.0,89.45054945054945,0.0,-0.3076923076923077
11.58,1.2001000000000002,0.0,0.08791208791208792,-22.58627089115091,-10.813186813186814,25.0,26.725274725274726,90.0,89.45054945054945,0.0,-0.3076923076923077
11.6,1.202,0.0,0.08791208791208792,-24.77843421536307,-12.483516483516484,25.0,26.725274725274726,90.0,89.45054945054945,0.0,-0.3076923076923077
11.62,1.2039,0.0,0.17582417582417584,-26.865138741190194,-14.241758241758241,25.0,26.725274725274726,90.0,89.45054945054945,0.0,-0.3076923076923077
11.64,1.2058000000000002,0.0,0.17582417582417584,-28.79816390474185,-16.0,25.0,26.725274725274726,90.0,89.45054945054945,0.0,-0.3076923076923077
11.66,1.2077000000000002,0.0,0.17582417582417584,-30.53243746406796,-17.934065934065934,25.0,26.725274725274726,90.0,89.45054945054945,0.0,-0.3076923076923077
11.68,1.2096,0.0,0.17582417582417584,-32.027110278736416,-19.86813186813187,25.0,26.725274725274726,90.0,89.45054945054945,0.0,-0.3076923076923077
11.7,1.2115,0.0,0.08791208791208792,-33.24654840461535,-21.89010989010989,25.0,26.725274725274726,90.0,89.45054945054945,0.0,-0.3076923076923077
11.72,1.2134000000000003,0.0,0.08791208791208792,-34.16121791648207,-23.824175824175825,25.0,26.725274725274726,90.0,89.45054945054945,0.0,-0.3076923076923077
11.74,1.2153,0.0,0.08791208791208792,-34.74843988669332,-25.75824175824176,25.0,26.725274725274726,90.0,89.45054945054945,0.0,-0.3076923076923077
11.76,1.2172,0.0,0.08791208791208792,-34.992995545318166,-27.516483516483518,25.0,26.725274725274726,90.0,89.62637362637362,0.0,-0.3076923076923077
11.78,1.2191,0.0,0.17582417582417584,-34.88756477947628,-29.0989010989011,25.0,26.725274725274726,90.0,89.97802197802197,0.0,-0.3076923076923077
11.8,1.221,0.0,0.17582417582417584,-34.43298473655856,-30.32967032967033,25.0,26.725274725274726,90.0,90.15384615384616,0.0,-0.3076923076923077
11.82,1.2229,0.0,0.17582417582417584,-33.638319303665895,-31.12087912087912,25.0,26.725274725274726,90.0,90.15384615384616,0.0,0.04395604395604396
11.84,1.2248,0.0,0.17582417582417584,-32.520734558277475,-31.64835164835165,25.0,26.725274725274726,90.0,90.15384615384616,0.0,0.04395604395604396
11.86,1.2267000000000001,0.0,0.08791208791208792,-31.105179826943704,-31.736263736263737,25.0,26.725274725274726,90.0,90.15384615384616,0.0,0.04395604395604396
11.88,1.2286000000000001,0.0,0.08791208791208792,-29.423878645621,-31.736263736263737,25.0,26.725274725274726,90.0,90.24175824175825,0.0,0.13186813186813187
11.9,1.2305000000000001,0.0,0.08791208791208792,-27.51563857717248,-31.384615384615383,25.0,26.725274725274726,90.0,90.24175824175825,0.0,0.13186813186813187
11.92,1.2324000000000002,0.0,0.08791208791208792,-25.42499339522572,-30.857142857142858,25.0,26.725274725274726,90.0,90.24175824175825,0.0,0.13186813186813187
11.94,1.2343,0.0,0.08791208791208792,-23.201195475002457,-30.065934065934066,25.0,26.725274725274726,90.0,90.24175824175825,0.0,0.13186813186813187
11.96,1.2362000000000002,0.0,0.17582417582417584,-20.897080229001155,-28.835164835164836,25.0,26.725274725274726,90.0,90.24175824175825,0.0,0.13186813186813187
11.98,1.2381000000000002,0.0,0.17582417582417584,-18.567827981595954,-27.516483516483518,25.0,26.725274725274726,90.0,90.24175824175825,0.0,0.13186813186813187
12.0,1.2400000000000002,0.0,0.17582417582417584,-16.269651692527123,-25.934065934065934,25.0,26.725274725274726,90.0,90.24175824175825,0.0,0.13186813186813187
12.02,1.2419,0.0,0.17582417582417584,-14.058441326255508,-24.175824175824175,25.0,26.725274725274726,90.0,90.24175824175825,0.0,0.13186813186813187
12.04,1.2438,0.0,0.17582417582417584,-11.988397346594118,-22.32967032967033,25.0,26.725274725274726,90.0,90.24175824175825,0.0,0.13186813186813187
12.06,1.2457000000000003,0.0,0.08791208791208792,-10.110686733727656,-20.483516483516482,25.0,26.725274725274726,90.0,90.24175824175825,0.0,0.13186813186813187
12.08,1.2476,0.0,0.08791208791208792,-8.472155030799923,-18.54945054945055,25.0,26.725274725274726,90.0,90.06593406593407,0.0,0.13186813186813187
12.1,1.2495,0.0,0.08791208791208792,-7.114127205906234,-16.52747252747253,25.0,26.725274725274726,90.0,89.71428571428571,0.0,0.13186813186813187
12.12,1.2514,0.0,0.08791208791208792,-6.071328559004742,-14.505494505494505,25.0,26.725274725274726,90.0,89.53846153846153,0.0,0.13186813186813187
12.14,1.2533,0.0,0.17582417582417584,-5.370954529338517,-12.571428571428571,25.0,26.725274725274726,90.0,89.45054945054945,0.0,-0.21978021978021978
12.16,1.2552,0.0,0.17582417582417584,-5.031915106114292,-10.813186813186814,25.0,26.725274725274726,90.0,89.45054945054945,0.0,-0.3076923076923077
12.18,1.2571,0.0,0.17582417582417584,-5.0642756729036265,-9.054945054945055,25.0,26.725274725274726,90.0,89.45054945054945,0.0,-0.3076923076923077
12.2,1.2590000000000001,0.0,0.17582417582417584,-5.468911604116807,-7.736263736263736,25.0,26.725274725274726,90.0,89.45054945054945,0.0,-0.3076923076923077
12.22,1.2609000000000001,0.0,0.17582417582417584,-6.237388878168177,-6.945054945054945,25.0,26.725274725274726,90.0,89.45054945054945,0.0,-0.3076923076923077
12.24,1.2628000000000001,0.0,0.08791208791208792,-7.352077491533251,-6.5054945054945055,25.0,26.725274725274726,90.0,89.45054945054945,0.0,-0.3076923076923077
12.26,1.2647000000000002,0.0,0.08791208791208792,-8.786498679999392,-6.5054945054945055,25.0,26.725274725274726,90.0,89.45054945054945,0.0,-0.3076923076923077
12.28,1.2666,0.0,0.08791208791208792,-10.50590101861551,-6.5054945054945055,25.0,26.725274725274726,90.0,89.45054945054945,0.0,-0.3076923076923077
12.3,1.2685000000000002,0.0,0.17582417582417584,-12.468054528831958,-6.681318681318682,25.0,26.725274725274726,90.0,89.45054945054945,0.0,-0.3076923076923077
12.32,1.2704000000000002,0.0,0.17582417582417584,-14.624246123222362,-7.1208791208791204,25.0,26.725274725274726,90.0,89.45054945054945,0.0,-0.3076923076923077
12.34,1.2723,0.0,0.17582417582417584,-16.920454218793438,-7.824175824175824,25.0,26.725274725274726,90.0,89.45054945054945,0.0,-0.3076923076923077
12.36,1.2742,0.0,0.17582417582417584,-19.298675299542417,-8.615384615384615,25.0,26.725274725274726,90.0,89.45054945054945,0.0,-0.3076923076923077
12.38,1.2761000000000002,0.0,0.17582417582417584,-21.69837075058542,-9.846153846153847,25.0,26.725274725274726,90.0,89.45054945054945,0.0,-0.3076923076923077
12.4,1.2780000000000002,0.0,0.17582417582417584,-24.05799855130793,-11.428571428571429,25.0,26.725274725274726,90.0,89.45054945054945,0.0,-0.3076923076923077
12.42,1.2799,0.0,0.17582417582417584,-26.316591519788766,-13.098901098901099,25.0,26.725274725274726,90.0,89.45054945054945,0.0,-0.3076923076923077
12.44,1.2818,0.0,0.17582417582417584,-28.415341842576623,-14.945054945054945,25.0,26.725274725274726,90.0,89.45054945054945,0.0,-0.3076923076923077
12.46,1.2837000000000003,0.0,0.17582417582417584,-30.299150678115442,-16.87912087912088,25.0,26.725274725274726,90.0,89.45054945054945,0.0,-0.3076923076923077
12.48,1.2856,0.0,0.17582417582417584,-31.9181017393652,-18.98901098901099,25.0,26.725274725274726,90.0,89.45054945054945,0.0,-0.3076923076923077
12.5,1.2875,0.0,0.17582417582417584,-33.22881896522534,-21.0989010989011,25.0,26.725274725274726,90.0,89.45054945054945,0.0,-0.3076923076923077
12.52,1.2894,0.0,0.17582417582417584,-34.195670676780665,-23.208791208791208,25.0,26.725274725274726,90.0,89.45054945054945,0.0,-0.3076923076923077
12.54,1.2913000000000001,0.0,0.17582417582417584,-34.79178594955377,-25.142857142857142,25.0,26.725274725274726,90.0,89.45054945054945,0.0,-0.3076923076923077
12.56,1.2932000000000001,0.0,0.17582417582417584,-34.99985325422362,-27.076923076923077,25.0,26.725274725274726,90.0,89.53846153846153,0.0,-0.3076923076923077
12.58,1.2951000000000001,0.0,0.17582417582417584,-34.812676634748634,-28.65934065934066,25.0,26.725274725274726,90.0,89.8021978021978,0.0,-0.3076923076923077
12.6,1.2970000000000002,0.0,0.17582417582417584,-34.233470686880416,-30.065934065934066,25.0,26.725274725274726,90.0,90.15384615384616,0.0,-0.3076923076923077
12.62,1.2989,0.0,0.17582417582417584,-33.27588222973232,-30.945054945054945,25.0,26.725274725274726,90.0,90.24175824175825,0.0,-0.04395604395604396
12.64,1.3008000000000002,0.0,0.17582417582417584,-31.96373366521454,-31.384615384615383,25.0,26.725274725274726,90.0,90.24175824175825,0.0,0.04395604395604396
12.66,1.3027000000000002,0.0,0.17582417582417584,-30.330490414192674,-31.560439560439562,25.0,26.725274725274726,90.0,90.24175824175825,0.0,0.04395604395604396
12.68,1.3046,0.0,0.17582417582417584,-28.418462310585404,-31.47252747252747,25.0,26.725274725274726,90.0,90.24175824175825,0.0,0.04395604395604396
12.7,1.3065,0.0,0.17582417582417584,-26.27775622365273,-31.032967032967033,25.0,26.725274725274726,90.0,90.24175824175825,0.0,0.04395604395604396
12.72,1.3084000000000002,0.0,0.17582417582417584,-23.965004259960427,-30.417582417582416,25.0,26.725274725274726,90.0,90.24175824175825,0.0,0.04395604395604396
12.74,1.3103,0.0,0.17582417582417584,-21.541898468311874,-29.36263736263736,25.0,26.725274725274726,90.0,90.24175824175825,0.0,0.04395604395604396
12.76,1.3122,0.0,0.17582417582417584,-19.073568840083603,-28.13186813186813,25.0,26.725274725274726,90.0,90.24175824175825,0.0,0.04395604395604396
12.78,1.3141,0.0,0.17582417582417584,-16.626846384771547,-26.63736263736264,25.0,26.725274725274726,90.0,90.24175824175825,0.0,0.04395604395604396
12.8,1.3160000000000003,0.0,0.17582417582417584,-14.268457006487157,-24.791208791208792,25.0,26.725274725274726,90.0,90.24175824175825,0.0,0.04395604395604396
12.82,1.3179,0.0,0.17582417582417584,-12.063194676586239,-22.945054945054945,25.0,26.725274725274726,90.0,90.24175824175825,0.0,0.04395604395604396
12.84,1.3198,0.0,0.17582417582417584,-10.07212388452315,-21.01098901098901,25.0,26.725274725274726,90.0,90.24175824175825,0.0,0.04395604395604396
12.86,1.3217,0.0,0.17582417582417584,-8.350861480382777,-18.98901098901099,25.0,26.725274725274726,90.0,90.15384615384616,0.0,0.04395604395604396
12.88,1.3236,0.0,0.17582417582417584,-6.947986761240802,-16.87912087912088,25.0,26.725274725274726,90.0,89.8021978021978,0.0,0.04395604395604396
12.9,1.3255000000000001,0.0,0.17582417582417584,-5.903626000680816,-14.76923076923077,25.0,26.725274725274726,90.0,89.53846153846153,0.0,0.04395604395604396
12.92,1.3274000000000001,0.0,0.17582417582417584,-5.248253616765549,-12.747252747252746,25.0,26.725274725274726,90.0,89.45054945054945,0.0,-0.21978021978021978
12.94,1.3293000000000001,0.0,0.17582417582417584,-5.001746898210293,-10.901098901098901,25.0,26.725274725274726,90.0,89.45054945054945,0.0,-0.3076923076923077
12.96,1.3312000000000002,0.0,0.17582417582417584,-5.172724779332331,-9.23076923076923,25.0,26.725274725274726,90.0,89.45054945054945,0.0,-0.3076923076923077
12.98,1.3331000000000002,0.0,0.17582417582417584,-5.758193725476287,-7.824175824175824,25.0,26.725274725274726,90.0,89.45054945054945,0.0,-0.3076923076923077
13.0,1.3350000000000002,0.0,0.17582417582417584,-6.74351554866962,-6.945054945054945,25.0,26.725274725274726,90.0,89.45054945054945,0.0,-0.3076923076923077
13.02,1.3369,0.0,0.17582417582417584,-8.102703133203093,-6.681318681318682,25.0,26.725274725274726,90.0,89.45054945054945,0.0,-0.3076923076923077
13.04,1.3388,0.0,0.17582417582417584,-9.799040850615306,-6.681318681318682,25.0,26.725274725274726,90.0,89.45054945054945,0.0,-0.3076923076923077
13.06,1.3407000000000002,0.0,0.17582417582417584,-11.786017137960357,-6.681318681318682,25.0,26.725274725274726,90.0,89.45054945054945,0.0,-0.3076923076923077
13.08,1.3426,0.0,0.17582417582417584,-14.008547566990703,-7.032967032967033,25.0,26.725274725274726,90.0,89.45054945054945,0.0,-0.3076923076923077
13.1,1.3445,0.0,0.17582417582417584,-16.40445801228328,-7.648351648351649,25.0,26.725274725274726,90.0,89.45054945054945,0.0,-0.3076923076923077
13.12,1.3464,0.0,0.17582417582417584,-18.906189495541774,-8.43956043956044,25.0,26.725274725274726,90.0,89.45054945054945,0.0,-0.3076923076923077
13.14,1.3483,0.0,0.17582417582417584,-21.442679190574477,-9.582417582417582,25.0,26.725274725274726,90.0,89.45054945054945,0.0,-0.3076923076923077
13.16,1.3502,0.0,0.17582417582417584,-23.941366147369873,-10.989010989010989,25.0,26.725274725274726,90.0,89.45054945054945,0.0,-0.3076923076923077
13.18,1.3521,0.0,0.17582417582417584,-26.33026573501093,-12.747252747252746,25.0,26.725274725274726,90.0,89.45054945054945,0.0,-0.3076923076923077
13.2,1.354,0.0,0.17582417582417584,-28.540053777878832,-14.68131868131868,25.0,26.725274725274726,90.0,89.45054945054945,0.0,-0.3076923076923077
13.22,1.3559,0.0,0.17582417582417584,-30.506099993176914,-16.703296703296704,25.0,26.725274725274726,90.0,89.45054945054945,0.0,-0.3076923076923077
13.24,1.3578000000000001,0.0,0.17582417582417584,-32.17039071020214,-18.725274725274726,25.0,26.725274725274726,90.0,89.45054945054945,0.0,-0.3076923076923077
13.26,1.3597000000000001,0.0,0.17582417582417584,-33.48328299371653,-20.923076923076923,25.0,26.725274725274726,90.0,89.45054945054945,0.0,-0.3076923076923077
13.28,1.3616000000000001,0.0,0.17582417582417584,-34.40503618439134,-23.12087912087912,25.0,26.725274725274726,90.0,89.45054945054945,0.0,-0.3076923076923077
