TigerWuu/newton/newton/examples/diffsim/gt/chirp_traj/20260616_133149/chirp_03_elbow_flex.csv
t,freq_hz,shoulder_pan_cmd,shoulder_pan_pos,shoulder_lift_cmd,shoulder_lift_pos,elbow_flex_cmd,elbow_flex_pos,wrist_flex_cmd,wrist_flex_pos,wrist_roll_cmd,wrist_roll_pos
0.0,0.1,0.0,0.17582417582417584,-20.0,-19.428571428571427,25.0,27.252747252747252,90.0,89.45054945054945,0.0,-0.3076923076923077
0.02,0.1019,0.0,0.17582417582417584,-20.0,-19.428571428571427,25.000187738205117,27.252747252747252,90.0,89.45054945054945,0.0,-0.3076923076923077
0.04,0.1038,0.0,0.17582417582417584,-20.0,-19.428571428571427,25.001514418756987,27.252747252747252,90.0,89.45054945054945,0.0,-0.3076923076923077
0.06,0.1057,0.0,0.17582417582417584,-20.0,-19.428571428571427,25.00514960394756,27.252747252747252,90.0,89.45054945054945,0.0,-0.3076923076923077
0.08,0.1076,0.0,0.17582417582417584,-20.0,-19.428571428571427,25.012288359069696,27.252747252747252,90.0,89.45054945054945,0.0,-0.3076923076923077
0.1,0.10950000000000001,0.0,0.17582417582417584,-20.0,-19.428571428571427,25.024142178173697,27.252747252747252,90.0,89.45054945054945,0.0,-0.3076923076923077
0.12,0.1114,0.0,0.17582417582417584,-20.0,-19.428571428571427,25.04192953959927,27.252747252747252,90.0,89.45054945054945,0.0,-0.3076923076923077
0.14,0.11330000000000001,0.0,0.17582417582417584,-20.0,-19.428571428571427,25.066866149388563,27.252747252747252,90.0,89.45054945054945,0.0,-0.3076923076923077
0.16,0.11520000000000001,0.0,0.17582417582417584,-20.0,-19.428571428571427,25.100154934738136,27.252747252747252,90.0,89.45054945054945,0.0,-0.3076923076923077
0.18,0.11710000000000001,0.0,0.17582417582417584,-20.0,-19.428571428571427,25.142975853407616,27.252747252747252,90.0,89.45054945054945,0.0,-0.3076923076923077
0.2,0.11900000000000001,0.0,0.17582417582417584,-20.0,-19.428571428571427,25.196475588430925,27.252747252747252,90.0,89.45054945054945,0.0,-0.3076923076923077
0.22,0.12090000000000001,0.0,0.17582417582417584,-20.0,-19.428571428571427,25.261757200533644,27.252747252747252,90.0,89.45054945054945,0.0,-0.3076923076923077
0.24,0.1228,0.0,0.17582417582417584,-20.0,-19.428571428571427,25.339869813308837,27.252747252747252,90.0,89.45054945054945,0.0,-0.3076923076923077
0.26,0.1247,0.0,0.17582417582417584,-20.0,-19.428571428571427,25.431798408406888,27.252747252747252,90.0,89.45054945054945,0.0,-0.3076923076923077
0.28,0.12660000000000002,0.0,0.17582417582417584,-20.0,-19.428571428571427,25.538453809716913,27.252747252747252,90.0,89.45054945054945,0.0,-0.3076923076923077
0.3,0.1285,0.0,0.17582417582417584,-20.0,-19.428571428571427,25.660662936724666,27.252747252747252,90.0,89.45054945054945,0.0,-0.3076923076923077
0.32,0.13040000000000002,0.0,0.17582417582417584,-20.0,-19.428571428571427,25.799159407893377,27.252747252747252,90.0,89.45054945054945,0.0,-0.3076923076923077
0.34,0.1323,0.0,0.17582417582417584,-20.0,-19.428571428571427,25.95457457500071,27.252747252747252,90.0,89.45054945054945,0.0,-0.3076923076923077
0.36,0.1342,0.0,0.17582417582417584,-20.0,-19.428571428571427,26.127429068851832,27.252747252747252,90.0,89.45054945054945,0.0,-0.3076923076923077
0.38,0.1361,0.0,0.17582417582417584,-20.0,-19.428571428571427,26.318124935652946,27.252747252747252,90.0,89.45054945054945,0.0,-0.3076923076923077
0.4,0.138,0.0,0.17582417582417584,-20.0,-19.428571428571427,26.52693844155309,27.252747252747252,90.0,89.45054945054945,0.0,-0.3076923076923077
0.42,0.1399,0.0,0.17582417582417584,-20.0,-19.428571428571427,26.754013620430843,27.252747252747252,90.0,89.45054945054945,0.0,-0.3076923076923077
0.44,0.1418,0.0,0.17582417582417584,-20.0,-19.428571428571427,26.999356636906178,27.252747252747252,90.0,89.45054945054945,0.0,-0.3076923076923077
0.46,0.1437,0.0,0.17582417582417584,-20.0,-19.428571428571427,27.262831032791905,27.252747252747252,90.0,89.45054945054945,0.0,-0.3076923076923077
0.48,0.1456,0.0,0.17582417582417584,-20.0,-19.428571428571427,27.54415392076374,27.252747252747252,90.0,89.45054945054945,0.0,-0.3076923076923077
0.5,0.14750000000000002,0.0,0.17582417582417584,-20.0,-19.428571428571427,27.84289318392876,27.428571428571427,90.0,89.45054945054945,0.0,-0.3076923076923077
0.52,0.1494,0.0,0.17582417582417584,-20.0,-19.428571428571427,28.158465734220055,27.604395604395606,90.0,89.45054945054945,0.0,-0.3076923076923077
0.54,0.15130000000000002,0.0,0.17582417582417584,-20.0,-19.428571428571427,28.490136876158147,27.78021978021978,90.0,89.53846153846153,0.0,-0.3076923076923077
0.56,0.1532,0.0,0.17582417582417584,-20.0,-19.428571428571427,28.83702081552022,27.956043956043956,90.0,89.45054945054945,0.0,-0.3076923076923077
0.58,0.15510000000000002,0.0,0.17582417582417584,-20.0,-19.428571428571427,29.198082344875935,28.307692307692307,90.0,89.45054945054945,0.0,-0.3076923076923077
0.6,0.157,0.0,0.17582417582417584,-20.0,-19.428571428571427,29.57213972981944,28.65934065934066,90.0,89.45054945054945,0.0,-0.3076923076923077
0.62,0.1589,0.0,0.17582417582417584,-20.0,-19.428571428571427,29.957868811092666,28.923076923076923,90.0,89.45054945054945,0.0,-0.3076923076923077
0.64,0.1608,0.0,0.17582417582417584,-20.0,-19.428571428571427,30.353808328704467,29.36263736263736,90.0,89.45054945054945,0.0,-0.3076923076923077
0.66,0.1627,0.0,0.17582417582417584,-20.0,-19.428571428571427,30.75836646465659,29.626373626373628,90.0,89.45054945054945,0.0,-0.3076923076923077
0.68,0.16460000000000002,0.0,0.17582417582417584,-20.0,-19.428571428571427,31.169828591053367,30.065934065934066,90.0,89.45054945054945,0.0,-0.3076923076923077
0.7,0.16649999999999998,0.0,0.17582417582417584,-20.0,-19.428571428571427,31.586366200262063,30.417582417582416,90.0,89.45054945054945,0.0,-0.3076923076923077
0.72,0.1684,0.0,0.17582417582417584,-20.0,-19.428571428571427,32.00604698347855,30.76923076923077,90.0,89.45054945054945,0.0,-0.3076923076923077
0.74,0.1703,0.0,0.17582417582417584,-20.0,-19.428571428571427,32.42684601361456,31.12087912087912,90.0,89.45054945054945,0.0,-0.3076923076923077
0.76,0.17220000000000002,0.0,0.17582417582417584,-20.0,-19.428571428571427,32.84665797794166,31.560439560439562,90.0,89.45054945054945,0.0,-0.3076923076923077
0.78,0.1741,0.0,0.17582417582417584,-20.0,-19.428571428571427,33.26331039548836,32.0,90.0,89.45054945054945,0.0,-0.3076923076923077
0.8,0.17600000000000002,0.0,0.17582417582417584,-20.0,-19.428571428571427,33.67457774388226,32.35164835164835,90.0,89.45054945054945,0.0,-0.3076923076923077
0.82,0.1779,0.0,0.17582417582417584,-20.0,-19.428571428571427,34.07819641025171,32.79120879120879,90.0,89.45054945054945,0.0,-0.3076923076923077
0.84,0.17980000000000002,0.0,0.17582417582417584,-20.0,-19.428571428571427,34.471880371047135,33.23076923076923,90.0,89.45054945054945,0.0,-0.3076923076923077
0.86,0.1817,0.0,0.17582417582417584,-20.0,-19.428571428571427,34.85333749630971,33.582417582417584,90.0,89.45054945054945,0.0,-0.3076923076923077
0.88,0.1836,0.0,0.17582417582417584,-20.0,-19.428571428571427,35.22028636510272,34.02197802197802,90.0,89.45054945054945,0.0,-0.3076923076923077
0.9,0.1855,0.0,0.17582417582417584,-20.0,-19.428571428571427,35.570473470628,34.37362637362637,90.0,89.45054945054945,0.0,-0.3076923076923077
0.92,0.1874,0.0,0.17582417582417584,-20.0,-19.428571428571427,35.901690686075355,34.72527472527472,90.0,89.45054945054945,0.0,-0.3076923076923077
0.94,0.1893,0.0,0.17582417582417584,-20.0,-19.428571428571427,36.21179285559197,35.16483516483517,90.0,89.45054945054945,0.0,-0.3076923076923077
0.96,0.1912,0.0,0.17582417582417584,-20.0,-19.428571428571427,36.49871536900785,35.51648351648352,90.0,89.45054945054945,0.0,-0.3076923076923077
0.98,0.1931,0.0,0.17582417582417584,-20.0,-19.428571428571427,36.76049157419952,35.86813186813187,90.0,89.45054945054945,0.0,-0.3076923076923077
1.0,0.195,0.0,0.17582417582417584,-20.0,-19.428571428571427,36.995269877306356,36.13186813186813,90.0,89.45054945054945,0.0,-0.3076923076923077
1.02,0.19690000000000002,0.0,0.17582417582417584,-20.0,-19.428571428571427,37.213380536812785,36.48351648351648,90.0,89.45054945054945,0.0,-0.3076923076923077
1.04,0.1988,0.0,0.17582417582417584,-20.0,-19.428571428571427,37.42609261569423,36.747252747252745,90.0,89.45054945054945,0.0,-0.3076923076923077
1.06,0.20070000000000002,0.0,0.17582417582417584,-20.0,-19.428571428571427,37.63305525139505,37.010989010989015,90.0,89.45054945054945,0.0,-0.3076923076923077
1.08,0.2026,0.0,0.17582417582417584,-20.0,-19.428571428571427,37.83391278882974,37.27472527472528,90.0,89.45054945054945,0.0,-0.3076923076923077
1.1,0.20450000000000002,0.0,0.17582417582417584,-20.0,-19.428571428571427,38.02830515884831,37.45054945054945,90.0,89.45054945054945,0.0,-0.3076923076923077
1.12,0.20640000000000003,0.0,0.17582417582417584,-20.0,-19.428571428571427,38.21586828412245,37.714285714285715,90.0,89.45054945054945,0.0,-0.3076923076923077
1.14,0.20829999999999999,0.0,0.17582417582417584,-20.0,-19.428571428571427,38.39623451296427,37.97802197802198,90.0,89.45054945054945,0.0,-0.3076923076923077
1.16,0.2102,0.0,0.17582417582417584,-20.0,-19.428571428571427,38.569033081546124,38.065934065934066,90.0,89.45054945054945,0.0,-0.3076923076923077
1.18,0.2121,0.0,0.17582417582417584,-20.0,-19.428571428571427,38.733890604942545,38.24175824175824,90.0,89.45054945054945,0.0,-0.3076923076923077
1.2,0.214,0.0,0.17582417582417584,-20.0,-19.428571428571427,38.89043159736385,38.417582417582416,90.0,89.45054945054945,0.0,-0.3076923076923077
1.22,0.2159,0.0,0.17582417582417584,-20.0,-19.428571428571427,39.03827902189507,38.68131868131868,90.0,89.45054945054945,0.0,-0.3076923076923077
1.24,0.2178,0.0,0.17582417582417584,-20.0,-19.428571428571427,39.17705486999347,38.76923076923077,90.0,89.45054945054945,0.0,-0.3076923076923077
1.26,0.2197,0.0,0.17582417582417584,-20.0,-19.428571428571427,39.306380770933345,38.857142857142854,90.0,89.45054945054945,0.0,-0.3076923076923077
1.28,0.22160000000000002,0.0,0.17582417582417584,-20.0,-19.428571428571427,39.42587863131726,39.032967032967036,90.0,89.45054945054945,0.0,-0.3076923076923077
1.3,0.22350000000000003,0.0,0.17582417582417584,-20.0,-19.428571428571427,39.535171304698885,39.20879120879121,90.0,89.45054945054945,0.0,-0.3076923076923077
1.32,0.22540000000000002,0.0,0.17582417582417584,-20.0,-19.428571428571427,39.63388329128395,39.38461538461539,90.0,89.45054945054945,0.0,-0.3076923076923077
1.34,0.2273,0.0,0.17582417582417584,-20.0,-19.428571428571427,39.721641467592214,39.472527472527474,90.0,89.45054945054945,0.0,-0.3076923076923077
1.36,0.22920000000000001,0.0,0.17582417582417584,-20.0,-19.428571428571427,39.79807584587518,39.472527472527474,90.0,89.45054945054945,0.0,-0.3076923076923077
1.38,0.2311,0.0,0.17582417582417584,-20.0,-19.428571428571427,39.86282036299089,39.56043956043956,90.0,89.45054945054945,0.0,-0.3076923076923077
1.4,0.23299999999999998,0.0,0.17582417582417584,-20.0,-19.428571428571427,39.91551369833952,39.73626373626374,90.0,89.45054945054945,0.0,-0.3076923076923077
1.42,0.2349,0.0,0.17582417582417584,-20.0,-19.428571428571427,39.95580012036042,39.824175824175825,90.0,89.45054945054945,0.0,-0.3076923076923077
1.44,0.2368,0.0,0.17582417582417584,-20.0,-19.428571428571427,39.983330360983864,39.824175824175825,90.0,89.45054945054945,0.0,-0.3076923076923077
1.46,0.2387,0.0,0.17582417582417584,-20.0,-19.428571428571427,39.99776251731823,39.824175824175825,90.0,89.45054945054945,0.0,-0.3076923076923077
1.48,0.2406,0.0,0.17582417582417584,-20.0,-19.428571428571427,39.99876297973682,39.824175824175825,90.0,89.45054945054945,0.0,-0.3076923076923077
1.5,0.24250000000000002,0.0,0.17582417582417584,-20.0,-19.428571428571427,39.986007385406424,39.824175824175825,90.0,89.45054945054945,0.0,-0.3076923076923077
1.52,0.2444,0.0,0.17582417582417584,-20.0,-19.428571428571427,39.95918159617427,39.824175824175825,90.0,89.45054945054945,0.0,-0.3076923076923077
1.54,0.24630000000000002,0.0,0.17582417582417584,-20.0,-19.428571428571427,39.91798269959935,40.0,90.0,89.45054945054945,0.0,-0.3076923076923077
1.56,0.2482,0.0,0.17582417582417584,-20.0,-19.428571428571427,39.86212003177999,40.08791208791209,90.0,89.45054945054945,0.0,-0.3076923076923077
1.58,0.2501,0.0,0.17582417582417584,-20.0,-19.428571428571427,39.79131622049091,40.08791208791209,90.0,89.45054945054945,0.0,-0.3076923076923077
1.6,0.252,0.0,0.17582417582417584,-20.0,-19.428571428571427,39.70530824700129,40.08791208791209,90.0,89.45054945054945,0.0,-0.3076923076923077
1.62,0.2539,0.0,0.17582417582417584,-20.0,-19.428571428571427,39.60384852479943,40.08791208791209,90.0,89.45054945054945,0.0,-0.3076923076923077
1.64,0.2558,0.0,0.17582417582417584,-20.0,-19.428571428571427,39.48670599330131,40.08791208791209,90.0,89.45054945054945,0.0,-0.3076923076923077
1.66,0.25770000000000004,0.0,0.17582417582417584,-20.0,-19.428571428571427,39.3536672244686,40.08791208791209,90.0,89.45054945054945,0.0,-0.3076923076923077
1.68,0.2596,0.0,0.17582417582417584,-20.0,-19.428571428571427,39.204537540107694,40.08791208791209,90.0,89.45054945054945,0.0,-0.3076923076923077
1.7,0.2615,0.0,0.17582417582417584,-20.0,-19.428571428571427,39.039142137465085,40.08791208791209,90.0,89.45054945054945,0.0,-0.3076923076923077
1.72,0.26339999999999997,0.0,0.17582417582417584,-20.0,-19.428571428571427,38.857327220576884,40.08791208791209,90.0,89.45054945054945,0.0,-0.3076923076923077
1.74,0.2653,0.0,0.17582417582417584,-20.0,-19.428571428571427,38.65896113467073,40.08791208791209,90.0,89.45054945054945,0.0,-0.3076923076923077
1.76,0.2672,0.0,0.17582417582417584,-20.0,-19.428571428571427,38.443935500758926,40.08791208791209,90.0,89.45054945054945,0.0,-0.3076923076923077
1.78,0.2691,0.0,0.17582417582417584,-20.0,-19.428571428571427,38.21216634740133,40.08791208791209,90.0,89.45054945054945,0.0,-0.3076923076923077
1.8,0.271,0.0,0.17582417582417584,-20.0,-19.428571428571427,37.963595236456904,40.0,90.0,89.45054945054945,0.0,-0.3076923076923077
1.82,0.27290000000000003,0.0,0.17582417582417584,-20.0,-19.428571428571427,37.69819037948412,40.0,90.0,89.45054945054945,0.0,-0.3076923076923077
1.84,0.27480000000000004,0.0,0.17582417582417584,-20.0,-19.428571428571427,37.41594774129304,39.91208791208791,90.0,89.45054945054945,0.0,-0.3076923076923077
1.86,0.27670000000000006,0.0,0.17582417582417584,-20.0,-19.428571428571427,37.11689212699723,39.73626373626374,90.0,89.45054945054945,0.0,-0.3076923076923077
1.88,0.27859999999999996,0.0,0.17582417582417584,-20.0,-19.428571428571427,36.80107824876154,39.56043956043956,90.0,89.45054945054945,0.0,-0.3076923076923077
1.9,0.28049999999999997,0.0,0.17582417582417584,-20.0,-19.428571428571427,36.46859176829355,39.2967032967033,90.0,89.45054945054945,0.0,-0.3076923076923077
1.92,0.2824,0.0,0.17582417582417584,-20.0,-19.428571428571427,36.11955031098301,39.032967032967036,90.0,89.45054945054945,0.0,-0.3076923076923077
1.94,0.2843,0.0,0.17582417582417584,-20.0,-19.428571428571427,35.75410444745483,38.76923076923077,90.0,89.45054945054945,0.0,-0.3076923076923077
1.96,0.2862,0.0,0.17582417582417584,-20.0,-19.428571428571427,35.37243863816944,38.417582417582416,90.0,89.45054945054945,0.0,-0.3076923076923077
1.98,0.2881,0.0,0.17582417582417584,-20.0,-19.428571428571427,34.974772136578935,38.15384615384615,90.0,89.45054945054945,0.0,-0.3076923076923077
2.0,0.29000000000000004,0.0,0.17582417582417584,-20.0,-19.428571428571427,34.561359846230346,37.8021978021978,90.0,89.45054945054945,0.0,-0.3076923076923077
2.02,0.29190000000000005,0.0,0.17582417582417584,-20.0,-19.428571428571427,34.13249312709959,37.45054945054945,90.0,89.45054945054945,0.0,-0.3076923076923077
2.04,0.2938,0.0,0.17582417582417584,-20.0,-19.428571428571427,33.6885005463409,37.010989010989015,90.0,89.45054945054945,0.0,-0.3076923076923077
2.06,0.2957,0.0,0.17582417582417584,-20.0,-19.428571428571427,33.22974856854967,36.65934065934066,90.0,89.45054945054945,0.0,-0.3076923076923077
2.08,0.2976,0.0,0.17582417582417584,-20.0,-19.428571428571427,32.756642180561414,36.30769230769231,90.0,89.45054945054945,0.0,-0.3076923076923077
2.1,0.2995,0.0,0.17582417582417584,-20.0,-19.428571428571427,32.26962544574686,35.86813186813187,90.0,89.45054945054945,0.0,-0.3076923076923077
2.12,0.3014,0.0,0.17582417582417584,-20.0,-19.428571428571427,31.769181982715473,35.51648351648352,90.0,89.45054945054945,0.0,-0.3076923076923077
2.14,0.3033,0.0,0.17582417582417584,-20.0,-19.428571428571427,31.255835363306304,35.07692307692308,90.0,89.45054945054945,0.0,-0.3076923076923077
2.16,0.3052,0.0,0.17582417582417584,-20.0,-19.428571428571427,30.730149424728488,34.637362637362635,90.0,89.45054945054945,0.0,-0.3076923076923077
2.18,0.30710000000000004,0.0,0.17582417582417584,-20.0,-19.428571428571427,30.19272849071423,34.10989010989011,90.0,89.45054945054945,0.0,-0.3076923076923077
2.2,0.30900000000000005,0.0,0.17582417582417584,-20.0,-19.428571428571427,29.644217496566043,33.67032967032967,90.0,89.45054945054945,0.0,-0.3076923076923077
2.22,0.31090000000000007,0.0,0.17582417582417584,-20.0,-19.428571428571427,29.08530201301837,33.142857142857146,90.0,89.45054945054945,0.0,-0.3076923076923077
2.24,0.3128,0.0,0.17582417582417584,-20.0,-19.428571428571427,28.516708163893238,32.7032967032967,90.0,89.45054945054945,0.0,-0.3076923076923077
2.26,0.3147,0.0,0.17582417582417584,-20.0,-19.428571428571427,27.939202432609754,32.175824175824175,90.0,89.45054945054945,0.0,-0.3076923076923077
2.28,0.3166,0.0,0.17582417582417584,-20.0,-19.428571428571427,27.35359135271105,31.560439560439562,90.0,89.45054945054945,0.0,-0.3076923076923077
2.3,0.3185,0.0,0.17582417582417584,-20.0,-19.428571428571427,26.760721077699642,31.032967032967033,90.0,89.45054945054945,0.0,-0.3076923076923077
2.32,0.3204,0.0,0.17582417582417584,-20.0,-19.428571428571427,26.16147682562315,30.505494505494507,90.0,89.45054945054945,0.0,-0.3076923076923077
2.34,0.32230000000000003,0.0,0.17582417582417584,-20.0,-19.428571428571427,25.55678219403089,29.978021978021978,90.0,89.45054945054945,0.0,-0.3076923076923077
2.36,0.3242,0.0,0.17582417582417584,-20.0,-19.428571428571427,24.947598341124994,29.36263736263736,90.0,89.45054945054945,0.0,-0.3076923076923077
2.38,0.3261,0.0,0.17582417582417584,-20.0,-19.428571428571427,24.334923029161406,28.747252747252748,90.0,89.45054945054945,0.0,-0.3076923076923077
2.4,0.32799999999999996,0.0,0.17582417582417584,-20.0,-19.428571428571427,23.7197895264153,28.21978021978022,90.0,89.45054945054945,0.0,-0.3076923076923077
2.42,0.32989999999999997,0.0,0.17582417582417584,-20.0,-19.428571428571427,23.103265364314264,27.604395604395606,90.0,89.45054945054945,0.0,-0.3076923076923077
2.44,0.3318,0.0,0.17582417582417584,-20.0,-19.428571428571427,22.48645094665928,26.98901098901099,90.0,89.45054945054945,0.0,-0.3076923076923077
2.46,0.3337,0.0,0.17582417582417584,-20.0,-19.428571428571427,21.870478008202312,26.373626373626372,90.0,89.45054945054945,0.0,-0.3076923076923077
2.48,0.3356,0.0,0.17582417582417584,-20.0,-19.428571428571427,21.256507920226333,25.846153846153847,90.0,89.45054945054945,0.0,-0.3076923076923077
2.5,0.3375,0.0,0.17582417582417584,-20.0,-19.428571428571427,20.64572984118307,25.23076923076923,90.0,89.45054945054945,0.0,-0.3076923076923077
2.52,0.33940000000000003,0.0,0.17582417582417584,-20.0,-19.428571428571427,20.03935871088295,24.615384615384617,90.0,89.45054945054945,0.0,-0.3076923076923077
2.54,0.34130000000000005,0.0,0.17582417582417584,-20.0,-19.428571428571427,19.438633087202582,24.0,90.0,89.45054945054945,0.0,-0.3076923076923077
2.56,0.3432,0.0,0.17582417582417584,-20.0,-19.428571428571427,18.844812824776515,23.47252747252747,90.0,89.45054945054945,0.0,-0.3076923076923077
2.58,0.3451,0.0,0.17582417582417584,-20.0,-19.428571428571427,18.25917659567267,22.857142857142858,90.0,89.53846153846153,0.0,-0.3076923076923077
2.6,0.34700000000000003,0.0,0.17582417582417584,-20.0,-19.428571428571427,17.68301925261323,22.24175824175824,90.0,89.71428571428571,0.0,-0.3076923076923077
2.62,0.3489,0.0,0.17582417582417584,-20.0,-19.428571428571427,17.117649035895703,21.626373626373628,90.0,89.97802197802197,0.0,-0.3076923076923077
2.64,0.3508,0.0,0.17582417582417584,-20.0,-19.428571428571427,16.56438462579053,21.01098901098901,90.0,90.06593406593407,0.0,-0.3076923076923077
2.66,0.3527,0.0,0.17582417582417584,-20.0,-19.428571428571427,16.024552042842142,20.483516483516482,90.0,90.06593406593407,0.0,-0.13186813186813187
2.68,0.3546,0.0,0.17582417582417584,-20.0,-19.428571428571427,15.499481399177764,19.86813186813187,90.0,90.06593406593407,0.0,0.04395604395604396
2.7,0.35650000000000004,0.0,0.17582417582417584,-20.0,-19.428571428571427,14.990503504631857,19.34065934065934,90.0,90.06593406593407,0.0,0.04395604395604396
2.72,0.35840000000000005,0.0,0.17582417582417584,-20.0,-19.428571428571427,14.498946332222948,18.813186813186814,90.0,90.15384615384616,0.0,0.04395604395604396
2.74,0.36030000000000006,0.0,0.17582417582417584,-20.0,-19.428571428571427,14.026131348270265,18.285714285714285,90.0,90.15384615384616,0.0,0.04395604395604396
2.76,0.36219999999999997,0.0,0.17582417582417584,-20.0,-19.428571428571427,13.573369713210862,17.75824175824176,90.0,90.15384615384616,0.0,0.04395604395604396
2.78,0.3641,0.0,0.17582417582417584,-20.0,-19.428571428571427,13.14195835996908,17.23076923076923,90.0,90.15384615384616,0.0,0.04395604395604396
2.8,0.366,0.0,0.17582417582417584,-20.0,-19.428571428571427,12.733175957539004,16.703296703296704,90.0,90.15384615384616,0.0,0.04395604395604396
2.82,0.3679,0.0,0.17582417582417584,-20.0,-19.428571428571427,12.348278768262906,16.263736263736263,90.0,90.15384615384616,0.0,0.04395604395604396
2.84,0.3698,0.0,0.17582417582417584,-20.0,-19.428571428571427,11.988496408123401,15.824175824175825,90.0,90.15384615384616,0.0,0.04395604395604396
2.86,0.37170000000000003,0.0,0.17582417582417584,-20.0,-19.428571428571427,11.655027520209305,15.384615384615385,90.0,90.15384615384616,0.0,0.04395604395604396
2.88,0.37360000000000004,0.0,0.17582417582417584,-20.0,-19.428571428571427,11.349035372363655,15.032967032967033,90.0,90.15384615384616,0.0,0.04395604395604396
2.9,0.37549999999999994,0.0,0.17582417582417584,-20.0,-19.428571428571427,11.071643390871829,14.593406593406593,90.0,90.15384615384616,0.0,0.04395604395604396
2.92,0.37739999999999996,0.0,0.17582417582417584,-20.0,-19.428571428571427,10.823930642896196,14.241758241758241,90.0,90.15384615384616,0.0,0.04395604395604396
2.94,0.37929999999999997,0.0,0.17582417582417584,-20.0,-19.428571428571427,10.606927281205508,13.89010989010989,90.0,90.15384615384616,0.0,0.04395604395604396
2.96,0.3812,0.0,0.17582417582417584,-20.0,-19.428571428571427,10.421609965579966,13.538461538461538,90.0,90.24175824175825,0.0,0.04395604395604396
2.98,0.3831,0.0,0.17582417582417584,-20.0,-19.428571428571427,10.268897276090675,13.274725274725276,90.0,90.24175824175825,0.0,0.04395604395604396
3.0,0.385,0.0,0.17582417582417584,-20.0,-19.428571428571427,10.149645134251637,13.010989010989011,90.0,90.24175824175825,0.0,0.04395604395604396
3.02,0.3869,0.0,0.17582417582417584,-20.0,-19.428571428571427,10.064642248817842,12.747252747252746,90.0,90.24175824175825,0.0,0.04395604395604396
3.04,0.38880000000000003,0.0,0.17582417582417584,-20.0,-19.428571428571427,10.014605603750185,12.571428571428571,90.0,90.24175824175825,0.0,0.04395604395604396
3.06,0.39070000000000005,0.0,0.17582417582417584,-20.0,-19.428571428571427,10.00017600658109,12.395604395604396,90.0,90.24175824175825,0.0,0.04395604395604396
3.08,0.39260000000000006,0.0,0.17582417582417584,-20.0,-19.428571428571427,10.021913716089143,12.219780219780219,90.0,90.24175824175825,0.0,0.04395604395604396
3.1,0.3945000000000001,0.0,0.17582417582417584,-20.0,-19.428571428571427,10.0802941688208,12.131868131868131,90.0,90.24175824175825,0.0,0.04395604395604396
3.12,0.3964,0.0,0.17582417582417584,-20.0,-19.428571428571427,10.17570382457703,12.043956043956044,90.0,90.24175824175825,0.0,0.04395604395604396
3.14,0.3983,0.0,0.17582417582417584,-20.0,-19.428571428571427,10.308436151506962,12.043956043956044,90.0,90.24175824175825,0.0,0.04395604395604396
3.16,0.4002,0.0,0.17582417582417584,-20.0,-19.428571428571427,10.478687771913208,12.043956043956044,90.0,90.24175824175825,0.0,0.04395604395604396
3.18,0.4021,0.0,0.17582417582417584,-20.0,-19.428571428571427,10.686554790269,12.043956043956044,90.0,90.24175824175825,0.0,0.04395604395604396
3.2,0.404,0.0,0.17582417582417584,-20.0,-19.428571428571427,10.932029325269674,12.043956043956044,90.0,90.24175824175825,0.0,0.04395604395604396
3.22,0.40590000000000004,0.0,0.17582417582417584,-20.0,-19.428571428571427,11.214996267984434,12.043956043956044,90.0,90.24175824175825,0.0,0.04395604395604396
3.24,0.40780000000000005,0.0,0.17582417582417584,-20.0,-19.428571428571427,11.535230288333123,12.043956043956044,90.0,90.24175824175825,0.0,0.04395604395604396
3.26,0.40969999999999995,0.0,0.17582417582417584,-20.0,-19.428571428571427,11.89239311218089,12.043956043956044,90.0,90.24175824175825,0.0,0.04395604395604396
3.28,0.41159999999999997,0.0,0.17582417582417584,-20.0,-19.428571428571427,12.286031091316204,12.043956043956044,90.0,90.24175824175825,0.0,0.04395604395604396
3.3,0.4135,0.0,0.17582417582417584,-20.0,-19.428571428571427,12.715573088447801,12.219780219780219,90.0,90.24175824175825,0.0,0.04395604395604396
3.32,0.4154,0.0,0.17582417582417584,-20.0,-19.428571428571427,13.180328699120603,12.395604395604396,90.0,90.24175824175825,0.0,0.04395604395604396
3.34,0.4173,0.0,0.17582417582417584,-20.0,-19.428571428571427,13.679486832101965,12.659340659340659,90.0,90.24175824175825,0.0,0.04395604395604396
3.36,0.4192,0.0,0.17582417582417584,-20.0,-19.428571428571427,14.21211466932492,12.923076923076923,90.0,90.24175824175825,0.0,0.04395604395604396
3.38,0.42110000000000003,0.0,0.17582417582417584,-20.0,-19.428571428571427,14.777157025889057,13.362637362637363,90.0,90.24175824175825,0.0,0.04395604395604396
3.4,0.42300000000000004,0.0,0.17582417582417584,-20.0,-19.428571428571427,15.373436129907391,13.714285714285714,90.0,90.24175824175825,0.0,0.04395604395604396
3.42,0.42490000000000006,0.0,0.17582417582417584,-20.0,-19.428571428571427,15.99965184114782,14.241758241758241,90.0,90.24175824175825,0.0,0.04395604395604396
3.44,0.42679999999999996,0.0,0.17582417582417584,-20.0,-19.428571428571427,16.654382326442814,14.76923076923077,90.0,90.24175824175825,0.0,0.04395604395604396
3.46,0.42869999999999997,0.0,0.17582417582417584,-20.0,-19.428571428571427,17.336085208733955,15.208791208791208,90.0,90.24175824175825,0.0,0.04395604395604396
3.48,0.4306,0.0,0.17582417582417584,-20.0,-19.428571428571427,18.04309920536995,15.824175824175825,90.0,90.24175824175825,0.0,0.04395604395604396
3.5,0.4325,0.0,0.17582417582417584,-20.0,-19.428571428571427,18.773646269892534,16.35164835164835,90.0,90.24175824175825,0.0,0.04395604395604396
3.52,0.4344,0.0,0.17582417582417584,-20.0,-19.428571428571427,19.525834250017475,17.054945054945055,90.0,90.24175824175825,0.0,0.04395604395604396
3.54,0.4363,0.0,0.17582417582417584,-20.0,-19.428571428571427,20.29766007285216,17.67032967032967,90.0,90.24175824175825,0.0,0.04395604395604396
3.56,0.43820000000000003,0.0,0.17582417582417584,-20.0,-19.428571428571427,21.087013466583564,18.373626373626372,90.0,90.24175824175825,0.0,0.04395604395604396
3.58,0.44010000000000005,0.0,0.17582417582417584,-20.0,-19.428571428571427,21.89168122592496,18.98901098901099,90.0,90.24175824175825,0.0,0.04395604395604396
3.6,0.44200000000000006,0.0,0.17582417582417584,-20.0,-19.428571428571427,22.709352026526048,19.78021978021978,90.0,90.24175824175825,0.0,0.04395604395604396
3.62,0.4439000000000001,0.0,0.17582417582417584,-20.0,-19.428571428571427,23.537621791334235,20.483516483516482,90.0,90.24175824175825,0.0,0.04395604395604396
3.64,0.4458,0.0,0.17582417582417584,-20.0,-19.428571428571427,24.37399960954636,21.274725274725274,90.0,90.24175824175825,0.0,0.04395604395604396
3.66,0.4477,0.0,0.17582417582417584,-20.0,-19.428571428571427,25.215914206317503,22.065934065934066,90.0,90.24175824175825,0.0,0.04395604395604396
3.68,0.4496,0.0,0.17582417582417584,-20.0,-19.428571428571427,26.0607209587991,22.857142857142858,90.0,90.24175824175825,0.0,0.04395604395604396
3.7,0.4515,0.0,0.17582417582417584,-20.0,-19.428571428571427,26.905709451372143,23.560439560439562,90.0,90.24175824175825,0.0,0.04395604395604396
3.72,0.4534,0.0,0.17582417582417584,-20.0,-19.428571428571427,27.748111560129495,24.439560439560438,90.0,90.24175824175825,0.0,0.04395604395604396
3.74,0.45530000000000004,0.0,0.17582417582417584,-20.0,-19.428571428571427,28.585110053751368,25.318681318681318,90.0,90.24175824175825,0.0,0.04395604395604396
3.76,0.45719999999999994,0.0,0.17582417582417584,-20.0,-19.428571428571427,29.41384769492348,26.10989010989011,90.0,90.15384615384616,0.0,0.04395604395604396
3.78,0.45909999999999995,0.0,0.17582417582417584,-20.0,-19.428571428571427,30.23143682337546,26.9010989010989,90.0,90.15384615384616,0.0,0.04395604395604396
3.8,0.46099999999999997,0.0,0.17582417582417584,-20.0,-19.428571428571427,31.034969398481906,27.78021978021978,90.0,89.89010989010988,0.0,0.04395604395604396
3.82,0.4629,0.0,0.17582417582417584,-20.0,-19.428571428571427,31.821527476183856,28.571428571428573,90.0,89.62637362637362,0.0,0.04395604395604396
3.84,0.4648,0.0,0.17582417582417584,-20.0,-19.428571428571427,32.58819409176606,29.36263736263736,90.0,89.62637362637362,0.0,-0.04395604395604396
3.86,0.4667,0.0,0.17582417582417584,-20.0,-19.428571428571427,33.332064516783234,30.24175824175824,90.0,89.53846153846153,0.0,-0.3076923076923077
3.88,0.4686,0.0,0.17582417582417584,-20.0,-19.428571428571427,34.05025785518188,31.032967032967033,90.0,89.53846153846153,0.0,-0.3076923076923077
3.9,0.47050000000000003,0.0,0.17582417582417584,-20.0,-19.428571428571427,34.73992894042999,31.824175824175825,90.0,89.53846153846153,0.0,-0.3076923076923077
3.92,0.47240000000000004,0.0,0.17582417582417584,-20.0,-19.428571428571427,35.3982804922643,32.527472527472526,90.0,89.53846153846153,0.0,-0.3076923076923077
3.94,0.47430000000000005,0.0,0.17582417582417584,-20.0,-19.428571428571427,36.02257548851286,33.31868131868132,90.0,89.53846153846153,0.0,-0.3076923076923077
3.96,0.47619999999999996,0.0,0.17582417582417584,-20.0,-19.428571428571427,36.61014970436929,34.02197802197802,90.0,89.53846153846153,0.0,-0.3076923076923077
3.98,0.47809999999999997,0.0,0.17582417582417584,-20.0,-19.428571428571427,37.15842436850509,34.72527472527472,90.0,89.53846153846153,0.0,-0.3076923076923077
4.0,0.48,0.0,0.17582417582417584,-20.0,-19.428571428571427,37.66491888253023,35.78021978021978,90.0,89.45054945054945,0.0,-0.3076923076923077
4.02,0.4819,0.0,0.17582417582417584,-20.0,-19.428571428571427,38.12726354757086,35.956043956043956,90.0,89.45054945054945,0.0,-0.3076923076923077
4.04,0.4838,0.0,0.17582417582417584,-20.0,-19.428571428571427,38.543212239151075,36.57142857142857,90.0,89.45054945054945,0.0,-0.3076923076923077
4.06,0.4857,0.0,0.17582417582417584,-20.0,-19.428571428571427,38.910654969163005,37.18681318681319,90.0,89.45054945054945,0.0,-0.3076923076923077
4.08,0.48760000000000003,0.0,0.17582417582417584,-20.0,-19.428571428571427,39.227630271515444,37.62637362637363,90.0,89.45054945054945,0.0,-0.3076923076923077
4.1,0.48949999999999994,0.0,0.17582417582417584,-20.0,-19.428571428571427,39.49233734608103,38.15384615384615,90.0,89.45054945054945,0.0,-0.3076923076923077
4.12,0.49140000000000006,0.0,0.17582417582417584,-20.0,-19.428571428571427,39.70314789384895,38.59340659340659,90.0,89.45054945054945,0.0,-0.3076923076923077
4.14,0.49329999999999996,0.0,0.17582417582417584,-20.0,-19.428571428571427,39.858617574748884,38.94505494505494,90.0,89.45054945054945,0.0,-0.3076923076923077
4.16,0.4952,0.0,0.17582417582417584,-20.0,-19.428571428571427,39.95749701847246,39.2967032967033,90.0,89.45054945054945,0.0,-0.3076923076923077
4.18,0.4971,0.0,0.17582417582417584,-20.0,-19.428571428571427,39.99874231779927,39.56043956043956,90.0,89.45054945054945,0.0,-0.3076923076923077
4.2,0.499,0.0,0.17582417582417584,-20.0,-19.428571428571427,39.981524933460236,39.73626373626374,90.0,89.45054945054945,0.0,-0.3076923076923077
4.22,0.5009,0.0,0.17582417582417584,-20.0,-19.428571428571427,39.90524093946203,39.824175824175825,90.0,89.45054945054945,0.0,-0.3076923076923077
4.24,0.5028,0.0,0.17582417582417584,-20.0,-19.428571428571427,39.76951953807274,39.824175824175825,90.0,89.45054945054945,0.0,-0.3076923076923077
4.26,0.5047,0.0,0.17582417582417584,-20.0,-19.428571428571427,39.57423077435114,39.824175824175825,90.0,89.45054945054945,0.0,-0.3076923076923077
4.28,0.5066,0.0,0.17582417582417584,-20.0,-19.428571428571427,39.319492381206096,39.824175824175825,90.0,89.45054945054945,0.0,-0.3076923076923077
4.3,0.5085,0.0,0.17582417582417584,-20.0,-19.428571428571427,39.00567568751676,39.824175824175825,90.0,89.45054945054945,0.0,-0.3076923076923077
4.32,0.5104000000000001,0.0,0.17582417582417584,-20.0,-19.428571428571427,38.63341052384095,39.824175824175825,90.0,89.45054945054945,0.0,-0.3076923076923077
4.34,0.5123,0.0,0.17582417582417584,-20.0,-19.428571428571427,38.20358906270271,39.824175824175825,90.0,89.45054945054945,0.0,-0.3076923076923077
4.36,0.5142,0.0,0.17582417582417584,-20.0,-19.428571428571427,37.717368533388495,39.824175824175825,90.0,89.45054945054945,0.0,-0.3076923076923077
4.38,0.5161,0.0,0.17582417582417584,-20.0,-19.428571428571427,37.17617275460546,39.824175824175825,90.0,89.45054945054945,0.0,-0.3076923076923077
4.4,0.518,0.0,0.17582417582417584,-20.0,-19.428571428571427,36.58169243226665,39.73626373626374,90.0,89.45054945054945,0.0,-0.3076923076923077
4.42,0.5199,0.0,0.17582417582417584,-20.0,-19.428571428571427,35.93588417407245,39.472527472527474,90.0,89.45054945054945,0.0,-0.3076923076923077
4.44,0.5218,0.0,0.17582417582417584,-20.0,-19.428571428571427,35.240968177450924,39.120879120879124,90.0,89.45054945054945,0.0,-0.3076923076923077
4.46,0.5237,0.0,0.17582417582417584,-20.0,-19.428571428571427,34.499424552803156,38.59340659340659,90.0,89.45054945054945,0.0,-0.3076923076923077
4.48,0.5256000000000001,0.0,0.17582417582417584,-20.0,-19.428571428571427,33.713988249858645,38.065934065934066,90.0,89.45054945054945,0.0,-0.3076923076923077
4.5,0.5275,0.0,0.17582417582417584,-20.0,-19.428571428571427,32.88764256127894,37.53846153846154,90.0,89.45054945054945,0.0,-0.3076923076923077
4.52,0.5294,0.0,0.17582417582417584,-20.0,-19.428571428571427,32.023611184430855,36.92307692307692,90.0,89.45054945054945,0.0,-0.3076923076923077
4.54,0.5313,0.0,0.17582417582417584,-20.0,-19.428571428571427,31.12534882947481,36.30769230769231,90.0,89.45054945054945,0.0,-0.3076923076923077
4.56,0.5332,0.0,0.17582417582417584,-20.0,-19.428571428571427,30.196530369549684,35.604395604395606,90.0,89.45054945054945,0.0,-0.3076923076923077
4.58,0.5351,0.0,0.17582417582417584,-20.0,-19.428571428571427,29.24103853686127,34.9010989010989,90.0,89.45054945054945,0.0,-0.3076923076923077
4.6,0.5369999999999999,0.0,0.17582417582417584,-20.0,-19.428571428571427,28.262950176867662,34.10989010989011,90.0,89.45054945054945,0.0,-0.3076923076923077
4.62,0.5389,0.0,0.17582417582417584,-20.0,-19.428571428571427,27.26652108146193,33.31868131868132,90.0,89.45054945054945,0.0,-0.3076923076923077
4.64,0.5408,0.0,0.17582417582417584,-20.0,-19.428571428571427,26.256169431051774,32.43956043956044,90.0,89.45054945054945,0.0,-0.3076923076923077
4.66,0.5427000000000001,0.0,0.17582417582417584,-20.0,-19.428571428571427,25.23645788467257,31.560439560439562,90.0,89.45054945054945,0.0,-0.3076923076923077
4.68,0.5446,0.0,0.17582417582417584,-20.0,-19.428571428571427,24.212074366713672,30.593406593406595,90.0,89.45054945054945,0.0,-0.3076923076923077
4.7,0.5465,0.0,0.17582417582417584,-20.0,-19.428571428571427,23.18781160841964,29.714285714285715,90.0,89.45054945054945,0.0,-0.3076923076923077
4.72,0.5484,0.0,0.17582417582417584,-20.0,-19.428571428571427,22.16854551201473,28.65934065934066,90.0,89.45054945054945,0.0,-0.3076923076923077
4.74,0.5503,0.0,0.17582417582417584,-20.0,-19.428571428571427,21.159212415011392,27.78021978021978,90.0,89.45054945054945,0.0,-0.3076923076923077
4.76,0.5522,0.0,0.17582417582417584,-20.0,-19.428571428571427,20.16478534196107,26.725274725274726,90.0,89.45054945054945,0.0,-0.3076923076923077
4.78,0.5541,0.0,0.17582417582417584,-20.0,-19.428571428571427,19.190249340506618,25.75824175824176,90.0,89.45054945054945,0.0,-0.3076923076923077
4.8,0.5559999999999999,0.0,0.17582417582417584,-20.0,-19.428571428571427,18.240576008045927,24.791208791208792,90.0,89.45054945054945,0.0,-0.3076923076923077
4.82,0.5579000000000001,0.0,0.17582417582417584,-20.0,-19.428571428571427,17.32069732453717,23.824175824175825,90.0,89.45054945054945,0.0,-0.3076923076923077
4.84,0.5598,0.0,0.17582417582417584,-20.0,-19.428571428571427,16.435478915900212,22.945054945054945,90.0,89.45054945054945,0.0,-0.3076923076923077
4.86,0.5617000000000001,0.0,0.17582417582417584,-20.0,-19.428571428571427,15.589692881018804,21.978021978021978,90.0,89.45054945054945,0.0,-0.3076923076923077
4.88,0.5636,0.0,0.17582417582417584,-20.0,-19.428571428571427,14.78799032345177,20.923076923076923,90.0,89.62637362637362,0.0,-0.3076923076923077
4.9,0.5655,0.0,0.17582417582417584,-20.0,-19.428571428571427,14.034873736536774,20.043956043956044,90.0,89.89010989010988,0.0,-0.3076923076923077
4.92,0.5674,0.0,0.17582417582417584,-20.0,-19.428571428571427,13.334669397546792,19.164835164835164,90.0,90.06593406593407,0.0,-0.3076923076923077
4.94,0.5693,0.0,0.17582417582417584,-20.0,-19.428571428571427,12.691499932851487,18.373626373626372,90.0,90.15384615384616,0.0,-0.13186813186813187
4.96,0.5712,0.0,0.17582417582417584,-20.0,-19.428571428571427,12.109257221575058,17.494505494505493,90.0,90.15384615384616,0.0,0.04395604395604396
4.98,0.5731,0.0,0.17582417582417584,-20.0,-19.428571428571427,11.591575809945631,16.703296703296704,90.0,90.15384615384616,0.0,-0.04395604395604396
5.0,0.575,0.0,0.17582417582417584,-20.0,-19.428571428571427,11.141807012330704,16.0,90.0,90.15384615384616,0.0,-0.04395604395604396
5.02,0.5769,0.0,0.17582417582417584,-20.0,-19.428571428571427,10.762993877772152,15.296703296703297,90.0,90.15384615384616,0.0,0.04395604395604396
5.04,0.5788,0.0,0.17582417582417584,-20.0,-19.428571428571427,10.457847202609814,14.68131868131868,90.0,90.15384615384616,0.0,0.04395604395604396
5.06,0.5807,0.0,0.17582417582417584,-20.0,-19.428571428571427,10.22872277044448,14.153846153846153,90.0,90.15384615384616,0.0,0.04395604395604396
5.08,0.5826,0.0,0.17582417582417584,-20.0,-19.428571428571427,10.077600000183706,13.714285714285714,90.0,90.15384615384616,0.0,0.04395604395604396
5.1,0.5845,0.0,0.17582417582417584,-20.0,-19.428571428571427,10.006062181180654,13.274725274725276,90.0,90.15384615384616,0.0,0.04395604395604396
5.12,0.5864,0.0,0.17582417582417584,-20.0,-19.428571428571427,10.015278471467346,12.923076923076923,90.0,90.15384615384616,0.0,0.04395604395604396
5.14,0.5882999999999999,0.0,0.17582417582417584,-20.0,-19.428571428571427,10.10598783075955,12.659340659340659,90.0,90.24175824175825,0.0,0.04395604395604396
5.16,0.5902000000000001,0.0,0.17582417582417584,-20.0,-19.428571428571427,10.27848505423406,12.395604395604396,90.0,90.24175824175825,0.0,0.04395604395604396
5.18,0.5921,0.0,0.17582417582417584,-20.0,-19.428571428571427,10.532609066025035,12.395604395604396,90.0,90.24175824175825,0.0,0.04395604395604396
5.2,0.5940000000000001,0.0,0.17582417582417584,-20.0,-19.428571428571427,10.867733622936113,12.307692307692308,90.0,90.24175824175825,0.0,0.04395604395604396
5.22,0.5959,0.0,0.17582417582417584,-20.0,-19.428571428571427,11.282760569010247,12.307692307692308,90.0,90.24175824175825,0.0,0.04395604395604396
5.24,0.5978,0.0,0.17582417582417584,-20.0,-19.428571428571427,11.77611577034275,12.307692307692308,90.0,90.24175824175825,0.0,0.04395604395604396
5.26,0.5997,0.0,0.17582417582417584,-20.0,-19.428571428571427,12.34574784687411,12.307692307692308,90.0,90.24175824175825,0.0,0.04395604395604396
5.28,0.6016,0.0,0.17582417582417584,-20.0,-19.428571428571427,12.989129803885602,12.307692307692308,90.0,90.24175824175825,0.0,0.04395604395604396
5.3,0.6034999999999999,0.0,0.17582417582417584,-20.0,-19.428571428571427,13.70326365057118,12.395604395604396,90.0,90.24175824175825,0.0,0.04395604395604396
5.32,0.6054,0.0,0.17582417582417584,-20.0,-19.428571428571427,14.484688076428318,12.747252747252746,90.0,90.24175824175825,0.0,0.04395604395604396
5.34,0.6073,0.0,0.17582417582417584,-20.0,-19.428571428571427,15.329489238347684,13.186813186813186,90.0,90.24175824175825,0.0,0.04395604395604396
5.36,0.6092,0.0,0.17582417582417584,-20.0,-19.428571428571427,16.23331469226975,13.714285714285714,90.0,90.24175824175825,0.0,0.04395604395604396
5.38,0.6111,0.0,0.17582417582417584,-20.0,-19.428571428571427,17.191390483187575,14.32967032967033,90.0,90.24175824175825,0.0,0.04395604395604396
5.4,0.613,0.0,0.17582417582417584,-20.0,-19.428571428571427,18.1985413862183,14.945054945054945,90.0,90.24175824175825,0.0,0.04395604395604396
5.42,0.6149,0.0,0.17582417582417584,-20.0,-19.428571428571427,19.24921426953904,15.736263736263735,90.0,90.24175824175825,0.0,0.04395604395604396
5.44,0.6168,0.0,0.17582417582417584,-20.0,-19.428571428571427,20.337504527318988,16.52747252747253,90.0,90.24175824175825,0.0,0.04395604395604396
5.46,0.6187,0.0,0.17582417582417584,-20.0,-19.428571428571427,21.457185507502658,17.406593406593405,90.0,90.24175824175825,0.0,0.04395604395604396
5.48,0.6206,0.0,0.17582417582417584,-20.0,-19.428571428571427,22.60174083556468,18.285714285714285,90.0,90.24175824175825,0.0,0.13186813186813187
5.5,0.6224999999999999,0.0,0.17582417582417584,-20.0,-19.428571428571427,23.764399511312696,19.252747252747252,90.0,90.24175824175825,0.0,0.13186813186813187
5.52,0.6244,0.0,0.17582417582417584,-20.0,-19.428571428571427,24.938173631638875,20.307692307692307,90.0,90.24175824175825,0.0,0.13186813186813187
5.54,0.6263,0.0,0.17582417582417584,-20.0,-19.428571428571427,26.115898567979784,21.274725274725274,90.0,90.24175824175825,0.0,0.13186813186813187
5.56,0.6282,0.0,0.17582417582417584,-20.0,-19.428571428571427,27.290275403336544,22.417582417582416,90.0,90.24175824175825,0.0,0.13186813186813187
5.58,0.6301,0.0,0.17582417582417584,-20.0,-19.428571428571427,28.453915410217384,23.47252747252747,90.0,90.24175824175825,0.0,0.13186813186813187
5.6,0.6319999999999999,0.0,0.17582417582417584,-20.0,-19.428571428571427,29.599386327998165,24.615384615384617,90.0,90.15384615384616,0.0,0.13186813186813187
5.62,0.6339,0.0,0.17582417582417584,-20.0,-19.428571428571427,30.719260176163857,25.75824175824176,90.0,90.15384615384616,0.0,0.13186813186813187
5.64,0.6357999999999999,0.0,0.17582417582417584,-20.0,-19.428571428571427,31.80616231889389,26.813186813186814,90.0,89.97802197802197,0.0,0.13186813186813187
5.66,0.6377,0.0,0.17582417582417584,-20.0,-19.428571428571427,32.85282147671813,28.043956043956044,90.0,89.8021978021978,0.0,0.13186813186813187
5.68,0.6396,0.0,0.17582417582417584,-20.0,-19.428571428571427,33.85212036268866,29.0989010989011,90.0,89.62637362637362,0.0,0.13186813186813187
5.7,0.6415,0.0,0.17582417582417584,-20.0,-19.428571428571427,34.79714660392417,30.24175824175824,90.0,89.53846153846153,0.0,-0.04395604395604396
5.72,0.6434,0.0,0.17582417582417584,-20.0,-19.428571428571427,35.68124359467233,31.296703296703296,90.0,89.53846153846153,0.0,-0.3076923076923077
5.74,0.6453,0.0,0.17582417582417584,-20.0,-19.428571428571427,36.498060914430425,32.35164835164835,90.0,89.53846153846153,0.0,-0.3076923076923077
5.76,0.6472,0.0,0.17582417582417584,-20.0,-19.428571428571427,37.241603934343196,33.31868131868132,90.0,89.53846153846153,0.0,-0.3076923076923077
5.78,0.6491,0.0,0.17582417582417584,-20.0,-19.428571428571427,37.906282227264086,34.37362637362637,90.0,89.53846153846153,0.0,-0.3076923076923077
5.8,0.6509999999999999,0.0,0.17582417582417584,-20.0,-19.428571428571427,38.48695639169066,35.252747252747255,90.0,89.53846153846153,0.0,-0.3076923076923077
5.82,0.6529,0.0,0.17582417582417584,-20.0,-19.428571428571427,38.97898289743645,36.043956043956044,90.0,89.45054945054945,0.0,-0.3076923076923077
5.84,0.6547999999999999,0.0,0.17582417582417584,-20.0,-19.428571428571427,39.378256561527465,36.83516483516483,90.0,89.45054945054945,0.0,-0.3076923076923077
5.86,0.6567000000000001,0.0,0.17582417582417584,-20.0,-19.428571428571427,39.68125026654626,37.53846153846154,90.0,89.45054945054945,0.0,-0.3076923076923077
5.88,0.6586,0.0,0.17582417582417584,-20.0,-19.428571428571427,39.88505154059856,38.15384615384615,90.0,89.45054945054945,0.0,-0.3076923076923077
5.9,0.6605,0.0,0.17582417582417584,-20.0,-19.428571428571427,39.987395628343556,38.68131868131868,90.0,89.45054945054945,0.0,-0.3076923076923077
5.92,0.6624,0.0,0.17582417582417584,-20.0,-19.428571428571427,39.98669469616951,39.120879120879124,90.0,89.45054945054945,0.0,-0.3076923076923077
5.94,0.6643,0.0,0.17582417582417584,-20.0,-19.428571428571427,39.882062831658935,39.472527472527474,90.0,89.45054945054945,0.0,-0.3076923076923077
5.96,0.6662,0.0,0.17582417582417584,-20.0,-19.428571428571427,39.6733365179822,39.64835164835165,90.0,89.45054945054945,0.0,-0.3076923076923077
5.98,0.6681,0.0,0.17582417582417584,-20.0,-19.428571428571427,39.36109028777256,39.64835164835165,90.0,89.45054945054945,0.0,-0.3076923076923077
6.0,0.67,0.0,0.17582417582417584,-20.0,-19.428571428571427,38.94664728832376,39.64835164835165,90.0,89.45054945054945,0.0,-0.3076923076923077
6.02,0.6718999999999999,0.0,0.17582417582417584,-20.0,-19.428571428571427,38.4320845205361,39.64835164835165,90.0,89.45054945054945,0.0,-0.3076923076923077
6.04,0.6738,0.0,0.17582417582417584,-20.0,-19.428571428571427,37.82023254781052,39.64835164835165,90.0,89.45054945054945,0.0,-0.3076923076923077
6.06,0.6757,0.0,0.17582417582417584,-20.0,-19.428571428571427,37.11466950790829,39.64835164835165,90.0,89.45054945054945,0.0,-0.3076923076923077
6.08,0.6776,0.0,0.17582417582417584,-20.0,-19.428571428571427,36.31970930048102,39.64835164835165,90.0,89.45054945054945,0.0,-0.3076923076923077
6.1,0.6795,0.0,0.17582417582417584,-20.0,-19.428571428571427,35.44038386532161,39.38461538461539,90.0,89.45054945054945,0.0,-0.3076923076923077
6.12,0.6814,0.0,0.17582417582417584,-20.0,-19.428571428571427,34.48241951114459,38.94505494505494,90.0,89.45054945054945,0.0,-0.3076923076923077
6.14,0.6832999999999999,0.0,0.17582417582417584,-20.0,-19.428571428571427,33.45220730160028,38.417582417582416,90.0,89.45054945054945,0.0,-0.3076923076923077
6.16,0.6852,0.0,0.17582417582417584,-20.0,-19.428571428571427,32.356767553943776,37.8021978021978,90.0,89.45054945054945,0.0,-0.3076923076923077
6.18,0.6870999999999999,0.0,0.17582417582417584,-20.0,-19.428571428571427,31.203708555983656,37.0989010989011,90.0,89.45054945054945,0.0,-0.3076923076923077
6.2,0.6890000000000001,0.0,0.17582417582417584,-20.0,-19.428571428571427,30.00117965824076,36.30769230769231,90.0,89.45054945054945,0.0,-0.3076923076923077
6.22,0.6909,0.0,0.17582417582417584,-20.0,-19.428571428571427,28.75781895027229,35.42857142857143,90.0,89.45054945054945,0.0,-0.3076923076923077
6.24,0.6928,0.0,0.17582417582417584,-20.0,-19.428571428571427,27.48269578240879,34.46153846153846,90.0,89.45054945054945,0.0,-0.3076923076923077
6.26,0.6947,0.0,0.17582417582417584,-20.0,-19.428571428571427,26.185248446289624,33.494505494505496,90.0,89.45054945054945,0.0,-0.3076923076923077
6.28,0.6966,0.0,0.17582417582417584,-20.0,-19.428571428571427,24.875217379068705,32.43956043956044,90.0,89.45054945054945,0.0,-0.3076923076923077
6.3,0.6985,0.0,0.17582417582417584,-20.0,-19.428571428571427,23.562574306530966,31.384615384615383,90.0,89.45054945054945,0.0,-0.3076923076923077
6.32,0.7004,0.0,0.17582417582417584,-20.0,-19.428571428571427,22.257447789092875,30.24175824175824,90.0,89.45054945054945,0.0,-0.3076923076923077
6.34,0.7022999999999999,0.0,0.17582417582417584,-20.0,-19.428571428571427,20.970045681264683,29.01098901098901,90.0,89.45054945054945,0.0,-0.3076923076923077
6.36,0.7042,0.0,0.17582417582417584,-20.0,-19.428571428571427,19.710575059093294,27.78021978021978,90.0,89.45054945054945,0.0,-0.3076923076923077
6.38,0.7061,0.0,0.17582417582417584,-20.0,-19.428571428571427,18.4891602108922,26.54945054945055,90.0,89.45054945054945,0.0,-0.3076923076923077
6.4,0.7080000000000001,0.0,0.17582417582417584,-20.0,-19.428571428571427,17.31575932366179,25.318681318681318,90.0,89.45054945054945,0.0,-0.3076923076923077
6.42,0.7099,0.0,0.17582417582417584,-20.0,-19.428571428571427,16.200080530540262,24.087912087912088,90.0,89.45054945054945,0.0,-0.3076923076923077
6.44,0.7118,0.0,0.17582417582417584,-20.0,-19.428571428571427,15.151498012887728,22.945054945054945,90.0,89.45054945054945,0.0,-0.3076923076923077
6.46,0.7137,0.0,0.17582417582417584,-20.0,-19.428571428571427,14.178968873759583,21.626373626373628,90.0,89.45054945054945,0.0,-0.3076923076923077
6.48,0.7156,0.0,0.17582417582417584,-20.0,-19.428571428571427,13.290951517110228,20.483516483516482,90.0,89.53846153846153,0.0,-0.3076923076923077
6.5,0.7175,0.0,0.17582417582417584,-20.0,-19.428571428571427,12.495326278700002,19.428571428571427,90.0,89.71428571428571,0.0,-0.3076923076923077
6.52,0.7193999999999999,0.0,0.17582417582417584,-20.0,-19.428571428571427,11.79931905997599,18.285714285714285,90.0,90.06593406593407,0.0,-0.3076923076923077
6.54,0.7212999999999999,0.0,0.17582417582417584,-20.0,-19.428571428571427,11.20942871485184,17.318681318681318,90.0,90.15384615384616,0.0,-0.3076923076923077
6.56,0.7232,0.0,0.17582417582417584,-20.0,-19.428571428571427,10.73135893104019,16.35164835164835,90.0,90.15384615384616,0.0,0.04395604395604396
6.58,0.7251,0.0,0.17582417582417584,-20.0,-19.428571428571427,10.36995533218235,15.472527472527473,90.0,90.15384615384616,0.0,0.04395604395604396
6.6,0.727,0.0,0.17582417582417584,-20.0,-19.428571428571427,10.129148504311145,14.76923076923077,90.0,90.15384615384616,0.0,-0.04395604395604396
6.62,0.7289,0.0,0.17582417582417584,-20.0,-19.428571428571427,10.011903620078375,14.153846153846153,90.0,90.15384615384616,0.0,0.04395604395604396
6.64,0.7308,0.0,0.17582417582417584,-20.0,-19.428571428571427,10.020177296655147,13.538461538461538,90.0,90.15384615384616,0.0,0.04395604395604396
6.66,0.7327,0.0,0.17582417582417584,-20.0,-19.428571428571427,10.154882278311508,13.186813186813186,90.0,90.15384615384616,0.0,0.04395604395604396
6.68,0.7345999999999999,0.0,0.17582417582417584,-20.0,-19.428571428571427,10.41586048252574,12.923076923076923,90.0,90.15384615384616,0.0,0.04395604395604396
6.7,0.7365,0.0,0.17582417582417584,-20.0,-19.428571428571427,10.801864889258411,12.659340659340659,90.0,90.15384615384616,0.0,0.04395604395604396
6.72,0.7384,0.0,0.17582417582417584,-20.0,-19.428571428571427,11.31055068703093,12.571428571428571,90.0,90.15384615384616,0.0,0.04395604395604396
6.74,0.7403,0.0,0.17582417582417584,-20.0,-19.428571428571427,11.938476017031444,12.571428571428571,90.0,90.24175824175825,0.0,0.04395604395604396
6.76,0.7422,0.0,0.17582417582417584,-20.0,-19.428571428571427,12.681112578069875,12.571428571428571,90.0,90.24175824175825,0.0,0.04395604395604396
6.78,0.7441,0.0,0.17582417582417584,-20.0,-19.428571428571427,13.532866271343085,12.571428571428571,90.0,90.24175824175825,0.0,0.04395604395604396
6.8,0.746,0.0,0.17582417582417584,-20.0,-19.428571428571427,14.487107975246497,12.747252747252746,90.0,90.24175824175825,0.0,0.04395604395604396
6.82,0.7479,0.0,0.17582417582417584,-20.0,-19.428571428571427,15.536214447559036,13.098901098901099,90.0,90.24175824175825,0.0,0.04395604395604396
6.84,0.7498,0.0,0.17582417582417584,-20.0,-19.428571428571427,16.67161925598484,13.626373626373626,90.0,90.24175824175825,0.0,0.04395604395604396
6.86,0.7517,0.0,0.17582417582417584,-20.0,-19.428571428571427,17.883873539077342,14.32967032967033,90.0,90.24175824175825,0.0,0.04395604395604396
6.88,0.7535999999999999,0.0,0.17582417582417584,-20.0,-19.428571428571427,19.16271629888631,15.032967032967033,90.0,90.24175824175825,0.0,0.04395604395604396
6.9,0.7555000000000001,0.0,0.17582417582417584,-20.0,-19.428571428571427,20.497153825195937,16.0,90.0,90.24175824175825,0.0,0.04395604395604396
6.92,0.7574,0.0,0.17582417582417584,-20.0,-19.428571428571427,21.875547749961388,16.87912087912088,90.0,90.24175824175825,0.0,0.04395604395604396
6.94,0.7593,0.0,0.17582417582417584,-20.0,-19.428571428571427,23.285711130539486,17.934065934065934,90.0,90.24175824175825,0.0,0.04395604395604396
6.96,0.7612,0.0,0.17582417582417584,-20.0,-19.428571428571427,24.71501186261087,18.98901098901099,90.0,90.24175824175825,0.0,0.04395604395604396
6.98,0.7631,0.0,0.17582417582417584,-20.0,-19.428571428571427,26.15048262941829,20.21978021978022,90.0,90.24175824175825,0.0,0.04395604395604396
7.0,0.765,0.0,0.17582417582417584,-20.0,-19.428571428571427,27.578936504191155,21.45054945054945,90.0,90.24175824175825,0.0,0.04395604395604396
7.02,0.7668999999999999,0.0,0.17582417582417584,-20.0,-19.428571428571427,28.987087238515137,22.76923076923077,90.0,90.24175824175825,0.0,0.04395604395604396
7.04,0.7688,0.0,0.17582417582417584,-20.0,-19.428571428571427,30.361673192035845,24.087912087912088,90.0,90.24175824175825,0.0,0.13186813186813187
7.06,0.7706999999999999,0.0,0.17582417582417584,-20.0,-19.428571428571427,31.68958378933501,25.406593406593405,90.0,90.15384615384616,0.0,0.13186813186813187
7.08,0.7726,0.0,0.17582417582417584,-20.0,-19.428571428571427,32.95798732914092,26.813186813186814,90.0,90.06593406593407,0.0,0.13186813186813187
7.1,0.7745,0.0,0.17582417582417584,-20.0,-19.428571428571427,34.154458920215774,28.21978021978022,90.0,89.89010989010988,0.0,0.13186813186813187
7.12,0.7764,0.0,0.17582417582417584,-20.0,-19.428571428571427,35.26710727825187,29.53846153846154,90.0,89.62637362637362,0.0,0.13186813186813187
7.14,0.7783,0.0,0.17582417582417584,-20.0,-19.428571428571427,36.284699089753275,30.857142857142858,90.0,89.53846153846153,0.0,-0.04395604395604396
7.16,0.7802,0.0,0.17582417582417584,-20.0,-19.428571428571427,37.19677963296066,32.08791208791209,90.0,89.53846153846153,0.0,-0.3076923076923077
7.18,0.7820999999999999,0.0,0.17582417582417584,-20.0,-19.428571428571427,37.99378834306127,33.31868131868132,90.0,89.53846153846153,0.0,-0.3076923076923077
7.2,0.784,0.0,0.17582417582417584,-20.0,-19.428571428571427,38.6671680197725,34.46153846153846,90.0,89.53846153846153,0.0,-0.3076923076923077
7.22,0.7858999999999999,0.0,0.17582417582417584,-20.0,-19.428571428571427,39.20946640032469,35.51648351648352,90.0,89.53846153846153,0.0,-0.3076923076923077
7.24,0.7878000000000001,0.0,0.17582417582417584,-20.0,-19.428571428571427,39.614428860198785,36.48351648351648,90.0,89.53846153846153,0.0,-0.3076923076923077
7.26,0.7897,0.0,0.17582417582417584,-20.0,-19.428571428571427,39.877081057836726,37.362637362637365,90.0,89.45054945054945,0.0,-0.3076923076923077
7.28,0.7916,0.0,0.17582417582417584,-20.0,-19.428571428571427,39.99380040794096,38.065934065934066,90.0,89.45054945054945,0.0,-0.3076923076923077
7.3,0.7935,0.0,0.17582417582417584,-20.0,-19.428571428571427,39.962375350736664,38.68131868131868,90.0,89.45054945054945,0.0,-0.3076923076923077
7.32,0.7954,0.0,0.17582417582417584,-20.0,-19.428571428571427,39.782051481356405,39.120879120879124,90.0,89.45054945054945,0.0,-0.3076923076923077
7.34,0.7973,0.0,0.17582417582417584,-20.0,-19.428571428571427,39.453563713807405,39.38461538461539,90.0,89.45054945054945,0.0,-0.3076923076923077
7.36,0.7992,0.0,0.17582417582417584,-20.0,-19.428571428571427,38.97915377711497,39.472527472527474,90.0,89.45054945054945,0.0,-0.3076923076923077
7.38,0.8010999999999999,0.0,0.17582417582417584,-20.0,-19.428571428571427,38.36257247634105,39.472527472527474,90.0,89.45054945054945,0.0,-0.3076923076923077
7.4,0.803,0.0,0.17582417582417584,-20.0,-19.428571428571427,37.60906629721991,39.472527472527474,90.0,89.45054945054945,0.0,-0.3076923076923077
7.42,0.8049,0.0,0.17582417582417584,-20.0,-19.428571428571427,36.72534808893393,39.472527472527474,90.0,89.45054945054945,0.0,-0.3076923076923077
7.44,0.8068000000000001,0.0,0.17582417582417584,-20.0,-19.428571428571427,35.719551723695915,39.2967032967033,90.0,89.45054945054945,0.0,-0.3076923076923077
7.46,0.8087,0.0,0.17582417582417584,-20.0,-19.428571428571427,34.60117080280094,39.032967032967036,90.0,89.45054945054945,0.0,-0.3076923076923077
7.48,0.8106,0.0,0.17582417582417584,-20.0,-19.428571428571427,33.38098165497386,38.59340659340659,90.0,89.45054945054945,0.0,-0.3076923076923077
7.5,0.8125,0.0,0.17582417582417584,-20.0,-19.428571428571427,32.07095105238995,37.97802197802198,90.0,89.45054945054945,0.0,-0.3076923076923077
7.52,0.8143999999999999,0.0,0.17582417582417584,-20.0,-19.428571428571427,30.684129250746533,37.18681318681319,90.0,89.45054945054945,0.0,-0.3076923076923077
7.54,0.8163,0.0,0.17582417582417584,-20.0,-19.428571428571427,29.234529140216157,36.30769230769231,90.0,89.45054945054945,0.0,-0.3076923076923077
7.56,0.8181999999999999,0.0,0.17582417582417584,-20.0,-19.428571428571427,27.73699247190688,35.34065934065934,90.0,89.45054945054945,0.0,-0.3076923076923077
7.58,0.8200999999999999,0.0,0.17582417582417584,-20.0,-19.428571428571427,26.20704429744008,34.285714285714285,90.0,89.45054945054945,0.0,-0.3076923076923077
7.6,0.822,0.0,0.17582417582417584,-20.0,-19.428571428571427,24.660736925249097,33.142857142857146,90.0,89.45054945054945,0.0,-0.3076923076923077
7.62,0.8239,0.0,0.17582417582417584,-20.0,-19.428571428571427,23.114484853985456,31.912087912087912,90.0,89.45054945054945,0.0,-0.3076923076923077
7.64,0.8258,0.0,0.17582417582417584,-20.0,-19.428571428571427,21.584892288825458,30.681318681318682,90.0,89.45054945054945,0.0,-0.3076923076923077
7.66,0.8277,0.0,0.17582417582417584,-20.0,-19.428571428571427,20.08857497834146,29.274725274725274,90.0,89.45054945054945,0.0,-0.3076923076923077
7.68,0.8296,0.0,0.17582417582417584,-20.0,-19.428571428571427,18.64197822587871,27.86813186813187,90.0,89.45054945054945,0.0,-0.3076923076923077
7.7,0.8315,0.0,0.17582417582417584,-20.0,-19.428571428571427,17.261193028083774,26.373626373626372,90.0,89.45054945054945,0.0,-0.3076923076923077
7.72,0.8333999999999999,0.0,0.17582417582417584,-20.0,-19.428571428571427,15.961772372523377,24.967032967032967,90.0,89.45054945054945,0.0,-0.3076923076923077
7.74,0.8353,0.0,0.17582417582417584,-20.0,-19.428571428571427,14.75854978452985,23.560439560439562,90.0,89.45054945054945,0.0,-0.3076923076923077
7.76,0.8371999999999999,0.0,0.17582417582417584,-20.0,-19.428571428571427,13.665462249013865,22.24175824175824,90.0,89.45054945054945,0.0,-0.3076923076923077
7.78,0.8391,0.0,0.17582417582417584,-20.0,-19.428571428571427,12.695379644706085,20.835164835164836,90.0,89.53846153846153,0.0,-0.3076923076923077
7.8,0.841,0.0,0.17582417582417584,-20.0,-19.428571428571427,11.859942815093493,19.428571428571427,90.0,89.62637362637362,0.0,-0.3076923076923077
7.82,0.8429,0.0,0.17582417582417584,-20.0,-19.428571428571427,11.169412361403047,18.197802197802197,90.0,89.8021978021978,0.0,-0.3076923076923077
7.84,0.8448,0.0,0.17582417582417584,-20.0,-19.428571428571427,10.632530177876296,17.142857142857142,90.0,90.06593406593407,0.0,-0.3076923076923077
7.86,0.8467,0.0,0.17582417582417584,-20.0,-19.428571428571427,10.256395658064836,16.087912087912088,90.0,90.15384615384616,0.0,-0.21978021978021978
7.88,0.8486,0.0,0.17582417582417584,-20.0,-19.428571428571427,10.046358383096779,15.12087912087912,90.0,90.15384615384616,0.0,0.04395604395604396
7.9,0.8505,0.0,0.17582417582417584,-20.0,-19.428571428571427,10.005928959273884,14.417582417582418,90.0,90.15384615384616,0.0,0.04395604395604396
7.92,0.8523999999999999,0.0,0.17582417582417584,-20.0,-19.428571428571427,10.136709503765054,13.714285714285714,90.0,90.15384615384616,0.0,-0.04395604395604396
7.94,0.8543000000000001,0.0,0.17582417582417584,-20.0,-19.428571428571427,10.438345084717046,13.274725274725276,90.0,90.15384615384616,0.0,0.04395604395604396
7.96,0.8562,0.0,0.17582417582417584,-20.0,-19.428571428571427,10.908497207309003,13.010989010989011,90.0,90.15384615384616,0.0,0.13186813186813187
7.98,0.8581,0.0,0.17582417582417584,-20.0,-19.428571428571427,11.542840201982857,12.923076923076923,90.0,90.15384615384616,0.0,0.13186813186813187
8.0,0.86,0.0,0.17582417582417584,-20.0,-19.428571428571427,12.335081117469755,12.923076923076923,90.0,90.15384615384616,0.0,0.13186813186813187
8.02,0.8619,0.0,0.17582417582417584,-20.0,-19.428571428571427,13.277003451816363,12.923076923076923,90.0,90.24175824175825,0.0,0.13186813186813187
8.04,0.8637999999999999,0.0,0.17582417582417584,-20.0,-19.428571428571427,14.35853477220403,12.923076923076923,90.0,90.24175824175825,0.0,0.13186813186813187
8.06,0.8657,0.0,0.17582417582417584,-20.0,-19.428571428571427,15.56783798205217,13.186813186813186,90.0,90.24175824175825,0.0,0.13186813186813187
8.08,0.8676,0.0,0.17582417582417584,-20.0,-19.428571428571427,16.89142569504927,13.626373626373626,90.0,90.24175824175825,0.0,0.13186813186813187
8.1,0.8694999999999999,0.0,0.17582417582417584,-20.0,-19.428571428571427,18.314296873946788,14.32967032967033,90.0,90.24175824175825,0.0,0.13186813186813187
8.12,0.8714,0.0,0.17582417582417584,-20.0,-19.428571428571427,19.820094590923706,15.12087912087912,90.0,90.24175824175825,0.0,0.13186813186813187
8.14,0.8733000000000001,0.0,0.17582417582417584,-20.0,-19.428571428571427,21.391283470003085,16.087912087912088,90.0,90.24175824175825,0.0,0.13186813186813187
8.16,0.8752,0.0,0.17582417582417584,-20.0,-19.428571428571427,23.009345084356493,17.142857142857142,90.0,90.24175824175825,0.0,0.13186813186813187
8.18,0.8771,0.0,0.17582417582417584,-20.0,-19.428571428571427,24.654989306429048,18.285714285714285,90.0,90.24175824175825,0.0,0.13186813186813187
8.2,0.8789999999999999,0.0,0.17582417582417584,-20.0,-19.428571428571427,26.308379350676425,19.516483516483518,90.0,90.24175824175825,0.0,0.13186813186813187
8.22,0.8809,0.0,0.17582417582417584,-20.0,-19.428571428571427,27.949368011334112,20.835164835164836,90.0,90.24175824175825,0.0,0.13186813186813187
8.24,0.8828,0.0,0.17582417582417584,-20.0,-19.428571428571427,29.55774238487411,22.24175824175824,90.0,90.24175824175825,0.0,0.13186813186813187
8.26,0.8846999999999999,0.0,0.17582417582417584,-20.0,-19.428571428571427,31.11347418235912,23.824175824175825,90.0,90.24175824175825,0.0,0.13186813186813187
8.28,0.8865999999999999,0.0,0.17582417582417584,-20.0,-19.428571428571427,32.596972584225625,25.318681318681318,90.0,90.15384615384616,0.0,0.13186813186813187
8.3,0.8885000000000001,0.0,0.17582417582417584,-20.0,-19.428571428571427,33.98933647228652,26.813186813186814,90.0,90.06593406593407,0.0,0.13186813186813187
8.32,0.8904,0.0,0.17582417582417584,-20.0,-19.428571428571427,35.272602793779306,28.395604395604394,90.0,89.8021978021978,0.0,0.13186813186813187
8.34,0.8923,0.0,0.17582417582417584,-20.0,-19.428571428571427,36.429987772498635,29.89010989010989,90.0,89.53846153846153,0.0,0.13186813186813187
8.36,0.8941999999999999,0.0,0.17582417582417584,-20.0,-19.428571428571427,37.44611768444192,31.296703296703296,90.0,89.53846153846153,0.0,-0.13186813186813187
8.38,0.8961,0.0,0.17582417582417584,-20.0,-19.428571428571427,38.307245961426254,32.79120879120879,90.0,89.53846153846153,0.0,-0.3076923076923077
8.4,0.898,0.0,0.17582417582417584,-20.0,-19.428571428571427,39.00145347674615,34.10989010989011,90.0,89.53846153846153,0.0,-0.3076923076923077
8.42,0.8999,0.0,0.17582417582417584,-20.0,-19.428571428571427,39.518829002499324,35.34065934065934,90.0,89.53846153846153,0.0,-0.3076923076923077
8.44,0.9017999999999999,0.0,0.17582417582417584,-20.0,-19.428571428571427,39.85162700845823,36.395604395604394,90.0,89.53846153846153,0.0,-0.3076923076923077
8.46,0.9037000000000001,0.0,0.17582417582417584,-20.0,-19.428571428571427,39.99440019644696,37.362637362637365,90.0,89.53846153846153,0.0,-0.3076923076923077
8.48,0.9056000000000001,0.0,0.17582417582417584,-20.0,-19.428571428571427,39.944104430565005,38.15384615384615,90.0,89.53846153846153,0.0,-0.3076923076923077
8.5,0.9075,0.0,0.17582417582417584,-20.0,-19.428571428571427,39.700174030121744,38.68131868131868,90.0,89.45054945054945,0.0,-0.3076923076923077
8.52,0.9094,0.0,0.17582417582417584,-20.0,-19.428571428571427,39.26456573598716,39.120879120879124,90.0,89.45054945054945,0.0,-0.3076923076923077
8.54,0.9112999999999999,0.0,0.17582417582417584,-20.0,-19.428571428571427,38.64177003877664,39.20879120879121,90.0,89.45054945054945,0.0,-0.3076923076923077
8.56,0.9132,0.0,0.17582417582417584,-20.0,-19.428571428571427,37.83878896480254,39.20879120879121,90.0,89.45054945054945,0.0,-0.3076923076923077
8.58,0.9151,0.0,0.17582417582417584,-20.0,-19.428571428571427,36.8650798484027,39.20879120879121,90.0,89.45054945054945,0.0,-0.3076923076923077
8.6,0.9169999999999999,0.0,0.17582417582417584,-20.0,-19.428571428571427,35.73246507190363,39.120879120879124,90.0,89.45054945054945,0.0,-0.3076923076923077
8.62,0.9188999999999999,0.0,0.17582417582417584,-20.0,-19.428571428571427,34.455008221432934,38.857142857142854,90.0,89.45054945054945,0.0,-0.3076923076923077
8.64,0.9208000000000001,0.0,0.08791208791208792,-20.0,-19.428571428571427,33.04885758195724,38.505494505494504,90.0,89.45054945054945,0.0,-0.3076923076923077
8.66,0.9227,0.0,0.08791208791208792,-20.0,-19.428571428571427,31.53205837184344,37.89010989010989,90.0,89.45054945054945,0.0,-0.3076923076923077
8.68,0.9246,0.0,0.08791208791208792,-20.0,-19.428571428571427,29.924335589192303,37.0989010989011,90.0,89.45054945054945,0.0,-0.3076923076923077
8.7,0.9264999999999999,0.0,0.08791208791208792,-20.0,-19.428571428571427,28.246849802274095,36.13186813186813,90.0,89.45054945054945,0.0,-0.3076923076923077
8.72,0.9284,0.0,0.17582417582417584,-20.0,-19.428571428571427,26.521928657578233,35.07692307692308,90.0,89.45054945054945,0.0,-0.3076923076923077
8.74,0.9303,0.0,0.17582417582417584,-20.0,-19.428571428571427,24.772777294296016,33.934065934065934,90.0,89.45054945054945,0.0,-0.3076923076923077
8.76,0.9321999999999999,0.0,0.17582417582417584,-20.0,-19.428571428571427,23.023171236576797,32.61538461538461,90.0,89.45054945054945,0.0,-0.3076923076923077
8.78,0.9340999999999999,0.0,0.17582417582417584,-20.0,-19.428571428571427,21.29713567797326,31.208791208791208,90.0,89.45054945054945,0.0,-0.3076923076923077
8.8,0.936,0.0,0.17582417582417584,-20.0,-19.428571428571427,19.618615369766484,29.802197802197803,90.0,89.45054945054945,0.0,-0.3076923076923077
8.82,0.9379000000000001,0.0,0.17582417582417584,-20.0,-19.428571428571427,18.011139570421708,28.13186813186813,90.0,89.45054945054945,0.0,-0.3076923076923077
8.84,0.9398,0.0,0.17582417582417584,-20.0,-19.428571428571427,16.497486701908947,26.63736263736264,90.0,89.45054945054945,0.0,-0.3076923076923077
8.86,0.9417,0.0,0.17582417582417584,-20.0,-19.428571428571427,15.099353485294037,25.054945054945055,90.0,89.45054945054945,0.0,-0.3076923076923077
8.88,0.9436000000000001,0.0,0.17582417582417584,-20.0,-19.428571428571427,13.837033388892502,23.47252747252747,90.0,89.45054945054945,0.0,-0.3076923076923077
8.9,0.9455,0.0,0.17582417582417584,-20.0,-19.428571428571427,12.729109214228489,21.978021978021978,90.0,89.45054945054945,0.0,-0.3076923076923077
8.92,0.9474,0.0,0.17582417582417584,-20.0,-19.428571428571427,11.792164565837348,20.483516483516482,90.0,89.53846153846153,0.0,-0.3076923076923077
8.94,0.9492999999999999,0.0,0.17582417582417584,-20.0,-19.428571428571427,11.040518799348927,18.98901098901099,90.0,89.62637362637362,0.0,-0.3076923076923077
8.96,0.9512,0.0,0.17582417582417584,-20.0,-19.428571428571427,10.485989818112081,17.582417582417584,90.0,89.89010989010988,0.0,-0.3076923076923077
8.98,0.9531000000000001,0.0,0.17582417582417584,-20.0,-19.428571428571427,10.137688792775437,16.439560439560438,90.0,90.06593406593407,0.0,-0.3076923076923077
9.0,0.955,0.0,0.17582417582417584,-20.0,-19.428571428571427,10.00185051277509,15.384615384615385,90.0,90.15384615384616,0.0,-0.21978021978021978
9.02,0.9569,0.0,0.17582417582417584,-20.0,-19.428571428571427,10.081702646773897,14.593406593406593,90.0,90.15384615384616,0.0,-0.04395604395604396
9.04,0.9587999999999999,0.0,0.17582417582417584,-20.0,-19.428571428571427,10.377376695078095,13.89010989010989,90.0,90.15384615384616,0.0,0.04395604395604396
9.06,0.9607,0.0,0.17582417582417584,-20.0,-19.428571428571427,10.88586286637187,13.45054945054945,90.0,90.15384615384616,0.0,0.04395604395604396
9.08,0.9626,0.0,0.17582417582417584,-20.0,-19.428571428571427,11.601010510282368,13.186813186813186,90.0,90.15384615384616,0.0,0.04395604395604396
9.1,0.9644999999999999,0.0,0.17582417582417584,-20.0,-19.428571428571427,12.513575093869674,13.186813186813186,90.0,90.15384615384616,0.0,0.04395604395604396
9.12,0.9663999999999999,0.0,0.17582417582417584,-20.0,-19.428571428571427,13.61131203261382,13.098901098901099,90.0,90.15384615384616,0.0,0.04395604395604396
9.14,0.9683,0.0,0.17582417582417584,-20.0,-19.428571428571427,14.879116984196362,13.186813186813186,90.0,90.15384615384616,0.0,0.04395604395604396
9.16,0.9702,0.0,0.17582417582417584,-20.0,-19.428571428571427,16.29921149641308,13.45054945054945,90.0,90.15384615384616,0.0,0.04395604395604396
9.18,0.9721,0.0,0.17582417582417584,-20.0,-19.428571428571427,17.85137217959887,13.978021978021978,90.0,90.15384615384616,0.0,0.04395604395604396
9.2,0.9739999999999999,0.0,0.17582417582417584,-20.0,-19.428571428571427,19.513200860119934,14.68131868131868,90.0,90.15384615384616,0.0,0.04395604395604396
9.22,0.9759000000000001,0.0,0.17582417582417584,-20.0,-19.428571428571427,21.26043247624536,15.56043956043956,90.0,90.15384615384616,0.0,0.04395604395604396
9.24,0.9778,0.0,0.17582417582417584,-20.0,-19.428571428571427,23.06727681259056,16.703296703296704,90.0,90.15384615384616,0.0,0.04395604395604396
9.26,0.9797,0.0,0.17582417582417584,-20.0,-19.428571428571427,24.90678954585254,17.846153846153847,90.0,90.15384615384616,0.0,0.04395604395604396
9.28,0.9815999999999999,0.0,0.17582417582417584,-20.0,-19.428571428571427,26.751267503961536,19.164835164835164,90.0,90.15384615384616,0.0,0.04395604395604396
9.3,0.9835,0.0,0.17582417582417584,-20.0,-19.428571428571427,28.572662533911576,20.65934065934066,90.0,90.15384615384616,0.0,0.04395604395604396
9.32,0.9854,0.0,0.17582417582417584,-20.0,-19.428571428571427,30.343007940542872,22.153846153846153,90.0,90.15384615384616,0.0,0.04395604395604396
9.34,0.9873,0.0,0.17582417582417584,-20.0,-19.428571428571427,32.03485110883485,23.736263736263737,90.0,90.15384615384616,0.0,0.04395604395604396
9.36,0.9892,0.0,0.17582417582417584,-20.0,-19.428571428571427,33.62168566413685,25.406593406593405,90.0,89.97802197802197,0.0,0.04395604395604396
9.38,0.9911000000000001,0.0,0.17582417582417584,-20.0,-19.428571428571427,35.07837636539722,27.164835164835164,90.0,89.71428571428571,0.0,0.04395604395604396
9.4,0.993,0.0,0.17582417582417584,-20.0,-19.428571428571427,36.381569871635385,28.923076923076923,90.0,89.53846153846153,0.0,0.04395604395604396
9.42,0.9949,0.0,0.17582417582417584,-20.0,-19.428571428571427,37.51008457592393,30.505494505494507,90.0,89.53846153846153,0.0,-0.13186813186813187
9.44,0.9967999999999999,0.0,0.17582417582417584,-20.0,-19.428571428571427,38.44527286666561,32.08791208791209,90.0,89.53846153846153,0.0,-0.3076923076923077
9.46,0.9987,0.0,0.17582417582417584,-20.0,-19.428571428571427,39.17134945386542,33.582417582417584,90.0,89.53846153846153,0.0,-0.3076923076923077
9.48,1.0006000000000002,0.0,0.17582417582417584,-20.0,-19.428571428571427,39.67567978747419,34.989010989010985,90.0,89.53846153846153,0.0,-0.3076923076923077
9.5,1.0025,0.0,0.17582417582417584,-20.0,-19.428571428571427,39.949023092909975,36.21978021978022,90.0,89.53846153846153,0.0,-0.3076923076923077
9.52,1.0044,0.0,0.17582417582417584,-20.0,-19.428571428571427,39.98572515079407,37.27472527472528,90.0,89.53846153846153,0.0,-0.3076923076923077
9.54,1.0063,0.0,0.17582417582417584,-20.0,-19.428571428571427,39.783856647137455,38.15384615384615,90.0,89.53846153846153,0.0,-0.3076923076923077
9.56,1.0082,0.0,0.17582417582417584,-20.0,-19.428571428571427,39.345293708148986,38.68131868131868,90.0,89.45054945054945,0.0,-0.3076923076923077
9.58,1.0101,0.0,0.17582417582417584,-20.0,-19.428571428571427,38.67573810018615,38.94505494505494,90.0,89.45054945054945,0.0,-0.3076923076923077
9.6,1.012,0.0,0.17582417582417584,-20.0,-19.428571428571427,37.78467550811195,38.94505494505494,90.0,89.45054945054945,0.0,-0.3076923076923077
9.62,1.0139,0.0,0.17582417582417584,-20.0,-19.428571428571427,36.68527129088264,38.94505494505494,90.0,89.45054945054945,0.0,-0.3076923076923077
9.64,1.0158,0.0,0.17582417582417584,-20.0,-19.428571428571427,35.394204136608,38.94505494505494,90.0,89.45054945054945,0.0,-0.3076923076923077
9.66,1.0177,0.0,0.17582417582417584,-20.0,-19.428571428571427,33.93143908445782,38.76923076923077,90.0,89.45054945054945,0.0,-0.3076923076923077
9.68,1.0196,0.0,0.08791208791208792,-20.0,-19.428571428571427,32.31994243056268,38.32967032967033,90.0,89.45054945054945,0.0,-0.3076923076923077
9.7,1.0215,0.0,0.08791208791208792,-20.0,-19.428571428571427,30.585342071698204,37.714285714285715,90.0,89.45054945054945,0.0,-0.3076923076923077
9.72,1.0234,0.0,0.08791208791208792,-20.0,-19.428571428571427,28.755537845888057,36.83516483516483,90.0,89.45054945054945,0.0,-0.3076923076923077
9.74,1.0253,0.0,0.17582417582417584,-20.0,-19.428571428571427,26.860267384856147,35.78021978021978,90.0,89.45054945054945,0.0,-0.3076923076923077
9.76,1.0272000000000001,0.0,0.17582417582417584,-20.0,-19.428571428571427,24.930633881445274,34.54945054945055,90.0,89.45054945054945,0.0,-0.3076923076923077
9.78,1.0291,0.0,0.17582417582417584,-20.0,-19.428571428571427,22.99860297823375,33.23076923076923,90.0,89.45054945054945,0.0,-0.3076923076923077
9.8,1.0310000000000001,0.0,0.17582417582417584,-20.0,-19.428571428571427,21.096476684966976,31.824175824175825,90.0,89.45054945054945,0.0,-0.3076923076923077
9.82,1.0329000000000002,0.0,0.17582417582417584,-20.0,-19.428571428571427,19.25635281671104,30.24175824175824,90.0,89.45054945054945,0.0,-0.3076923076923077
9.84,1.0348,0.0,0.17582417582417584,-20.0,-19.428571428571427,17.509578897914707,28.571428571428573,90.0,89.45054945054945,0.0,-0.3076923076923077
9.86,1.0367,0.0,0.17582417582417584,-20.0,-19.428571428571427,15.886209787818824,26.813186813186814,90.0,89.45054945054945,0.0,-0.3076923076923077
9.88,1.0386000000000002,0.0,0.17582417582417584,-20.0,-19.428571428571427,14.414478439929132,25.142857142857142,90.0,89.45054945054945,0.0,-0.3076923076923077
9.9,1.0405,0.0,0.17582417582417584,-20.0,-19.428571428571427,13.12028920504029,23.47252747252747,90.0,89.45054945054945,0.0,-0.3076923076923077
9.92,1.0424,0.0,0.17582417582417584,-20.0,-19.428571428571427,12.026742918625532,21.802197802197803,90.0,89.45054945054945,0.0,-0.3076923076923077
9.94,1.0443,0.0,0.17582417582417584,-20.0,-19.428571428571427,11.153702677157254,20.21978021978022,90.0,89.53846153846153,0.0,-0.3076923076923077
9.96,1.0462,0.0,0.17582417582417584,-20.0,-19.428571428571427,10.517408704879806,18.63736263736264,90.0,89.62637362637362,0.0,-0.3076923076923077
9.98,1.0481,0.0,0.17582417582417584,-20.0,-19.428571428571427,10.130150046590973,17.23076923076923,90.0,89.71428571428571,0.0,-0.3076923076923077
10.0,1.05,0.0,0.17582417582417584,-20.0,-19.428571428571427,10.0,16.0,90.0,89.97802197802197,0.0,-0.3076923076923077
10.02,1.0519,0.0,0.17582417582417584,-20.0,-19.428571428571427,10.13062123324121,14.945054945054945,90.0,90.06593406593407,0.0,-0.3076923076923077
10.04,1.0538,0.0,0.17582417582417584,-20.0,-19.428571428571427,10.521145432123006,14.241758241758241,90.0,90.15384615384616,0.0,-0.21978021978021978
10.06,1.0557,0.0,0.17582417582417584,-20.0,-19.428571428571427,11.166131103578595,13.714285714285714,90.0,90.15384615384616,0.0,-0.04395604395604396
10.08,1.0576,0.0,0.17582417582417584,-20.0,-19.428571428571427,12.055601845133147,13.45054945054945,90.0,90.15384615384616,0.0,0.04395604395604396
10.1,1.0595,0.0,0.17582417582417584,-20.0,-19.428571428571427,13.175165996039736,13.362637362637363,90.0,90.15384615384616,0.0,0.04395604395604396
10.12,1.0614,0.0,0.17582417582417584,-20.0,-19.428571428571427,14.506217137241018,13.362637362637363,90.0,90.15384615384616,0.0,0.04395604395604396
10.14,1.0633000000000001,0.0,0.17582417582417584,-20.0,-19.428571428571427,16.026213429463983,13.538461538461538,90.0,90.15384615384616,0.0,0.04395604395604396
10.16,1.0652000000000001,0.0,0.17582417582417584,-20.0,-19.428571428571427,17.709032297909303,13.978021978021978,90.0,90.15384615384616,0.0,0.04395604395604396
10.18,1.0671,0.0,0.17582417582417584,-20.0,-19.428571428571427,19.525395515487464,14.593406593406593,90.0,90.15384615384616,0.0,0.04395604395604396
10.2,1.069,0.0,0.17582417582417584,-20.0,-19.428571428571427,21.44335833214977,15.384615384615385,90.0,90.15384615384616,0.0,0.04395604395604396
10.22,1.0709000000000002,0.0,0.17582417582417584,-20.0,-19.428571428571427,23.428854973332292,16.52747252747253,90.0,90.15384615384616,0.0,0.04395604395604396
10.24,1.0728,0.0,0.17582417582417584,-20.0,-19.428571428571427,25.44629161303849,17.846153846153847,90.0,90.15384615384616,0.0,0.04395604395604396
10.26,1.0747,0.0,0.17582417582417584,-20.0,-19.428571428571427,27.459176842705705,19.164835164835164,90.0,90.15384615384616,0.0,0.04395604395604396
10.28,1.0766,0.0,0.17582417582417584,-20.0,-19.428571428571427,29.430778730155716,20.747252747252748,90.0,90.15384615384616,0.0,0.04395604395604396
10.3,1.0785,0.0,0.17582417582417584,-20.0,-19.428571428571427,31.32479681586849,22.32967032967033,90.0,90.15384615384616,0.0,0.04395604395604396
10.32,1.0804,0.0,0.17582417582417584,-20.0,-19.428571428571427,33.10603684608077,24.175824175824175,90.0,90.15384615384616,0.0,0.04395604395604396
10.34,1.0823,0.0,0.17582417582417584,-20.0,-19.428571428571427,34.741075710212485,25.934065934065934,90.0,89.89010989010988,0.0,0.04395604395604396
10.36,1.0842,0.0,0.17582417582417584,-20.0,-19.428571428571427,36.19890394663392,27.78021978021978,90.0,89.62637362637362,0.0,0.04395604395604396
10.38,1.0861,0.0,0.17582417582417584,-20.0,-19.428571428571427,37.45153331463705,29.53846153846154,90.0,89.53846153846153,0.0,0.04395604395604396
10.4,1.088,0.0,0.17582417582417584,-20.0,-19.428571428571427,38.47455730617558,31.208791208791208,90.0,89.53846153846153,0.0,-0.21978021978021978
10.42,1.0899,0.0,0.17582417582417584,-20.0,-19.428571428571427,39.24765308845714,32.879120879120876,90.0,89.53846153846153,0.0,-0.3076923076923077
10.44,1.0918,0.0,0.17582417582417584,-20.0,-19.428571428571427,39.755014223077744,34.54945054945055,90.0,89.53846153846153,0.0,-0.3076923076923077
10.46,1.0937000000000001,0.0,0.17582417582417584,-20.0,-19.428571428571427,39.98570458956157,35.86813186813187,90.0,89.53846153846153,0.0,-0.3076923076923077
10.48,1.0956000000000001,0.0,0.17582417582417584,-20.0,-19.428571428571427,39.93392523660051,37.010989010989015,90.0,89.53846153846153,0.0,-0.3076923076923077
10.5,1.0975000000000001,0.0,0.17582417582417584,-20.0,-19.428571428571427,39.59918737402113,37.89010989010989,90.0,89.53846153846153,0.0,-0.3076923076923077
10.52,1.0994,0.0,0.17582417582417584,-20.0,-19.428571428571427,38.98638637911981,38.505494505494504,90.0,89.53846153846153,0.0,-0.3076923076923077
10.54,1.1013,0.0,0.17582417582417584,-20.0,-19.428571428571427,38.10577349492742,38.857142857142854,90.0,89.53846153846153,0.0,-0.3076923076923077
10.56,1.1032000000000002,0.0,0.17582417582417584,-20.0,-19.428571428571427,36.97282381386856,38.857142857142854,90.0,89.45054945054945,0.0,-0.3076923076923077
10.58,1.1051000000000002,0.0,0.17582417582417584,-20.0,-19.428571428571427,35.60800113358924,38.857142857142854,90.0,89.45054945054945,0.0,-0.3076923076923077
10.6,1.107,0.0,0.17582417582417584,-20.0,-19.428571428571427,34.03642230517635,38.68131868131868,90.0,89.45054945054945,0.0,-0.3076923076923077
10.62,1.1089,0.0,0.17582417582417584,-20.0,-19.428571428571427,32.28742572831176,38.32967032967033,90.0,89.45054945054945,0.0,-0.3076923076923077
10.64,1.1108000000000002,0.0,0.17582417582417584,-20.0,-19.428571428571427,30.394050642492573,37.714285714285715,90.0,89.45054945054945,0.0,-0.3076923076923077
10.66,1.1127,0.0,0.17582417582417584,-20.0,-19.428571428571427,28.39243577722489,36.83516483516483,90.0,89.45054945054945,0.0,-0.3076923076923077
10.68,1.1146,0.0,0.17582417582417584,-20.0,-19.428571428571427,26.321147716232012,35.78021978021978,90.0,89.45054945054945,0.0,-0.3076923076923077
10.7,1.1165,0.0,0.17582417582417584,-20.0,-19.428571428571427,24.220450961580248,34.54945054945055,90.0,89.45054945054945,0.0,-0.3076923076923077
10.72,1.1184,0.0,0.17582417582417584,-20.0,-19.428571428571427,22.131533115502407,33.142857142857146,90.0,89.45054945054945,0.0,-0.3076923076923077
10.74,1.1203,0.0,0.17582417582417584,-20.0,-19.428571428571427,20.095699795827294,31.560439560439562,90.0,89.45054945054945,0.0,-0.3076923076923077
10.76,1.1222,0.0,0.17582417582417584,-20.0,-19.428571428571427,18.153554834095207,29.978021978021978,90.0,89.45054945054945,0.0,-0.3076923076923077
10.78,1.1241,0.0,0.17582417582417584,-20.0,-19.428571428571427,16.344181946982605,28.13186813186813,90.0,89.45054945054945,0.0,-0.3076923076923077
10.8,1.1260000000000001,0.0,0.17582417582417584,-20.0,-19.428571428571427,14.704344399972468,26.285714285714285,90.0,89.45054945054945,0.0,-0.3076923076923077
10.82,1.1279000000000001,0.0,0.17582417582417584,-20.0,-19.428571428571427,13.267719181551978,24.52747252747253,90.0,89.45054945054945,0.0,-0.3076923076923077
10.84,1.1298000000000001,0.0,0.17582417582417584,-20.0,-19.428571428571427,12.064181867104338,22.76923076923077,90.0,89.45054945054945,0.0,-0.3076923076923077
10.86,1.1317000000000002,0.0,0.17582417582417584,-20.0,-19.428571428571427,11.119157671404638,21.01098901098901,90.0,89.45054945054945,0.0,-0.3076923076923077
10.88,1.1336000000000002,0.0,0.17582417582417584,-20.0,-19.428571428571427,10.453053171527106,19.252747252747252,90.0,89.53846153846153,0.0,-0.3076923076923077
10.9,1.1355000000000002,0.0,0.17582417582417584,-20.0,-19.428571428571427,10.080781839559203,17.75824175824176,90.0,89.53846153846153,0.0,-0.3076923076923077
10.92,1.1374000000000002,0.0,0.17582417582417584,-20.0,-19.428571428571427,10.011394875509684,16.35164835164835,90.0,89.71428571428571,0.0,-0.3076923076923077
10.94,1.1393,0.0,0.17582417582417584,-20.0,-19.428571428571427,10.247826900975246,15.208791208791208,90.0,89.89010989010988,0.0,-0.3076923076923077
10.96,1.1412000000000002,0.0,0.17582417582417584,-20.0,-19.428571428571427,10.786763896033372,14.417582417582418,90.0,89.97802197802197,0.0,-0.3076923076923077
10.98,1.1431000000000002,0.0,0.17582417582417584,-20.0,-19.428571428571427,11.618638374296754,13.89010989010989,90.0,90.06593406593407,0.0,-0.3076923076923077
11.0,1.145,0.0,0.17582417582417584,-20.0,-19.428571428571427,12.727754238624643,13.626373626373626,90.0,90.15384615384616,0.0,-0.21978021978021978
11.02,1.1469,0.0,0.17582417582417584,-20.0,-19.428571428571427,14.092541092092707,13.538461538461538,90.0,90.15384615384616,0.0,-0.04395604395604396
11.04,1.1488,0.0,0.17582417582417584,-20.0,-19.428571428571427,15.685935048972098,13.626373626373626,90.0,90.15384615384616,0.0,0.04395604395604396
11.06,1.1507,0.0,0.17582417582417584,-20.0,-19.428571428571427,17.475880355167345,13.978021978021978,90.0,90.15384615384616,0.0,0.04395604395604396
11.08,1.1526,0.0,0.17582417582417584,-20.0,-19.428571428571427,19.425943445221385,14.505494505494505,90.0,90.15384615384616,0.0,0.04395604395604396
11.1,1.1545,0.0,0.17582417582417584,-20.0,-19.428571428571427,21.49602849272224,15.208791208791208,90.0,90.15384615384616,0.0,0.04395604395604396
11.12,1.1564,0.0,0.17582417582417584,-20.0,-19.428571428571427,23.643181111251977,16.35164835164835,90.0,90.15384615384616,0.0,0.04395604395604396
11.14,1.1583,0.0,0.17582417582417584,-20.0,-19.428571428571427,25.82246469058985,17.582417582417584,90.0,90.15384615384616,0.0,0.04395604395604396
11.16,1.1602000000000001,0.0,0.17582417582417584,-20.0,-19.428571428571427,27.987891961148563,18.98901098901099,90.0,90.15384615384616,0.0,0.04395604395604396
11.18,1.1621000000000001,0.0,0.17582417582417584,-20.0,-19.428571428571427,30.0933928176337,20.65934065934066,90.0,90.15384615384616,0.0,0.04395604395604396
11.2,1.164,0.0,0.17582417582417584,-20.0,-19.428571428571427,32.093798243923004,22.417582417582416,90.0,90.06593406593407,0.0,0.04395604395604396
11.22,1.1659000000000002,0.0,0.17582417582417584,-20.0,-19.428571428571427,33.945819401627546,24.263736263736263,90.0,89.97802197802197,0.0,0.04395604395604396
11.24,1.1678000000000002,0.0,0.17582417582417584,-20.0,-19.428571428571427,35.609000603226214,26.197802197802197,90.0,89.71428571428571,0.0,0.04395604395604396
11.26,1.1697000000000002,0.0,0.17582417582417584,-20.0,-19.428571428571427,37.046625006783174,28.13186813186813,90.0,89.53846153846153,0.0,0.04395604395604396
11.28,1.1716,0.0,0.17582417582417584,-20.0,-19.428571428571427,38.226552453190465,29.978021978021978,90.0,89.45054945054945,0.0,-0.13186813186813187
11.3,1.1735000000000002,0.0,0.17582417582417584,-20.0,-19.428571428571427,39.121969918697395,31.824175824175825,90.0,89.45054945054945,0.0,-0.3076923076923077
11.32,1.1754000000000002,0.0,0.17582417582417584,-20.0,-19.428571428571427,39.71203656474537,33.494505494505496,90.0,89.45054945054945,0.0,-0.21978021978021978
11.34,1.1773,0.0,0.17582417582417584,-20.0,-19.428571428571427,39.982407312847734,35.16483516483517,90.0,89.45054945054945,0.0,-0.21978021978021978
11.36,1.1792,0.0,0.17582417582417584,-20.0,-19.428571428571427,39.92562122295439,36.48351648351648,90.0,89.45054945054945,0.0,-0.3076923076923077
11.38,1.1811000000000003,0.0,0.17582417582417584,-20.0,-19.428571428571427,39.541343667878884,37.53846153846154,90.0,89.45054945054945,0.0,-0.3076923076923077
11.4,1.183,0.0,0.17582417582417584,-20.0,-19.428571428571427,38.83645432285401,38.24175824175824,90.0,89.45054945054945,0.0,-0.3076923076923077
11.42,1.1849,0.0,0.17582417582417584,-20.0,-19.428571428571427,37.82497626840659,38.505494505494504,90.0,89.45054945054945,0.0,-0.3076923076923077
11.44,1.1868,0.0,0.17582417582417584,-20.0,-19.428571428571427,36.52784496920022,38.505494505494504,90.0,89.45054945054945,0.0,-0.3076923076923077
11.46,1.1887,0.0,0.17582417582417584,-20.0,-19.428571428571427,34.972519467681494,38.505494505494504,90.0,89.45054945054945,0.0,-0.3076923076923077
11.48,1.1906,0.0,0.17582417582417584,-20.0,-19.428571428571427,33.19244174089262,38.32967032967033,90.0,89.45054945054945,0.0,-0.3076923076923077
11.5,1.1925000000000001,0.0,0.08791208791208792,-20.0,-19.428571428571427,31.226353730107427,37.97802197802198,90.0,89.45054945054945,0.0,-0.3076923076923077
11.52,1.1944000000000001,0.0,0.08791208791208792,-20.0,-19.428571428571427,29.117484983098773,37.27472527472528,90.0,89.45054945054945,0.0,-0.3076923076923077
11.54,1.1963,0.0,0.08791208791208792,-20.0,-19.428571428571427,26.912627065409804,36.395604395604394,90.0,89.45054945054945,0.0,-0.3076923076923077
11.56,1.1982000000000002,0.0,0.08791208791208792,-20.0,-19.428571428571427,24.66111382003684,35.16483516483517,90.0,89.45054945054945,0.0,-0.3076923076923077
11.58,1.2001000000000002,0.0,0.17582417582417584,-20.0,-19.428571428571427,22.41372910884909,33.75824175824176,90.0,89.45054945054945,0.0,-0.3076923076923077
11.6,1.202,0.0,0.17582417582417584,-20.0,-19.428571428571427,20.22156578463693,32.175824175824175,90.0,89.45054945054945,0.0,-0.3076923076923077
11.62,1.2039,0.0,0.17582417582417584,-20.0,-19.428571428571427,18.134861258809806,30.593406593406595,90.0,89.45054945054945,0.0,-0.3076923076923077
11.64,1.2058000000000002,0.0,0.17582417582417584,-20.0,-19.428571428571427,16.20183609525815,28.747252747252748,90.0,89.45054945054945,0.0,-0.3076923076923077
11.66,1.2077000000000002,0.0,0.08791208791208792,-20.0,-19.428571428571427,14.467562535932037,26.9010989010989,90.0,89.45054945054945,0.0,-0.3076923076923077
11.68,1.2096,0.0,0.08791208791208792,-20.0,-19.428571428571427,12.972889721263586,24.87912087912088,90.0,89.45054945054945,0.0,-0.3076923076923077
11.7,1.2115,0.0,0.08791208791208792,-20.0,-19.428571428571427,11.753451595384643,22.945054945054945,90.0,89.45054945054945,0.0,-0.3076923076923077
11.72,1.2134000000000003,0.0,0.08791208791208792,-20.0,-19.428571428571427,10.838782083517929,21.0989010989011,90.0,89.45054945054945,0.0,-0.3076923076923077
11.74,1.2153,0.0,0.08791208791208792,-20.0,-19.428571428571427,10.25156011330668,19.34065934065934,90.0,89.45054945054945,0.0,-0.3076923076923077
11.76,1.2172,0.0,0.17582417582417584,-20.0,-19.428571428571427,10.007004454681836,17.75824175824176,90.0,89.45054945054945,0.0,-0.3076923076923077
11.78,1.2191,0.0,0.17582417582417584,-20.0,-19.428571428571427,10.112435220523725,16.175824175824175,90.0,89.45054945054945,0.0,-0.3076923076923077
11.8,1.221,0.0,0.17582417582417584,-20.0,-19.428571428571427,10.567015263441442,15.12087912087912,90.0,89.53846153846153,0.0,-0.3076923076923077
11.82,1.2229,0.0,0.17582417582417584,-20.0,-19.428571428571427,11.361680696334105,14.417582417582418,90.0,89.53846153846153,0.0,-0.3076923076923077
11.84,1.2248,0.0,0.17582417582417584,-20.0,-19.428571428571427,12.479265441722527,13.978021978021978,90.0,89.62637362637362,0.0,-0.3076923076923077
11.86,1.2267000000000001,0.0,0.17582417582417584,-20.0,-19.428571428571427,13.894820173056296,13.89010989010989,90.0,89.89010989010988,0.0,-0.3076923076923077
11.88,1.2286000000000001,0.0,0.08791208791208792,-20.0,-19.428571428571427,15.576121354379001,13.89010989010989,90.0,90.06593406593407,0.0,-0.3076923076923077
11.9,1.2305000000000001,0.0,0.08791208791208792,-20.0,-19.428571428571427,17.48436142282752,14.153846153846153,90.0,90.15384615384616,0.0,0.04395604395604396
11.92,1.2324000000000002,0.0,0.08791208791208792,-20.0,-19.428571428571427,19.57500660477428,14.505494505494505,90.0,90.15384615384616,0.0,0.04395604395604396
11.94,1.2343,0.0,0.17582417582417584,-20.0,-19.428571428571427,21.798804524997543,15.296703296703297,90.0,90.15384615384616,0.0,-0.13186813186813187
11.96,1.2362000000000002,0.0,0.17582417582417584,-20.0,-19.428571428571427,24.102919770998845,16.35164835164835,90.0,90.06593406593407,0.0,-0.3076923076923077
11.98,1.2381000000000002,0.0,0.17582417582417584,-20.0,-19.428571428571427,26.432172018404046,17.67032967032967,90.0,90.06593406593407,0.0,-0.3076923076923077
12.0,1.2400000000000002,0.0,0.17582417582417584,-20.0,-19.428571428571427,28.730348307472877,19.164835164835164,90.0,90.15384615384616,0.0,-0.3076923076923077
12.02,1.2419,0.0,0.17582417582417584,-20.0,-19.428571428571427,30.941558673744492,20.923076923076923,90.0,90.15384615384616,0.0,-0.3076923076923077
12.04,1.2438,0.0,0.08791208791208792,-20.0,-19.428571428571427,33.01160265340588,22.76923076923077,90.0,90.06593406593407,0.0,-0.3076923076923077
12.06,1.2457000000000003,0.0,0.08791208791208792,-20.0,-19.428571428571427,34.889313266272346,24.615384615384617,90.0,89.89010989010988,0.0,-0.3076923076923077
12.08,1.2476,0.0,0.08791208791208792,-20.0,-19.428571428571427,36.527844969200075,26.63736263736264,90.0,89.62637362637362,0.0,-0.3076923076923077
12.1,1.2495,0.0,0.08791208791208792,-20.0,-19.428571428571427,37.885872794093764,28.571428571428573,90.0,89.45054945054945,0.0,-0.3076923076923077
12.12,1.2514,0.0,0.17582417582417584,-20.0,-19.428571428571427,38.92867144099526,30.593406593406595,90.0,89.45054945054945,0.0,-0.3076923076923077
12.14,1.2533,0.0,0.17582417582417584,-20.0,-19.428571428571427,39.62904547066148,32.527472527472526,90.0,89.45054945054945,0.0,-0.3076923076923077
12.16,1.2552,0.0,0.17582417582417584,-20.0,-19.428571428571427,39.96808489388571,34.285714285714285,90.0,89.45054945054945,0.0,-0.3076923076923077
12.18,1.2571,0.0,0.17582417582417584,-20.0,-19.428571428571427,39.93572432709637,35.78021978021978,90.0,89.45054945054945,0.0,-0.3076923076923077
12.2,1.2590000000000001,0.0,0.08791208791208792,-20.0,-19.428571428571427,39.531088395883195,37.010989010989015,90.0,89.45054945054945,0.0,-0.3076923076923077
12.22,1.2609000000000001,0.0,0.08791208791208792,-20.0,-19.428571428571427,38.762611121831824,37.89010989010989,90.0,89.45054945054945,0.0,-0.3076923076923077
12.24,1.2628000000000001,0.0,0.08791208791208792,-20.0,-19.428571428571427,37.64792250846675,38.32967032967033,90.0,89.45054945054945,0.0,-0.3076923076923077
12.26,1.2647000000000002,0.0,0.08791208791208792,-20.0,-19.428571428571427,36.21350132000061,38.32967032967033,90.0,89.45054945054945,0.0,-0.3076923076923077
12.28,1.2666,0.0,0.17582417582417584,-20.0,-19.428571428571427,34.49409898138449,38.32967032967033,90.0,89.45054945054945,0.0,-0.3076923076923077
12.3,1.2685000000000002,0.0,0.17582417582417584,-20.0,-19.428571428571427,32.531945471168044,38.15384615384615,90.0,89.45054945054945,0.0,-0.3076923076923077
12.32,1.2704000000000002,0.0,0.17582417582417584,-20.0,-19.428571428571427,30.375753876777637,37.8021978021978,90.0,89.45054945054945,0.0,-0.3076923076923077
12.34,1.2723,0.0,0.08791208791208792,-20.0,-19.428571428571427,28.079545781206562,37.010989010989015,90.0,89.45054945054945,0.0,-0.3076923076923077
12.36,1.2742,0.0,0.08791208791208792,-20.0,-19.428571428571427,25.701324700457583,35.956043956043956,90.0,89.45054945054945,0.0,-0.21978021978021978
12.38,1.2761000000000002,0.0,0.08791208791208792,-20.0,-19.428571428571427,23.30162924941458,34.72527472527472,90.0,89.45054945054945,0.0,-0.21978021978021978
12.4,1.2780000000000002,0.0,0.08791208791208792,-20.0,-19.428571428571427,20.94200144869207,33.23076923076923,90.0,89.45054945054945,0.0,-0.3076923076923077
12.42,1.2799,0.0,0.17582417582417584,-20.0,-19.428571428571427,18.683408480211234,31.47252747252747,90.0,89.45054945054945,0.0,-0.3076923076923077
12.44,1.2818,0.0,0.17582417582417584,-20.0,-19.428571428571427,16.584658157423377,29.714285714285715,90.0,89.45054945054945,0.0,-0.3076923076923077
12.46,1.2837000000000003,0.0,0.17582417582417584,-20.0,-19.428571428571427,14.700849321884558,27.86813186813187,90.0,89.45054945054945,0.0,-0.3076923076923077
12.48,1.2856,0.0,0.17582417582417584,-20.0,-19.428571428571427,13.0818982606348,25.75824175824176,90.0,89.45054945054945,0.0,-0.3076923076923077
12.5,1.2875,0.0,0.17582417582417584,-20.0,-19.428571428571427,11.771181034774665,23.736263736263737,90.0,89.45054945054945,0.0,-0.3076923076923077
12.52,1.2894,0.0,0.17582417582417584,-20.0,-19.428571428571427,10.804329323219338,21.802197802197803,90.0,89.45054945054945,0.0,-0.3076923076923077
12.54,1.2913000000000001,0.0,0.17582417582417584,-20.0,-19.428571428571427,10.20821405044623,19.86813186813187,90.0,89.45054945054945,0.0,-0.3076923076923077
12.56,1.2932000000000001,0.0,0.17582417582417584,-20.0,-19.428571428571427,10.000146745776373,18.10989010989011,90.0,89.45054945054945,0.0,-0.3076923076923077
12.58,1.2951000000000001,0.0,0.17582417582417584,-20.0,-19.428571428571427,10.187323365251366,16.615384615384617,90.0,89.45054945054945,0.0,-0.3076923076923077
12.6,1.2970000000000002,0.0,0.17582417582417584,-20.0,-19.428571428571427,10.766529313119584,15.384615384615385,90.0,89.45054945054945,0.0,-0.3076923076923077
12.62,1.2989,0.0,0.17582417582417584,-20.0,-19.428571428571427,11.724117770267684,14.593406593406593,90.0,89.45054945054945,0.0,-0.3076923076923077
12.64,1.3008000000000002,0.0,0.17582417582417584,-20.0,-19.428571428571427,13.03626633478546,14.153846153846153,90.0,89.53846153846153,0.0,-0.3076923076923077
12.66,1.3027000000000002,0.0,0.17582417582417584,-20.0,-19.428571428571427,14.669509585807324,14.065934065934066,90.0,89.62637362637362,0.0,-0.3076923076923077
12.68,1.3046,0.0,0.17582417582417584,-20.0,-19.428571428571427,16.581537689414596,14.065934065934066,90.0,90.06593406593407,0.0,-0.3076923076923077
12.7,1.3065,0.0,0.17582417582417584,-20.0,-19.428571428571427,18.72224377634727,14.417582417582418,90.0,90.15384615384616,0.0,-0.21978021978021978
12.72,1.3084000000000002,0.0,0.17582417582417584,-20.0,-19.428571428571427,21.034995740039573,15.032967032967033,90.0,90.15384615384616,0.0,0.13186813186813187
12.74,1.3103,0.0,0.17582417582417584,-20.0,-19.428571428571427,23.458101531688126,16.0,90.0,90.06593406593407,0.0,-0.04395604395604396
12.76,1.3122,0.0,0.17582417582417584,-20.0,-19.428571428571427,25.926431159916397,17.142857142857142,90.0,90.06593406593407,0.0,-0.3076923076923077
12.78,1.3141,0.0,0.17582417582417584,-20.0,-19.428571428571427,28.373153615228453,18.54945054945055,90.0,89.97802197802197,0.0,-0.3076923076923077
12.8,1.3160000000000003,0.0,0.17582417582417584,-20.0,-19.428571428571427,30.731542993512843,20.21978021978022,90.0,89.89010989010988,0.0,-0.3076923076923077
12.82,1.3179,0.0,0.17582417582417584,-20.0,-19.428571428571427,32.93680532341376,22.153846153846153,90.0,89.8021978021978,0.0,-0.3076923076923077
12.84,1.3198,0.0,0.17582417582417584,-20.0,-19.428571428571427,34.92787611547685,24.087912087912088,90.0,89.62637362637362,0.0,-0.3076923076923077
12.86,1.3217,0.0,0.17582417582417584,-20.0,-19.428571428571427,36.649138519617225,26.10989010989011,90.0,89.45054945054945,0.0,-0.3076923076923077
12.88,1.3236,0.0,0.17582417582417584,-20.0,-19.428571428571427,38.0520132387592,28.21978021978022,90.0,89.45054945054945,0.0,-0.3076923076923077
12.9,1.3255000000000001,0.0,0.17582417582417584,-20.0,-19.428571428571427,39.096373999319184,30.32967032967033,90.0,89.45054945054945,0.0,-0.3076923076923077
12.92,1.3274000000000001,0.0,0.17582417582417584,-20.0,-19.428571428571427,39.75174638323445,32.26373626373626,90.0,89.45054945054945,0.0,-0.3076923076923077
12.94,1.3293000000000001,0.0,0.17582417582417584,-20.0,-19.428571428571427,39.99825310178971,34.1978021978022,90.0,89.45054945054945,0.0,-0.3076923076923077
12.96,1.3312000000000002,0.0,0.17582417582417584,-20.0,-19.428571428571427,39.82727522066767,35.78021978021978,90.0,89.45054945054945,0.0,-0.3076923076923077
12.98,1.3331000000000002,0.0,0.17582417582417584,-20.0,-19.428571428571427,39.24180627452371,37.010989010989015,90.0,89.45054945054945,0.0,-0.3076923076923077
13.0,1.3350000000000002,0.0,0.17582417582417584,-20.0,-19.428571428571427,38.25648445133038,37.8021978021978,90.0,89.45054945054945,0.0,-0.3076923076923077
13.02,1.3369,0.0,0.17582417582417584,-20.0,-19.428571428571427,36.89729686679691,38.24175824175824,90.0,89.45054945054945,0.0,-0.3076923076923077
13.04,1.3388,0.0,0.17582417582417584,-20.0,-19.428571428571427,35.200959149384694,38.24175824175824,90.0,89.45054945054945,0.0,-0.3076923076923077
13.06,1.3407000000000002,0.0,0.17582417582417584,-20.0,-19.428571428571427,33.21398286203964,38.15384615384615,90.0,89.45054945054945,0.0,-0.3076923076923077
13.08,1.3426,0.0,0.17582417582417584,-20.0,-19.428571428571427,30.991452433009297,37.8021978021978,90.0,89.45054945054945,0.0,-0.3076923076923077
13.1,1.3445,0.0,0.08791208791208792,-20.0,-19.428571428571427,28.59554198771672,37.18681318681319,90.0,89.45054945054945,0.0,-0.3076923076923077
13.12,1.3464,0.0,0.08791208791208792,-20.0,-19.428571428571427,26.093810504458226,36.30769230769231,90.0,89.45054945054945,0.0,-0.3076923076923077
13.14,1.3483,0.0,0.08791208791208792,-20.0,-19.428571428571427,23.557320809425523,35.07692307692308,90.0,89.45054945054945,0.0,-0.3076923076923077
13.16,1.3502,0.0,0.08791208791208792,-20.0,-19.428571428571427,21.058633852630127,33.67032967032967,90.0,89.45054945054945,0.0,-0.3076923076923077
13.18,1.3521,0.0,0.17582417582417584,-20.0,-19.428571428571427,18.66973426498907,31.912087912087912,90.0,89.45054945054945,0.0,-0.3076923076923077
13.2,1.354,0.0,0.17582417582417584,-20.0,-19.428571428571427,16.459946222121168,30.065934065934066,90.0,89.45054945054945,0.0,-0.3076923076923077
13.22,1.3559,0.0,0.17582417582417584,-20.0,-19.428571428571427,14.493900006823086,28.043956043956044,90.0,89.45054945054945,0.0,-0.3076923076923077
13.24,1.3578000000000001,0.0,0.17582417582417584,-20.0,-19.428571428571427,12.829609289797862,26.021978021978022,90.0,89.45054945054945,0.0,-0.3076923076923077
13.26,1.3597000000000001,0.0,0.17582417582417584,-20.0,-19.428571428571427,11.516717006283473,24.0,90.0,89.45054945054945,0.0,-0.3076923076923077
13.28,1.3616000000000001,0.0,0.17582417582417584,-20.0,-19.428571428571427,10.59496381560866,21.802197802197803,90.0,89.45054945054945,0.0,-0.3076923076923077
