TigerWuu/newton/newton/examples/diffsim/gt/chirp_traj/20260616_133149/chirp_06_all_joints.csv
t,freq_hz,shoulder_pan_cmd,shoulder_pan_pos,shoulder_lift_cmd,shoulder_lift_pos,elbow_flex_cmd,elbow_flex_pos,wrist_flex_cmd,wrist_flex_pos,wrist_roll_cmd,wrist_roll_pos
0.0,0.1,0.0,0.08791208791208792,-20.0,-18.197802197802197,25.0,26.98901098901099,90.0,89.8021978021978,0.0,-0.3076923076923077
0.02,0.1019,0.00018773820511593507,0.08791208791208792,-19.999812261794883,-18.197802197802197,25.000187738205117,26.98901098901099,90.00018251179354,89.8021978021978,0.00018773820511593507,-0.3076923076923077
0.04,0.1038,0.0015144187569875855,0.08791208791208792,-19.998485581243013,-18.197802197802197,25.001514418756987,26.98901098901099,90.00147225911394,89.8021978021978,0.0015144187569875855,-0.3076923076923077
0.06,0.1057,0.005149603947560855,0.08791208791208792,-19.99485039605244,-18.197802197802197,25.00514960394756,26.98901098901099,90.00500624500982,89.8021978021978,0.005149603947560855,-0.3076923076923077
0.08,0.1076,0.012288359069694962,0.08791208791208792,-19.987711640930304,-18.197802197802197,25.012288359069696,26.98901098901099,90.01194626555713,89.8021978021978,0.012288359069694962,-0.3076923076923077
0.1,0.10950000000000001,0.0241421781736963,0.08791208791208792,-19.975857821826303,-18.197802197802197,25.024142178173697,26.98901098901099,90.02347008823186,89.8021978021978,0.0241421781736963,-0.3076923076923077
0.12,0.1114,0.04192953959927005,0.08791208791208792,-19.95807046040073,-18.197802197802197,25.04192953959927,26.98901098901099,90.04076227036501,89.8021978021978,0.04192953959927005,-0.3076923076923077
0.14,0.11330000000000001,0.0668661493885626,0.08791208791208792,-19.933133850611437,-18.197802197802197,25.066866149388563,26.98901098901099,90.06500467416748,89.8021978021978,0.0668661493885626,-0.3076923076923077
0.16,0.11520000000000001,0.10015493473813697,0.08791208791208792,-19.899845065261864,-18.197802197802197,25.100154934738136,26.98901098901099,90.09736673875275,89.8021978021978,0.10015493473813697,-0.3076923076923077
0.18,0.11710000000000001,0.14297585340761665,0.08791208791208792,-19.857024146592384,-18.197802197802197,25.142975853407616,26.98901098901099,90.1389955732395,89.8021978021978,0.14297585340761665,-0.3076923076923077
0.2,0.11900000000000001,0.19647558843092594,0.08791208791208792,-19.803524411569075,-18.197802197802197,25.196475588430925,26.98901098901099,90.19100593835006,89.8021978021978,0.19647558843092594,-0.3076923076923077
0.22,0.12090000000000001,0.26175720053364415,0.08791208791208792,-19.738242799466356,-18.197802197802197,25.261757200533644,26.98901098901099,90.25447018689242,89.8021978021978,0.26175720053364415,-0.3076923076923077
0.24,0.1228,0.3398698133088367,0.08791208791208792,-19.660130186691163,-18.197802197802197,25.339869813308837,26.98901098901099,90.33040823608852,89.8021978021978,0.3398698133088367,-0.3076923076923077
0.26,0.1247,0.43179840840688916,0.08791208791208792,-19.568201591593112,-18.197802197802197,25.431798408406888,26.98901098901099,90.41977764685417,89.8021978021978,0.43179840840688916,-0.21978021978021978
0.28,0.12660000000000002,0.5384538097169128,0.08791208791208792,-19.461546190283087,-18.197802197802197,25.538453809716913,26.98901098901099,90.52346388680904,89.8021978021978,0.5384538097169128,-0.21978021978021978
0.3,0.1285,0.6606629367246666,0.08791208791208792,-19.339337063275334,-18.197802197802197,25.660662936724666,26.98901098901099,90.6422708549697,89.89010989010988,0.6606629367246666,-0.04395604395604396
0.32,0.13040000000000002,0.7991594078933774,0.08791208791208792,-19.200840592106623,-18.197802197802197,25.799159407893377,26.98901098901099,90.77691174672125,89.97802197802197,0.7991594078933774,0.04395604395604396
0.34,0.1323,0.9545745750007076,0.08791208791208792,-19.04542542499929,-18.197802197802197,25.95457457500071,26.98901098901099,90.92800033774795,89.97802197802197,0.9545745750007076,0.21978021978021978
0.36,0.1342,1.1274290688518338,0.08791208791208792,-18.872570931148168,-18.197802197802197,26.127429068851832,26.98901098901099,91.09604276510358,90.06593406593407,1.1274290688518338,0.3076923076923077
0.38,0.1361,1.3181249356529463,0.08791208791208792,-18.681875064347054,-18.197802197802197,26.318124935652946,26.98901098901099,91.28142988249924,90.24175824175825,1.3181249356529463,0.3076923076923077
0.4,0.138,1.5269384415530898,0.26373626373626374,-18.47306155844691,-18.197802197802197,26.52693844155309,26.98901098901099,91.48443026515821,90.41758241758242,1.5269384415530898,0.4835164835164835
0.42,0.1399,1.7540136204308434,0.43956043956043955,-18.245986379569157,-18.197802197802197,26.754013620430843,26.98901098901099,91.7051839372247,90.50549450549451,1.7540136204308434,0.7472527472527473
0.44,0.1418,1.9993566369061795,0.7032967032967034,-18.000643363093822,-18.197802197802197,26.999356636906178,26.98901098901099,91.94369689170293,90.68131868131869,1.9993566369061795,0.9230769230769231
0.46,0.1437,2.262831032791905,0.967032967032967,-17.737168967208095,-18.197802197802197,27.262831032791905,26.98901098901099,92.19983646924166,90.94505494505495,2.262831032791905,1.010989010989011
0.48,0.1456,2.5441539207637387,1.2307692307692308,-17.45584607923626,-18.021978021978022,27.54415392076374,26.98901098901099,92.47332765776812,91.12087912087912,2.5441539207637387,1.1868131868131868
0.5,0.14750000000000002,2.842893183928759,1.4065934065934067,-17.15710681607124,-17.846153846153847,27.84289318392876,27.164835164835164,92.76375037001719,91.2967032967033,2.842893183928759,1.4505494505494505
0.52,0.1494,3.158465734220054,1.6703296703296704,-16.841534265779945,-17.582417582417584,28.158465734220055,27.516483516483518,93.07053775041027,91.56043956043956,3.158465734220054,1.8021978021978022
0.54,0.15130000000000002,3.490136876158147,1.934065934065934,-16.509863123841853,-17.318681318681318,28.490136876158147,27.78021978021978,93.39297555652884,91.73626373626374,3.490136876158147,1.978021978021978
0.56,0.1532,3.837020815520219,2.197802197802198,-16.16297918447978,-16.967032967032967,28.83702081552022,27.956043956043956,93.73020265362295,92.08791208791209,3.837020815520219,2.241758241758242
0.58,0.15510000000000002,4.198082344875936,2.4615384615384617,-15.801917655124065,-16.791208791208792,29.198082344875935,28.307692307692307,94.08121265322372,92.35164835164835,4.198082344875936,2.5934065934065935
0.6,0.157,4.572139729819439,2.8131868131868134,-15.427860270180561,-16.439560439560438,29.57213972981944,28.571428571428573,94.44485671902592,92.61538461538461,4.572139729819439,2.857142857142857
0.62,0.1589,4.957868811092667,3.076923076923077,-15.042131188907334,-16.175824175824175,29.957868811092666,28.923076923076923,94.81984755481317,92.96703296703296,4.957868811092667,3.208791208791209
0.64,0.1608,5.353808328704466,3.4285714285714284,-14.646191671295533,-15.824175824175825,30.353808328704467,29.274725274725274,95.20476458035958,93.23076923076923,5.353808328704466,3.5604395604395602
0.66,0.1627,5.758366464656588,3.78021978021978,-14.24163353534341,-15.472527472527473,30.75836646465659,29.626373626373628,95.59806029201413,93.58241758241758,5.758366464656588,3.8241758241758244
0.68,0.16460000000000002,6.169828591053365,4.131868131868132,-13.830171408946635,-15.12087912087912,31.169828591053367,29.978021978021978,95.99806779511195,93.93406593406593,6.169828591053365,4.263736263736264
0.7,0.16649999999999998,6.586366200262064,4.571428571428571,-13.413633799737937,-14.68131868131868,31.586366200262063,30.32967032967033,96.4030094855295,94.28571428571429,6.586366200262064,4.615384615384615
0.72,0.1684,7.006046983478548,4.923076923076923,-12.993953016521452,-14.32967032967033,32.00604698347855,30.681318681318682,96.81100684767475,94.63736263736264,7.006046983478548,4.967032967032967
0.74,0.1703,7.4268460136145595,5.362637362637362,-12.57315398638544,-13.89010989010989,32.42684601361456,31.12087912087912,97.22009132605606,94.98901098901099,7.4268460136145595,5.406593406593407
0.76,0.17220000000000002,7.846657977941664,5.714285714285714,-12.153342022058336,-13.538461538461538,32.84665797794166,31.47252747252747,97.62821621738358,95.34065934065934,7.846657977941664,5.758241758241758
0.78,0.1741,8.26331039548836,6.153846153846154,-11.73668960451164,-13.098901098901099,33.26331039548836,31.912087912087912,98.03326952000955,95.78021978021978,8.26331039548836,6.1098901098901095
0.8,0.17600000000000002,8.674577743882262,6.5054945054945055,-11.325422256117738,-12.747252747252746,33.67457774388226,32.26373626373626,98.4330876674958,96.13186813186813,8.674577743882262,6.549450549450549
0.82,0.1779,9.078196410251707,6.945054945054945,-10.921803589748293,-12.307692307692308,34.07819641025171,32.7032967032967,98.82547006329965,96.57142857142857,9.078196410251707,6.989010989010989
0.84,0.17980000000000002,9.471880371047133,7.384615384615385,-10.528119628952867,-11.868131868131869,34.471880371047135,33.05494505494506,99.20819432408757,96.92307692307692,9.471880371047133,7.34065934065934
0.86,0.1817,9.853337496309713,7.736263736263736,-10.146662503690287,-11.428571428571429,34.85333749630971,33.494505494505496,99.57903213011207,97.27472527472527,9.853337496309713,7.78021978021978
0.88,0.1836,10.22028636510272,8.175824175824175,-9.77971363489728,-11.076923076923077,35.22028636510272,33.934065934065934,99.9357655725211,97.71428571428571,10.22028636510272,8.219780219780219
0.9,0.1855,10.570473470628006,8.615384615384615,-9.429526529371994,-10.637362637362637,35.570473470628,34.285714285714285,100.2762038795043,98.06593406593407,10.570473470628006,8.659340659340659
0.92,0.1874,10.901690686075352,8.967032967032967,-9.098309313924648,-10.285714285714286,35.901690686075355,34.637362637362635,100.59820039591354,98.41758241758242,10.901690686075352,9.010989010989011
0.94,0.1893,11.211792855591971,9.31868131868132,-8.788207144408029,-9.846153846153847,36.21179285559197,34.989010989010985,100.89966968452055,98.76923076923077,11.211792855591971,9.362637362637363
0.96,0.1912,11.498715369007849,9.67032967032967,-8.501284630992151,-9.494505494505495,36.49871536900785,35.34065934065934,101.17860461148236,99.12087912087912,11.498715369007849,9.626373626373626
0.98,0.1931,11.760491574199516,10.021978021978022,-8.239508425800484,-9.142857142857142,36.76049157419952,35.69230769230769,101.43309327396538,99.47252747252747,11.760491574199516,10.065934065934066
1.0,0.195,11.99526987730636,10.373626373626374,-8.00473012269364,-8.87912087912088,36.995269877306356,35.956043956043956,101.66133562431175,99.82417582417582,11.99526987730636,10.417582417582418
1.02,0.19690000000000002,12.213380536812787,10.725274725274724,-7.786619463187213,-8.527472527472527,37.213380536812785,36.30769230769231,101.87337433871836,100.08791208791209,12.213380536812787,10.68131868131868
1.04,0.1988,12.426092615694227,10.901098901098901,-7.573907384305773,-8.175824175824175,37.42609261569423,36.57142857142857,102.08016476265658,100.35164835164835,12.426092615694227,10.945054945054945
1.06,0.20070000000000002,12.633055251395048,11.252747252747254,-7.366944748604952,-8.0,37.63305525139505,36.83516483516483,102.28136580117305,100.61538461538461,12.633055251395048,11.208791208791208
1.08,0.2026,12.83391278882974,11.516483516483516,-7.166087211170259,-7.736263736263736,37.83391278882974,37.0989010989011,102.47663170020297,100.79120879120879,12.83391278882974,11.472527472527473
1.1,0.20450000000000002,13.028305158848315,11.780219780219781,-6.971694841151685,-7.56043956043956,38.02830515884831,37.362637362637365,102.66561241449942,101.05494505494505,13.028305158848315,11.736263736263735
1.12,0.20640000000000003,13.215868284122452,11.956043956043956,-6.784131715877548,-7.2967032967032965,38.21586828412245,37.53846153846154,102.84795400222013,101.31868131868131,13.215868284122452,12.0
1.14,0.20829999999999999,13.39623451296427,12.219780219780219,-6.60376548703573,-7.032967032967033,38.39623451296427,37.8021978021978,103.0232990466693,101.49450549450549,13.39623451296427,12.263736263736265
1.16,0.2102,13.569033081546122,12.395604395604396,-6.430966918453878,-6.945054945054945,38.569033081546124,37.97802197802198,103.1912871056496,101.75824175824175,13.569033081546122,12.43956043956044
1.18,0.2121,13.733890604942543,12.659340659340659,-6.266109395057457,-6.769230769230769,38.733890604942545,38.15384615384615,103.35155518883425,101.93406593406593,13.733890604942543,12.615384615384615
1.2,0.214,13.890431597363852,12.835164835164836,-6.109568402636148,-6.5054945054945055,38.89043159736385,38.32967032967033,103.50373826351782,102.10989010989012,13.890431597363852,12.791208791208792
1.22,0.2159,14.038279021895072,13.010989010989011,-5.961720978104928,-6.417582417582418,39.03827902189507,38.505494505494504,103.6474697890511,102.28571428571429,14.038279021895072,13.054945054945055
1.24,0.2178,14.177054869993466,13.186813186813186,-5.822945130006534,-6.241758241758242,39.17705486999347,38.76923076923077,103.7823822802061,102.46153846153847,14.177054869993466,13.142857142857142
1.26,0.2197,14.306380770933343,13.362637362637363,-5.693619229066657,-5.978021978021978,39.306380770933345,38.94505494505494,103.90810789965461,102.63736263736264,14.306380770933343,13.406593406593407
1.28,0.22160000000000002,14.42587863131726,13.538461538461538,-5.574121368682739,-5.8901098901098905,39.42587863131726,39.032967032967036,104.02427907967619,102.81318681318682,14.42587863131726,13.494505494505495
1.3,0.22350000000000003,14.535171304698885,13.714285714285714,-5.464828695301115,-5.802197802197802,39.535171304698885,39.120879120879124,104.1305291731395,102.9010989010989,14.535171304698885,13.67032967032967
1.32,0.22540000000000002,14.633883291283947,13.802197802197803,-5.366116708716053,-5.626373626373627,39.63388329128395,39.2967032967033,104.22649313372439,103.07692307692308,14.633883291283947,13.846153846153847
1.34,0.2273,14.721641467592216,13.978021978021978,-5.278358532407784,-5.538461538461538,39.721641467592214,39.38461538461539,104.31180822527097,103.16483516483517,14.721641467592216,13.934065934065934
1.36,0.22920000000000001,14.798075845875182,14.065934065934066,-5.201924154124818,-5.450549450549451,39.79807584587518,39.472527472527474,104.38611476005595,103.34065934065934,14.798075845875182,14.10989010989011
1.38,0.2311,14.862820362990888,14.153846153846153,-5.137179637009112,-5.450549450549451,39.86282036299089,39.56043956043956,104.44905686570615,103.42857142857143,14.862820362990888,14.197802197802197
1.4,0.23299999999999998,14.915513698339517,14.241758241758241,-5.084486301660483,-5.362637362637362,39.91551369833952,39.64835164835165,104.50028328036376,103.42857142857143,14.915513698339517,14.285714285714286
1.42,0.2349,14.955800120360426,14.417582417582418,-5.044199879639574,-5.186813186813187,39.95580012036042,39.73626373626374,104.53944817561779,103.42857142857143,14.955800120360426,14.373626373626374
1.44,0.2368,14.983330360983862,14.505494505494505,-5.016669639016138,-5.010989010989011,39.983330360983864,39.91208791208791,104.56621200661215,103.6043956043956,14.983330360983862,14.373626373626374
1.46,0.2387,14.997762517318229,14.505494505494505,-5.002237482681771,-5.010989010989011,39.99776251731823,40.0,104.58024238863098,103.6923076923077,14.997762517318229,14.461538461538462
1.48,0.2406,14.998762979736817,14.593406593406593,-5.001237020263183,-4.923076923076923,39.99876297973682,40.0,104.58121499934853,103.78021978021978,14.998762979736817,14.54945054945055
1.5,0.24250000000000002,14.986007385406424,14.593406593406593,-5.013992614593576,-4.923076923076923,39.986007385406424,40.0,104.56881450581268,103.78021978021978,14.986007385406424,14.637362637362637
1.52,0.2444,14.95918159617427,14.593406593406593,-5.04081840382573,-4.923076923076923,39.95918159617427,40.0,104.5427355151086,103.78021978021978,14.95918159617427,14.725274725274724
1.54,0.24630000000000002,14.917982699599351,14.593406593406593,-5.082017300400649,-4.923076923076923,39.91798269959935,40.0,104.5026835475226,103.78021978021978,14.917982699599351,14.725274725274724
1.56,0.2482,14.862120031779988,14.593406593406593,-5.1378799682200125,-4.923076923076923,39.86212003177999,40.0,104.44837603089526,103.78021978021978,14.862120031779988,14.725274725274724
1.58,0.2501,14.791316220490915,14.593406593406593,-5.2086837795090855,-4.923076923076923,39.79131622049091,40.0,104.379543314719,103.78021978021978,14.791316220490915,14.725274725274724
1.6,0.252,14.705308247001293,14.593406593406593,-5.294691752998707,-4.923076923076923,39.70530824700129,40.0,104.29592970239612,103.78021978021978,14.705308247001293,14.725274725274724
1.62,0.2539,14.60384852479943,14.593406593406593,-5.39615147520057,-4.923076923076923,39.60384852479943,40.0,104.19729449993321,103.78021978021978,14.60384852479943,14.725274725274724
1.64,0.2558,14.486705993301307,14.505494505494505,-5.513294006698693,-4.923076923076923,39.48670599330131,40.0,104.08341307920207,103.78021978021978,14.486705993301307,14.725274725274724
1.66,0.25770000000000004,14.353667224468603,14.505494505494505,-5.646332775531397,-4.923076923076923,39.3536672244686,40.0,103.95407795375078,103.78021978021978,14.353667224468603,14.725274725274724
1.68,0.2596,14.204537540107692,14.505494505494505,-5.795462459892308,-4.923076923076923,39.204537540107694,40.0,103.80909986499846,103.78021978021978,14.204537540107692,14.725274725274724
1.7,0.2615,14.039142137465085,14.505494505494505,-5.960857862534915,-4.923076923076923,39.039142137465085,40.0,103.64830887649535,103.78021978021978,14.039142137465085,14.725274725274724
1.72,0.26339999999999997,13.857327220576884,14.505494505494505,-6.1426727794231155,-4.923076923076923,38.857327220576884,40.0,103.47155547377693,103.6923076923077,13.857327220576884,14.725274725274724
1.74,0.2653,13.658961134670731,14.505494505494505,-6.341038865329269,-4.923076923076923,38.65896113467073,40.0,103.27871166718539,103.6923076923077,13.658961134670731,14.637362637362637
1.76,0.2672,13.443935500758927,14.505494505494505,-6.556064499241073,-4.923076923076923,38.443935500758926,40.0,103.06967209487699,103.6923076923077,13.443935500758927,14.373626373626374
1.78,0.2691,13.212166347401327,14.417582417582418,-6.787833652598673,-4.923076923076923,38.21216634740133,39.91208791208791,102.84435512307806,103.6923076923077,13.212166347401327,14.197802197802197
1.8,0.271,12.963595236456904,14.241758241758241,-7.036404763543096,-5.010989010989011,37.963595236456904,39.91208791208791,102.60270394049692,103.51648351648352,12.963595236456904,14.021978021978022
1.82,0.27290000000000003,12.69819037948412,13.978021978021978,-7.301809620515879,-5.0989010989010985,37.69819037948412,39.91208791208791,102.344687643645,103.25274725274726,12.69819037948412,13.758241758241759
1.84,0.27480000000000004,12.415947741293042,13.802197802197803,-7.584052258706958,-5.186813186813187,37.41594774129304,39.73626373626374,102.0703023096673,103.07692307692308,12.415947741293042,13.582417582417582
1.86,0.27670000000000006,12.11689212699723,13.45054945054945,-7.8831078730027695,-5.362637362637362,37.11689212699723,39.56043956043956,101.7795720531321,102.81318681318682,12.11689212699723,13.31868131868132
1.88,0.27859999999999996,11.801078248761543,13.274725274725276,-8.198921751238457,-5.626373626373627,36.80107824876154,39.20879120879121,101.47255006308173,102.63736263736264,11.801078248761543,13.054945054945055
1.9,0.28049999999999997,11.46859176829355,12.923076923076923,-8.53140823170645,-5.802197802197802,36.46859176829355,39.032967032967036,101.14931961650223,102.37362637362638,11.46859176829355,12.791208791208792
1.92,0.2824,11.119550310983007,12.659340659340659,-8.880449689016993,-5.978021978021978,36.11955031098301,38.76923076923077,100.80999506423036,102.10989010989012,11.119550310983007,12.527472527472527
1.94,0.2843,10.75410444745483,12.307692307692308,-9.24589555254517,-6.241758241758242,35.75410444745483,38.417582417582416,100.45472278518136,101.84615384615384,10.75410444745483,12.175824175824175
1.96,0.2862,10.372438638169442,12.043956043956044,-9.627561361830558,-6.5054945054945055,35.37243863816944,38.15384615384615,100.08368210465264,101.49450549450549,10.372438638169442,11.912087912087912
1.98,0.2881,9.974772136578933,11.692307692307692,-10.025227863421067,-6.769230769230769,34.974772136578935,37.8021978021978,99.69708617233717,101.23076923076923,9.974772136578933,11.56043956043956
2.0,0.29000000000000004,9.561359846230348,11.340659340659341,-10.438640153769652,-7.1208791208791204,34.561359846230346,37.53846153846154,99.29518279556606,100.87912087912088,9.561359846230348,11.208791208791208
2.02,0.29190000000000005,9.132493127099597,10.989010989010989,-10.867506872900403,-7.472527472527473,34.13249312709959,37.0989010989011,98.87825522319498,100.52747252747253,9.132493127099597,10.857142857142858
2.04,0.2938,8.688500546340899,10.637362637362637,-11.311499453659101,-7.736263736263736,33.6885005463409,36.747252747252745,98.44662287545376,100.17582417582418,8.688500546340899,10.505494505494505
2.06,0.2957,8.22974856854967,10.197802197802197,-11.77025143145033,-8.087912087912088,33.22974856854967,36.395604395604394,98.00064201499298,99.82417582417582,8.22974856854967,10.153846153846153
2.08,0.2976,7.756642180561411,9.758241758241759,-12.24335781943859,-8.527472527472527,32.756642180561414,36.043956043956044,97.54070635428937,99.47252747252747,7.756642180561411,9.714285714285714
2.1,0.2995,7.269625445746859,9.406593406593407,-12.73037455425314,-8.87912087912088,32.26962544574686,35.69230769230769,97.06724759450995,99.03296703296704,7.269625445746859,9.362637362637363
2.12,0.3014,6.769181982715471,8.967032967032967,-13.230818017284529,-9.31868131868132,31.769181982715473,35.252747252747255,96.58073589088896,98.68131868131869,6.769181982715471,8.923076923076923
2.14,0.3033,6.255835363306304,8.527472527472527,-13.744164636693696,-9.758241758241759,31.255835363306304,34.81318681318681,96.08168023963917,98.24175824175825,6.255835363306304,8.483516483516484
2.16,0.3052,5.730149424728486,8.087912087912088,-14.269850575271514,-10.197802197802197,30.730149424728488,34.37362637362637,95.5706287814027,97.8021978021978,5.730149424728486,8.043956043956044
2.18,0.30710000000000004,5.192728490714232,7.648351648351649,-14.80727150928577,-10.725274725274724,30.19272849071423,34.02197802197802,95.04816901624746,97.27472527472527,5.192728490714232,7.516483516483516
2.2,0.30900000000000005,4.644217496566043,7.1208791208791204,-15.355782503433957,-11.164835164835164,29.644217496566043,33.494505494505496,94.51492792523307,96.83516483516483,4.644217496566043,7.076923076923077
2.22,0.31090000000000007,4.085302013018372,6.681318681318682,-15.91469798698163,-11.780219780219781,29.08530201301837,33.05494505494506,93.97157199360834,96.3956043956044,4.085302013018372,6.549450549450549
2.24,0.3128,3.5167081638932385,6.065934065934066,-16.483291836106762,-12.307692307692308,28.516708163893238,32.527472527472526,93.41880713075922,95.86813186813187,3.5167081638932385,6.021978021978022
2.26,0.3147,2.9392024326097523,5.538461538461538,-17.060797567390246,-12.835164835164836,27.939202432609754,32.08791208791209,92.85737848210486,95.34065934065934,2.9392024326097523,5.4945054945054945
2.28,0.3166,2.3535913527110512,5.010989010989011,-17.64640864728895,-13.362637362637363,27.35359135271105,31.560439560439562,92.28807012823998,94.9010989010989,2.3535913527110512,4.967032967032967
2.3,0.3185,1.7607210776996411,4.483516483516484,-18.239278922300358,-13.89010989010989,26.760721077699642,31.032967032967033,91.71170466674536,94.37362637362638,1.7607210776996411,4.527472527472527
2.32,0.3204,1.1614768256231491,3.956043956043956,-18.83852317437685,-14.417582417582418,26.16147682562315,30.505494505494507,91.12914267223584,93.84615384615384,1.1614768256231491,3.912087912087912
2.34,0.32230000000000003,0.5567821940308902,3.4285714285714284,-19.44321780596911,-14.945054945054945,25.55678219403089,29.978021978021978,90.54128203038753,93.23076923076923,0.5567821940308902,3.208791208791209
2.36,0.3242,-0.05240165887500486,2.901098901098901,-20.052401658875006,-15.56043956043956,24.947598341124994,29.36263736263736,89.94905714188488,92.7032967032967,-0.05240165887500486,2.769230769230769
2.38,0.3261,-0.6650769708385956,2.197802197802198,-20.665076970838594,-16.175824175824175,24.334923029161406,28.747252747252748,89.35343799245214,92.17582417582418,-0.6650769708385956,2.1538461538461537
2.4,0.32799999999999996,-1.2802104735846986,1.6703296703296704,-21.2802104735847,-16.703296703296704,23.7197895264153,28.21978021978022,88.7554290853869,91.56043956043956,-1.2802104735846986,1.5384615384615385
2.42,0.32989999999999997,-1.896734635685736,1.054945054945055,-21.896734635685736,-17.23076923076923,23.103265364314264,27.604395604395606,88.15606823329306,90.94505494505495,-1.896734635685736,0.9230769230769231
2.44,0.3318,-2.5135490533407223,0.43956043956043955,-22.51354905334072,-17.846153846153847,22.48645094665928,27.076923076923077,87.55642520601968,90.41758241758242,-2.5135490533407223,0.3076923076923077
2.46,0.3337,-3.1295219917976893,-0.17582417582417584,-23.129521991797688,-18.54945054945055,21.870478008202312,26.46153846153846,86.95760023214979,89.89010989010988,-3.1295219917976893,-0.21978021978021978
2.48,0.3356,-3.743492079773668,-0.7912087912087912,-23.743492079773667,-19.076923076923077,21.256507920226333,25.846153846153847,86.36072235175116,89.45054945054945,-3.743492079773668,-0.7472527472527473
2.5,0.3375,-4.354270158816932,-1.4065934065934067,-24.35427015881693,-19.692307692307693,20.64572984118307,25.23076923076923,85.76694761849812,89.0989010989011,-4.354270158816932,-1.1868131868131868
2.52,0.33940000000000003,-4.960641289117049,-2.021978021978022,-24.96064128911705,-20.307692307692307,20.03935871088295,24.703296703296704,85.17745714970086,88.57142857142857,-4.960641289117049,-1.8021978021978022
2.54,0.34130000000000005,-5.561366912797419,-2.6373626373626373,-25.561366912797418,-21.01098901098901,19.438633087202582,24.175824175824175,84.5934550232365,87.86813186813187,-5.561366912797419,-2.4175824175824174
2.56,0.3432,-6.155187175223486,-3.2527472527472527,-26.155187175223485,-21.53846153846154,18.844812824776515,23.560439560439562,84.01616602086332,87.25274725274726,-6.155187175223486,-3.120879120879121
2.58,0.3451,-6.740823404327329,-3.78021978021978,-26.74082340432733,-22.153846153846153,18.25917659567267,23.032967032967033,83.44683321791769,86.63736263736264,-6.740823404327329,-3.7362637362637363
2.6,0.34700000000000003,-7.3169807473867685,-4.395604395604396,-27.31698074738677,-22.76923076923077,17.68301925261323,22.417582417582416,82.88671541993975,86.02197802197803,-7.3169807473867685,-4.351648351648351
2.62,0.3489,-7.882350964104297,-5.010989010989011,-27.882350964104297,-23.384615384615383,17.117649035895703,21.89010989010989,82.33708444735062,85.4065934065934,-7.882350964104297,-4.967032967032967
2.64,0.3508,-8.435615374209467,-5.626373626373627,-28.43561537420947,-23.912087912087912,16.56438462579053,21.274725274725274,81.79922226990772,84.79120879120879,-8.435615374209467,-5.582417582417582
2.66,0.3527,-8.975447957157858,-6.241758241758242,-28.975447957157858,-24.52747252747253,16.024552042842142,20.65934065934066,81.27441799329782,84.17582417582418,-8.975447957157858,-6.1098901098901095
2.68,0.3546,-9.500518600822236,-6.769230769230769,-29.500518600822236,-25.142857142857142,15.499481399177764,20.13186813186813,80.76396470088564,83.64835164835165,-9.500518600822236,-6.813186813186813
2.7,0.35650000000000004,-10.009496495368143,-7.2967032967032965,-30.009496495368143,-25.67032967032967,14.990503504631857,19.516483516483518,80.26915615431976,83.12087912087912,-10.009496495368143,-7.428571428571429
2.72,0.35840000000000005,-10.501053667777052,-7.912087912087912,-30.50105366777705,-26.285714285714285,14.498946332222948,18.98901098901099,79.79128335740648,82.50549450549451,-10.501053667777052,-7.956043956043956
2.74,0.36030000000000006,-10.973868651729735,-8.43956043956044,-30.973868651729735,-26.813186813186814,14.026131348270265,18.54945054945055,79.33163098839168,82.06593406593407,-10.973868651729735,-8.483516483516484
2.76,0.36219999999999997,-11.426630286789138,-8.967032967032967,-31.426630286789138,-27.34065934065934,13.573369713210862,17.934065934065934,78.89147370654273,81.53846153846153,-11.426630286789138,-9.010989010989011
2.78,0.3641,-11.85804164003092,-9.494505494505495,-31.85804164003092,-27.86813186813187,13.14195835996908,17.494505494505493,78.47207233969155,81.0989010989011,-11.85804164003092,-9.538461538461538
2.8,0.366,-12.266824042460996,-9.934065934065934,-32.266824042460996,-28.395604395604394,12.733175957539004,17.054945054945055,78.07466996018627,80.57142857142857,-12.266824042460996,-9.978021978021978
2.82,0.3679,-12.651721231737094,-10.461538461538462,-32.65172123173709,-28.923076923076923,12.348278768262906,16.52747252747253,77.70048785749808,80.13186813186813,-12.651721231737094,-10.505494505494505
2.84,0.3698,-13.011503591876599,-10.901098901098901,-33.0115035918766,-29.36263736263736,11.988496408123401,16.087912087912088,77.35072141654194,79.6923076923077,-13.011503591876599,-10.945054945054945
2.86,0.37170000000000003,-13.344972479790695,-11.340659340659341,-33.3449724797907,-29.802197802197803,11.655027520209305,15.648351648351648,77.0265359115881,79.25274725274726,-13.344972479790695,-11.384615384615385
2.88,0.37360000000000004,-13.650964627636345,-11.780219780219781,-33.65096462763634,-30.32967032967033,11.349035372363655,15.208791208791208,76.72906222646635,78.81318681318682,-13.650964627636345,-11.824175824175825
2.9,0.37549999999999994,-13.928356609128171,-12.219780219780219,-33.92835660912817,-30.681318681318682,11.071643390871829,14.857142857142858,76.45939251259115,78.46153846153847,-13.928356609128171,-12.175824175824175
2.92,0.37739999999999996,-14.176069357103804,-12.571428571428571,-34.176069357103806,-31.12087912087912,10.823930642896196,14.417582417582418,76.2185757971599,78.10989010989012,-14.176069357103804,-12.615384615384615
2.94,0.37929999999999997,-14.393072718794492,-12.923076923076923,-34.39307271879449,-31.47252747252747,10.606927281205508,14.153846153846153,76.00761355469577,77.84615384615384,-14.393072718794492,-12.87912087912088
2.96,0.3812,-14.578390034420034,-13.186813186813186,-34.57839003442003,-31.736263736263737,10.421609965579966,13.802197802197803,75.82745525591548,77.49450549450549,-14.578390034420034,-13.23076923076923
2.98,0.3831,-14.731102723909325,-13.538461538461538,-34.73110272390932,-32.08791208791209,10.268897276090675,13.538461538461538,75.67899390869768,77.23076923076923,-14.731102723909325,-13.494505494505495
3.0,0.385,-14.850354865748363,-13.802197802197803,-34.850354865748365,-32.35164835164835,10.149645134251637,13.274725274725276,75.56306160670471,76.96703296703296,-14.850354865748363,-13.846153846153847
3.02,0.3869,-14.935357751182158,-13.978021978021978,-34.93535775118216,-32.61538461538461,10.064642248817842,13.010989010989011,75.48042510196431,76.7032967032967,-14.935357751182158,-14.10989010989011
3.04,0.38880000000000003,-14.985394396249815,-14.153846153846153,-34.985394396249816,-32.79120879120879,10.014605603750185,12.835164835164836,75.43178141844433,76.61538461538461,-14.985394396249815,-14.285714285714286
3.06,0.39070000000000005,-14.99982399341891,-14.32967032967033,-34.999823993418914,-32.967032967032964,10.00017600658109,12.659340659340659,75.41775352434661,76.43956043956044,-14.99982399341891,-14.373626373626374
3.08,0.39260000000000006,-14.978086283910857,-14.505494505494505,-34.978086283910855,-33.142857142857146,10.021913716089143,12.483516483516484,75.43888608150205,76.26373626373626,-14.978086283910857,-14.54945054945055
3.1,0.3945000000000001,-14.9197058311792,-14.505494505494505,-34.9197058311792,-33.23076923076923,10.0802941688208,12.395604395604396,75.49564129086096,76.17582417582418,-14.9197058311792,-14.637362637362637
3.12,0.3964,-14.82429617542297,-14.593406593406593,-34.82429617542297,-33.31868131868132,10.17570382457703,12.307692307692308,75.58839485363643,76.17582417582418,-14.82429617542297,-14.637362637362637
3.14,0.3983,-14.691563848493038,-14.593406593406593,-34.69156384849304,-33.31868131868132,10.308436151506962,12.307692307692308,75.7174320681683,76.17582417582418,-14.691563848493038,-14.725274725274724
3.16,0.4002,-14.521312228086792,-14.593406593406593,-34.52131222808679,-33.31868131868132,10.478687771913208,12.307692307692308,75.88294408302478,76.17582417582418,-14.521312228086792,-14.725274725274724
3.18,0.4021,-14.313445209731,-14.593406593406593,-34.313445209731,-33.31868131868132,10.686554790269,12.307692307692308,76.0850243272432,76.17582417582418,-14.313445209731,-14.725274725274724
3.2,0.404,-14.067970674730326,-14.593406593406593,-34.067970674730326,-33.31868131868132,10.932029325269674,12.307692307692308,76.32366513892518,76.17582417582418,-14.067970674730326,-14.725274725274724
3.22,0.40590000000000004,-13.785003732015566,-14.593406593406593,-33.78500373201557,-33.31868131868132,11.214996267984434,12.307692307692308,76.59875461363762,76.17582417582418,-13.785003732015566,-14.725274725274724
3.24,0.40780000000000005,-13.464769711666877,-14.593406593406593,-33.464769711666875,-33.31868131868132,11.535230288333123,12.307692307692308,76.91007369422569,76.17582417582418,-13.464769711666877,-14.54945054945055
3.26,0.40969999999999995,-13.10760688781911,-14.593406593406593,-33.10760688781911,-33.31868131868132,11.89239311218089,12.307692307692308,77.25729352370993,76.17582417582418,-13.10760688781911,-14.373626373626374
3.28,0.41159999999999997,-12.713968908683796,-14.505494505494505,-32.713968908683796,-33.23076923076923,12.286031091316204,12.307692307692308,77.63997308291326,76.35164835164835,-12.713968908683796,-14.197802197802197
3.3,0.4135,-12.284426911552199,-14.417582417582418,-32.2844269115522,-33.142857142857146,12.715573088447801,12.307692307692308,78.05755713433717,76.61538461538461,-12.284426911552199,-13.846153846153847
3.32,0.4154,-11.819671300879397,-13.978021978021978,-31.8196713008794,-32.967032967032964,13.180328699120603,12.483516483516484,78.50937449357733,76.96703296703296,-11.819671300879397,-13.582417582417582
3.34,0.4173,-11.320513167898035,-13.626373626373626,-31.320513167898035,-32.7032967032967,13.679486832101965,12.659340659340659,78.99463664923027,77.23076923076923,-11.320513167898035,-13.31868131868132
3.36,0.4192,-10.78788533067508,-13.186813186813186,-30.78788533067508,-32.35164835164835,14.21211466932492,13.010989010989011,79.5124367517906,77.49450549450549,-10.78788533067508,-12.967032967032967
3.38,0.42110000000000003,-10.222842974110943,-12.659340659340659,-30.222842974110943,-31.912087912087912,14.777157025889057,13.362637362637363,80.0617489914687,77.93406593406593,-10.222842974110943,-12.527472527472527
3.4,0.42300000000000004,-9.626563870092609,-12.131868131868131,-29.62656387009261,-31.560439560439562,15.373436129907391,13.802197802197803,80.64142838416639,78.37362637362638,-9.626563870092609,-12.087912087912088
3.42,0.42490000000000006,-9.00034815885218,-11.604395604395604,-29.00034815885218,-31.032967032967033,15.99965184114782,14.241758241758241,81.25021098403163,78.72527472527473,-9.00034815885218,-11.648351648351648
3.44,0.42679999999999996,-8.345617673557184,-11.076923076923077,-28.345617673557186,-30.593406593406595,16.654382326442814,14.68131868131868,81.88671454006565,79.16483516483517,-8.345617673557184,-11.12087912087912
3.46,0.42869999999999997,-7.663914791266043,-10.54945054945055,-27.663914791266045,-29.978021978021978,17.336085208733955,15.208791208791208,82.54943961317946,79.6923076923077,-7.663914791266043,-10.593406593406593
3.48,0.4306,-6.956900794630051,-10.021978021978022,-26.95690079463005,-29.45054945054945,18.04309920536995,15.736263736263735,83.23677116888346,80.21978021978022,-6.956900794630051,-9.978021978021978
3.5,0.4325,-6.226353730107466,-9.582417582417582,-26.226353730107466,-28.835164835164836,18.773646269892534,16.35164835164835,83.94698065944864,80.83516483516483,-6.226353730107466,-9.45054945054945
3.52,0.4344,-5.474165749982524,-9.054945054945055,-25.474165749982525,-28.13186813186813,19.525834250017475,16.967032967032967,84.67822860789245,81.45054945054945,-5.474165749982524,-8.835164835164836
3.54,0.4363,-4.702339927147839,-8.351648351648352,-24.70233992714784,-27.516483516483518,20.29766007285216,17.67032967032967,85.42856770452367,82.06593406593407,-4.702339927147839,-8.131868131868131
3.56,0.43820000000000003,-3.9129865334164347,-7.736263736263736,-23.912986533416436,-26.813186813186814,21.087013466583564,18.285714285714285,86.195946425023,82.76923076923077,-3.9129865334164347,-7.516483516483516
3.58,0.44010000000000005,-3.108318774075042,-6.945054945054945,-23.10831877407504,-26.10989010989011,21.89168122592496,18.98901098901099,86.97821317714462,83.38461538461539,-3.108318774075042,-6.813186813186813
3.6,0.44200000000000006,-2.2906479734739524,-6.153846153846154,-22.290647973473952,-25.318681318681318,22.709352026526048,19.692307692307693,87.77312098109896,84.0,-2.2906479734739524,-6.1098901098901095
3.62,0.4439000000000001,-1.4623782086657646,-5.450549450549451,-21.462378208665765,-24.615384615384617,23.537621791334235,20.483516483516482,88.57833268652054,84.79120879120879,-1.4623782086657646,-5.318681318681318
3.64,0.4458,-0.6260003904536404,-4.65934065934066,-20.62600039045364,-23.824175824175825,24.37399960954636,21.274725274725274,89.39142672664323,85.49450549450549,-0.6260003904536404,-4.615384615384615
3.66,0.4477,0.2159142063175033,-3.868131868131868,-19.784085793682497,-23.032967032967033,25.215914206317503,22.065934065934066,90.20990340789987,86.28571428571429,0.2159142063175033,-3.8241758241758244
3.68,0.4496,1.0607209587990984,-3.076923076923077,-18.9392790412009,-22.24175824175824,26.0607209587991,22.857142857142858,91.03119173064205,87.07692307692308,1.0607209587990984,-3.032967032967033
3.7,0.4515,1.9057094513721444,-2.2857142857142856,-18.094290548627857,-21.45054945054945,26.905709451372143,23.560439560439562,91.85265673404457,87.78021978021978,1.9057094513721444,-2.1538461538461537
3.72,0.4534,2.7481115601294963,-1.4945054945054945,-17.251888439870505,-20.65934065934066,27.748111560129495,24.439560439560438,92.67160735552515,88.3956043956044,2.7481115601294963,-1.4505494505494505
3.74,0.45530000000000004,3.5851100537513685,-0.6153846153846154,-16.414889946248632,-19.78021978021978,28.585110053751368,25.318681318681318,93.48530479218174,89.0989010989011,3.5851100537513685,-0.8351648351648352
3.76,0.45719999999999994,4.413847694923479,0.26373626373626374,-15.58615230507652,-18.98901098901099,29.41384769492348,26.10989010989011,94.2909713488377,89.62637362637362,4.413847694923479,-0.13186813186813187
3.78,0.45909999999999995,5.231436823375459,0.967032967032967,-14.768563176624541,-18.197802197802197,30.23143682337546,26.9010989010989,95.0857997542998,90.32967032967034,5.231436823375459,0.6593406593406593
3.8,0.46099999999999997,6.034969398481905,1.8461538461538463,-13.965030601518094,-17.318681318681318,31.034969398481906,27.692307692307693,95.86696292438496,91.2967032967033,6.034969398481905,1.6263736263736264
3.82,0.4629,6.821527476183857,2.7252747252747254,-13.178472523816144,-16.52747252747253,31.821527476183856,28.483516483516482,96.63162414717654,92.26373626373626,6.821527476183857,2.5054945054945055
3.84,0.4648,7.588194091766065,3.5164835164835164,-12.411805908233935,-15.648351648351648,32.58819409176606,29.36263736263736,97.37694766283778,93.14285714285714,7.588194091766065,3.3846153846153846
3.86,0.4667,8.332064516783236,4.395604395604396,-11.667935483216764,-14.857142857142858,33.332064516783234,30.153846153846153,98.1001096071585,93.84615384615384,8.332064516783236,4.263736263736264
3.88,0.4686,9.050257855181881,5.186813186813187,-10.949742144818119,-14.065934065934066,34.05025785518188,30.945054945054945,98.79830928485447,94.63736263736264,9.050257855181881,5.054945054945055
3.9,0.47050000000000003,9.739928940429992,5.978021978021978,-10.260071059570008,-13.274725274725276,34.73992894042999,31.64835164835165,99.46878073549495,95.42857142857143,9.739928940429992,5.846153846153846
3.92,0.47240000000000004,10.398280492264298,6.681318681318682,-9.601719507735702,-12.571428571428571,35.3982804922643,32.43956043956044,100.10880455182031,96.21978021978022,10.398280492264298,6.637362637362638
3.94,0.47430000000000005,11.02257548851286,7.384615384615385,-8.97742451148714,-11.780219780219781,36.02257548851286,33.23076923076923,100.71571990714766,96.92307692307692,11.02257548851286,7.34065934065934
3.96,0.47619999999999996,11.610149704369288,8.175824175824175,-8.389850295630712,-10.989010989010989,36.61014970436929,33.934065934065934,101.28693674556632,97.53846153846153,11.610149704369288,8.131868131868131
3.98,0.47809999999999997,12.158424368505088,8.87912087912088,-7.841575631494912,-10.285714285714286,37.15842436850509,34.54945054945055,101.81994808571886,98.24175824175825,12.158424368505088,8.835164835164836
4.0,0.48,12.664918882530229,9.582417582417582,-7.335081117469771,-9.67032967032967,37.66491888253023,35.252747252747255,102.31234238616675,98.94505494505495,12.664918882530229,9.45054945054945
4.02,0.4819,13.127263547570866,10.285714285714286,-6.872736452429134,-8.967032967032967,38.12726354757086,35.86813186813187,102.76181591767512,99.56043956043956,13.127263547570866,10.153846153846153
4.04,0.4838,13.543212239151075,10.901098901098901,-6.4567877608489255,-8.43956043956044,38.543212239151075,36.395604395604394,103.16618508524064,100.08791208791209,13.543212239151075,10.68131868131868
4.06,0.4857,13.910654969163005,11.428571428571429,-6.089345030836995,-7.824175824175824,38.910654969163005,36.92307692307692,103.52339864035113,100.7032967032967,13.910654969163005,11.296703296703297
4.08,0.48760000000000003,14.227630271515444,11.956043956043956,-5.772369728484556,-7.384615384615385,39.227630271515444,37.53846153846154,103.83154972183223,101.14285714285714,14.227630271515444,11.736263736263735
4.1,0.48949999999999994,14.49233734608103,12.395604395604396,-5.50766265391897,-6.857142857142857,39.49233734608103,37.89010989010989,104.08888766172126,101.67032967032966,14.49233734608103,12.263736263736265
4.12,0.49140000000000006,14.703147893848953,12.747252747252746,-5.2968521061510465,-6.417582417582418,39.70314789384895,38.32967032967033,104.29382949094327,102.02197802197803,14.703147893848953,12.703296703296703
4.14,0.49329999999999996,14.858617574748882,13.186813186813186,-5.141382425251118,-6.065934065934066,39.858617574748884,38.76923076923077,104.44497107816247,102.37362637362638,14.858617574748882,13.142857142857142
4.16,0.4952,14.957497018472461,13.45054945054945,-5.042502981527539,-5.714285714285714,39.95749701847246,39.032967032967036,104.54109783407542,102.72527472527473,14.957497018472461,13.494505494505495
4.18,0.4971,14.998742317799268,13.802197802197803,-5.001257682200732,-5.450549450549451,39.99874231779927,39.38461538461539,104.5811949126151,102.98901098901099,14.998742317799268,13.758241758241759
4.2,0.499,14.981524933460237,14.065934065934066,-5.018475066539763,-5.274725274725275,39.981524933460236,39.56043956043956,104.56445684007453,103.25274725274726,14.981524933460237,14.021978021978022
4.22,0.5009,14.90524093946203,14.32967032967033,-5.094759060537969,-5.0989010989010985,39.90524093946203,39.64835164835165,104.4902965030521,103.42857142857143,14.90524093946203,14.197802197802197
4.24,0.5028,14.769519538072743,14.505494505494505,-5.230480461927257,-5.0989010989010985,39.76951953807274,39.73626373626374,104.35835342639012,103.51648351648352,14.769519538072743,14.285714285714286
4.26,0.5047,14.574230774351141,14.505494505494505,-5.4257692256488586,-5.0989010989010985,39.57423077435114,39.73626373626374,104.16850127294063,103.6043956043956,14.574230774351141,14.373626373626374
4.28,0.5066,14.319492381206095,14.593406593406593,-5.680507618793905,-5.0989010989010985,39.319492381206096,39.73626373626374,103.92085449806629,103.6043956043956,14.319492381206095,14.373626373626374
4.3,0.5085,14.00567568751676,14.593406593406593,-5.99432431248324,-5.0989010989010985,39.00567568751676,39.73626373626374,103.61577409328552,103.6043956043956,14.00567568751676,14.285714285714286
4.32,0.5104000000000001,13.63341052384095,14.505494505494505,-6.366589476159049,-5.0989010989010985,38.63341052384095,39.73626373626374,103.25387235541167,103.6043956043956,13.63341052384095,14.285714285714286
4.34,0.5123,13.203589062702713,14.417582417582418,-6.796410937297287,-5.0989010989010985,38.20358906270271,39.73626373626374,102.8360166199315,103.6043956043956,13.203589062702713,14.285714285714286
4.36,0.5142,12.717368533388498,14.32967032967033,-7.282631466611502,-5.0989010989010985,37.717368533388495,39.73626373626374,102.36333190022457,103.51648351648352,12.717368533388498,14.10989010989011
4.38,0.5161,12.176172754605464,14.065934065934066,-7.823827245394536,-5.186813186813187,37.17617275460546,39.73626373626374,101.83720237755418,103.25274725274726,12.176172754605464,13.758241758241759
4.4,0.518,11.581692432266648,13.802197802197803,-8.418307567733352,-5.362637362637362,36.58169243226665,39.56043956043956,101.25927169056251,102.98901098901099,11.581692432266648,13.494505494505495
4.42,0.5199,10.935884174072449,13.362637362637363,-9.064115825927551,-5.538461538461538,35.93588417407245,39.20879120879121,100.63144197728508,102.54945054945055,10.935884174072449,13.142857142857142
4.44,0.5218,10.240968177450924,12.923076923076923,-9.759031822549076,-5.8901098901098905,35.240968177450924,38.857142857142854,99.95587162745595,102.1978021978022,10.240968177450924,12.615384615384615
4.46,0.5237,9.499424552803154,12.395604395604396,-10.500575447196846,-6.329670329670329,34.499424552803156,38.417582417582416,99.23497170810973,101.75824175824175,9.499424552803154,12.175824175824175
4.48,0.5256000000000001,8.713988249858645,11.780219780219781,-11.286011750141355,-6.769230769230769,33.713988249858645,37.89010989010989,98.47140103118126,101.23076923076923,8.713988249858645,11.648351648351648
4.5,0.5275,7.887642561278934,11.252747252747254,-12.112357438721066,-7.2967032967032965,32.88764256127894,37.27472527472528,97.66805983796128,100.7032967032967,7.887642561278934,11.12087912087912
4.52,0.5294,7.023611184430855,10.637362637362637,-12.976388815569145,-7.912087912087912,32.023611184430855,36.65934065934066,96.82808208186061,100.08791208791209,7.023611184430855,10.505494505494505
4.54,0.5313,6.125348829474809,9.934065934065934,-13.87465117052519,-8.527472527472527,31.12534882947481,36.043956043956044,95.95482629795829,99.47252747252747,6.125348829474809,9.802197802197803
4.56,0.5332,5.1965303695496825,9.142857142857142,-14.803469630450317,-9.23076923076923,30.196530369549684,35.42857142857143,95.05186505523254,98.76923076923077,5.1965303695496825,9.098901098901099
4.58,0.5351,4.2410385368612715,8.351648351648352,-15.758961463138728,-9.934065934065934,29.24103853686127,34.72527472527472,94.12297299517576,97.97802197802197,4.2410385368612715,8.307692307692308
4.6,0.5369999999999999,3.26295017686766,7.56043956043956,-16.737049823132338,-10.725274725274724,28.262950176867662,33.934065934065934,93.17211346864717,97.18681318681318,3.26295017686766,7.516483516483516
4.62,0.5389,2.2665210814619323,6.681318681318682,-17.73347891853807,-11.604395604395604,27.26652108146193,33.142857142857146,92.20342379128203,96.3956043956044,2.2665210814619323,6.637362637362638
4.64,0.5408,1.2561694310517721,5.8901098901098905,-18.743830568948226,-12.395604395604396,26.256169431051774,32.26373626373626,91.22119914652433,95.6043956043956,1.2561694310517721,5.758241758241758
4.66,0.5427000000000001,0.23645788467257195,5.010989010989011,-19.76354211532743,-13.274725274725276,25.23645788467257,31.47252747252747,90.22987517433003,94.72527472527473,0.23645788467257195,4.8791208791208796
4.68,0.5446,-0.7879256332863269,4.043956043956044,-20.787925633286328,-14.241758241758241,24.212074366713672,30.593406593406595,89.23400929276853,93.93406593406593,-0.7879256332863269,4.0
4.7,0.5465,-1.812188391580359,3.1648351648351647,-21.81218839158036,-15.12087912087912,23.18781160841964,29.626373626373628,88.23826080906437,92.96703296703296,-1.812188391580359,3.032967032967033
4.72,0.5484,-2.8314544879852708,2.10989010989011,-22.83145448798527,-16.087912087912088,22.16854551201473,28.65934065934066,87.24736988603922,92.0,-2.8314544879852708,1.978021978021978
4.74,0.5503,-3.8407875849886066,1.1428571428571428,-23.840787584988608,-17.054945054945055,21.159212415011392,27.78021978021978,86.2661354393554,91.03296703296704,-3.8407875849886066,1.098901098901099
4.76,0.5522,-4.835214658038928,0.17582417582417584,-24.83521465803893,-18.021978021978022,20.16478534196107,26.813186813186814,85.29939205039,90.06593406593407,-4.835214658038928,0.13186813186813187
4.78,0.5541,-5.80975065949338,-0.7912087912087912,-25.809750659493382,-18.98901098901099,19.190249340506618,25.846153846153847,84.35198598890277,89.18681318681318,-5.80975065949338,-0.8351648351648352
4.8,0.5559999999999999,-6.759423991954071,-1.8461538461538463,-26.759423991954073,-20.043956043956044,18.240576008045927,24.87912087912088,83.42875044884758,88.3956043956044,-6.759423991954071,-1.8021978021978022
4.82,0.5579000000000001,-7.679302675462829,-2.8131868131868134,-27.67930267546283,-21.01098901098901,17.32069732453717,23.912087912087912,82.53448010964163,87.6923076923077,-7.679302675462829,-2.681318681318681
4.84,0.5598,-8.56452108409979,-3.868131868131868,-28.564521084099788,-22.065934065934066,16.435478915900212,23.032967032967033,81.67390514388248,86.81318681318682,-8.56452108409979,-3.6483516483516483
4.86,0.5617000000000001,-9.410307118981196,-4.835164835164835,-29.410307118981194,-23.032967032967033,15.589692881018804,22.065934065934066,80.85166480081462,85.84615384615384,-9.410307118981196,-4.527472527472527
4.88,0.5636,-10.21200967654823,-5.714285714285714,-30.21200967654823,-24.0,14.78799032345177,21.186813186813186,80.07228070272565,84.87912087912088,-10.21200967654823,-5.4945054945054945
4.9,0.5655,-10.965126263463226,-6.681318681318682,-30.965126263463226,-24.87912087912088,14.034873736536774,20.21978021978022,79.34012999881634,83.91208791208791,-10.965126263463226,-6.549450549450549
4.92,0.5674,-11.665330602453208,-7.648351648351649,-31.66533060245321,-25.75824175824176,13.334669397546792,19.34065934065934,78.65941852787151,83.03296703296704,-11.665330602453208,-7.516483516483516
4.94,0.5693,-12.308500067148513,-8.43956043956044,-32.308500067148515,-26.725274725274726,12.691499932851487,18.54945054945055,78.03415414717504,82.15384615384616,-12.308500067148513,-8.395604395604396
4.96,0.5712,-12.890742778424942,-9.31868131868132,-32.89074277842494,-27.516483516483518,12.109257221575058,17.75824175824176,77.46812039049826,81.36263736263736,-12.890742778424942,-9.186813186813186
4.98,0.5731,-13.408424190054369,-10.10989010989011,-33.40842419005437,-28.395604395604394,11.591575809945631,16.87912087912088,76.96485062256254,80.57142857142857,-13.408424190054369,-9.978021978021978
5.0,0.575,-13.858192987669296,-10.813186813186814,-33.8581929876693,-29.186813186813186,11.141807012330704,16.175824175824175,76.52760286107168,79.86813186813187,-13.858192987669296,-10.76923076923077
5.02,0.5769,-14.237006122227848,-11.428571428571429,-34.23700612222785,-29.89010989010989,10.762993877772152,15.56043956043956,76.15933544014919,79.16483516483517,-14.237006122227848,-11.472527472527473
5.04,0.5788,-14.542152797390186,-12.043956043956044,-34.54215279739019,-30.593406593406595,10.457847202609814,14.945054945054945,75.8626836907423,78.63736263736264,-14.542152797390186,-12.087912087912088
5.06,0.5807,-14.77127722955552,-12.571428571428571,-34.77127722955552,-31.12087912087912,10.22872277044448,14.417582417582418,75.63993781419768,78.10989010989012,-14.77127722955552,-12.615384615384615
5.08,0.5826,-14.922399999816294,-13.098901098901099,-34.92239999981629,-31.64835164835165,10.077600000183706,13.89010989010989,75.49302212472072,77.67032967032966,-14.922399999816294,-13.054945054945055
5.1,0.5845,-14.993937818819346,-13.538461538461538,-34.99393781881935,-32.08791208791209,10.006062181180654,13.45054945054945,75.42347583474486,77.23076923076923,-14.993937818819346,-13.494505494505495
5.12,0.5864,-14.984721528532654,-13.89010989010989,-34.98472152853265,-32.527472527472526,10.015278471467346,13.098901098901099,75.43243555431295,76.87912087912088,-14.984721528532654,-13.846153846153847
5.14,0.5882999999999999,-14.89401216924045,-14.153846153846153,-34.89401216924045,-32.79120879120879,10.10598783075955,12.835164835164836,75.52061967136845,76.61538461538461,-14.89401216924045,-14.10989010989011
5.16,0.5902000000000001,-14.72151494576594,-14.32967032967033,-34.72151494576594,-32.967032967032964,10.27848505423406,12.659340659340659,75.68831477433598,76.52747252747253,-14.72151494576594,-14.285714285714286
5.18,0.5921,-14.467390933974965,-14.417582417582418,-34.46739093397497,-33.05494505494506,10.532609066025035,12.483516483516484,75.935364271513,76.43956043956044,-14.467390933974965,-14.373626373626374
5.2,0.5940000000000001,-14.132266377063887,-14.417582417582418,-34.132266377063885,-33.142857142857146,10.867733622936113,12.395604395604396,76.26115935357966,76.26373626373626,-14.132266377063887,-14.373626373626374
5.22,0.5959,-13.717239430989753,-14.417582417582418,-33.71723943098975,-33.142857142857146,11.282760569010247,12.395604395604396,76.66463243595356,76.26373626373626,-13.717239430989753,-14.373626373626374
5.24,0.5978,-13.22388422965725,-14.417582417582418,-33.22388422965725,-33.142857142857146,11.77611577034275,12.395604395604396,77.14425320677277,76.26373626373626,-13.22388422965725,-14.373626373626374
5.26,0.5997,-12.65425215312589,-14.417582417582418,-32.65425215312589,-33.142857142857146,12.34574784687411,12.395604395604396,77.6980273939941,76.26373626373626,-12.65425215312589,-14.373626373626374
5.28,0.6016,-12.010870196114398,-14.241758241758241,-32.010870196114396,-32.967032967032964,12.989129803885602,12.395604395604396,78.32349835146974,76.43956043956044,-12.010870196114398,-14.021978021978022
5.3,0.6034999999999999,-11.29673634942882,-14.065934065934066,-31.29673634942882,-32.79120879120879,13.70326365057118,12.571428571428571,79.01775154894356,76.87912087912088,-11.29673634942882,-13.582417582417582
5.32,0.6054,-10.515311923571682,-13.538461538461538,-30.51531192357168,-32.527472527472526,14.484688076428318,12.835164835164836,79.77742203474021,77.23076923076923,-10.515311923571682,-13.23076923076923
5.34,0.6073,-9.670510761652316,-13.010989010989011,-29.670510761652316,-32.175824175824175,15.329489238347684,13.186813186813186,80.59870492255486,77.67032967032966,-9.670510761652316,-12.791208791208792
5.36,0.6092,-8.766685307730251,-12.483516483516484,-28.76668530773025,-31.64835164835165,16.23331469226975,13.714285714285714,81.47736893526884,78.1978021978022,-8.766685307730251,-12.175824175824175
5.38,0.6111,-7.8086095168124245,-11.780219780219781,-27.808609516812425,-31.032967032967033,17.191390483187575,14.241758241758241,82.40877301918675,78.81318681318682,-7.8086095168124245,-11.56043956043956
5.4,0.613,-6.8014586137817,-11.076923076923077,-26.8014586137817,-30.32967032967033,18.1985413862183,14.945054945054945,83.38788602162029,79.42857142857143,-6.8014586137817,-10.857142857142858
5.42,0.6149,-5.750785730460962,-10.197802197802197,-25.75078573046096,-29.45054945054945,19.24921426953904,15.648351648351648,84.40930940342733,80.21978021978022,-5.750785730460962,-10.153846153846153
5.44,0.6168,-4.662495472681013,-9.406593406593407,-24.662495472681012,-28.65934065934066,20.337504527318988,16.52747252747253,85.46730293608226,81.01098901098901,-4.662495472681013,-9.362637362637363
5.46,0.6187,-3.5428144924973415,-8.527472527472527,-23.542814492497342,-27.78021978021978,21.457185507502658,17.406593406593405,86.5558133102242,81.8021978021978,-3.5428144924973415,-8.395604395604396
5.48,0.6206,-2.3982591644353213,-7.56043956043956,-22.39825916443532,-26.813186813186814,22.60174083556468,18.285714285714285,87.66850555955628,82.76923076923077,-2.3982591644353213,-7.516483516483516
5.5,0.6224999999999999,-1.2356004886873024,-6.593406593406593,-21.235600488687304,-25.75824175824176,23.764399511312696,19.252747252747252,88.79879718059483,83.64835164835165,-1.2356004886873024,-6.461538461538462
5.52,0.6244,-0.06182636836112497,-5.626373626373627,-20.061826368361125,-24.791208791208792,24.938173631638875,20.307692307692307,89.93989480526358,84.61538461538461,-0.06182636836112497,-5.582417582417582
5.54,0.6263,1.1158985679797844,-4.571428571428571,-18.884101432020216,-23.736263736263737,26.115898567979784,21.274725274725274,91.0848332598602,85.67032967032966,1.1158985679797844,-4.527472527472527
5.56,0.6282,2.290275403336543,-3.5164835164835164,-17.709724596663456,-22.593406593406595,27.290275403336544,22.417582417582416,92.22651682067955,86.63736263736264,2.290275403336543,-3.3846153846153846
5.58,0.6301,3.453915410217384,-2.3736263736263736,-16.546084589782616,-21.45054945054945,28.453915410217384,23.47252747252747,93.35776245374247,87.6043956043956,3.453915410217384,-2.32967032967033
5.6,0.6319999999999999,4.599386327998164,-1.2307692307692308,-15.400613672001835,-20.395604395604394,29.599386327998165,24.703296703296704,94.47134480384877,88.48351648351648,4.599386327998164,-1.2747252747252746
5.62,0.6339,5.719260176163859,-0.17582417582417584,-14.280739823836141,-19.252747252747252,30.719260176163857,25.75824175824176,95.56004267675416,89.27472527472527,5.719260176163859,-0.3956043956043956
5.64,0.6357999999999999,6.80616231889389,0.967032967032967,-13.19383768110611,-18.197802197802197,31.80616231889389,26.9010989010989,96.61668673785508,90.41758241758242,6.80616231889389,0.6593406593406593
5.66,0.6377,7.852821476718129,2.10989010989011,-12.147178523281871,-17.054945054945055,32.85282147671813,27.956043956043956,97.63420813157872,91.64835164835165,7.852821476718129,1.89010989010989
5.68,0.6396,8.852120362688659,3.340659340659341,-11.147879637311341,-15.912087912087912,33.85212036268866,29.186813186813186,98.60568770790319,92.79120879120879,8.852120362688659,3.032967032967033
5.7,0.6415,9.797146603924169,4.483516483516484,-10.202853396075831,-14.76923076923077,34.79714660392417,30.24175824175824,99.52440552630577,93.93406593406593,9.797146603924169,4.175824175824176
5.72,0.6434,10.681243594672331,5.538461538461538,-9.318756405327669,-13.714285714285714,35.68124359467233,31.296703296703296,100.38389029313566,94.9010989010989,10.681243594672331,5.318681318681318
5.74,0.6453,11.498060914430429,6.681318681318682,-8.501939085569571,-12.659340659340659,36.498060914430425,32.35164835164835,101.17796837615325,96.04395604395604,11.498060914430429,6.461538461538462
5.76,0.6472,12.241603934343196,7.648351648351649,-7.758396065656804,-11.604395604395604,37.241603934343196,33.31868131868132,101.90081202994389,97.01098901098901,12.241603934343196,7.428571428571429
5.78,0.6491,12.906282227264082,8.703296703296703,-7.093717772735918,-10.725274725274724,37.906282227264086,34.37362637362637,102.54698645829995,97.97802197802197,12.906282227264082,8.483516483516484
5.8,0.6509999999999999,13.486956391690663,9.582417582417582,-6.513043608309337,-9.758241758241759,38.48695639169066,35.16483516483517,103.11149533463261,98.76923076923077,13.486956391690663,9.362637362637363
5.82,0.6529,13.978982897436449,10.54945054945055,-6.021017102563551,-8.87912087912088,38.97898289743645,35.956043956043956,103.58982439919279,99.56043956043956,13.978982897436449,10.153846153846153
5.84,0.6547999999999999,14.378256561527461,11.340659340659341,-5.621743438472539,-8.087912087912088,39.378256561527465,36.747252747252745,103.9779827524886,100.35164835164835,14.378256561527461,10.945054945054945
5.86,0.6567000000000001,14.681250266546256,12.043956043956044,-5.318749733453744,-7.472527472527473,39.68125026654626,37.45054945054945,104.27254146791712,100.96703296703296,14.681250266546256,11.648351648351648
5.88,0.6586,14.885051540598559,12.659340659340659,-5.114948459401441,-6.769230769230769,39.88505154059856,38.065934065934066,104.47066915338775,101.58241758241758,14.885051540598559,12.351648351648352
5.9,0.6605,14.987395628343558,13.098901098901099,-5.012604371656442,-6.241758241758242,39.987395628343556,38.59340659340659,104.57016410169369,102.1978021978022,14.987395628343558,12.87912087912088
5.92,0.6624,14.986694696169508,13.45054945054945,-5.013305303830492,-5.802197802197802,39.98669469616951,39.032967032967036,104.56948268264976,102.54945054945055,14.986694696169508,13.23076923076923
5.94,0.6643,14.882062831658933,13.714285714285714,-5.117937168341067,-5.538461538461538,39.882062831658935,39.2967032967033,104.46776364660175,102.81318681318682,14.882062831658933,13.582417582417582
5.96,0.6662,14.673336517982202,13.89010989010989,-5.326663482017798,-5.362637362637362,39.6733365179822,39.56043956043956,104.26484802883691,103.16483516483517,14.673336517982202,13.846153846153847
5.98,0.6681,14.36109028777256,13.978021978021978,-5.63890971222744,-5.362637362637362,39.36109028777256,39.64835164835165,103.96129436767339,103.25274725274726,14.36109028777256,14.021978021978022
6.0,0.67,13.946647288323756,13.978021978021978,-6.053352711676244,-5.362637362637362,38.94664728832376,39.64835164835165,103.55838897553525,103.25274725274726,13.946647288323756,14.10989010989011
6.02,0.6718999999999999,13.432084520536103,13.978021978021978,-6.567915479463897,-5.362637362637362,38.4320845205361,39.64835164835165,103.05815103205231,103.25274725274726,13.432084520536103,14.10989010989011
6.04,0.6738,12.820232547810516,13.978021978021978,-7.179767452189484,-5.362637362637362,37.82023254781052,39.64835164835165,102.46333230105827,103.25274725274726,12.820232547810516,14.10989010989011
6.06,0.6757,12.114669507908292,13.89010989010989,-7.8853304920917076,-5.362637362637362,37.11466950790829,39.64835164835165,101.77741130915334,103.07692307692308,12.114669507908292,13.934065934065934
6.08,0.6776,11.319709300481021,13.802197802197803,-8.680290699518979,-5.362637362637362,36.31970930048102,39.472527472527474,101.00458186207935,102.9010989010989,11.319709300481021,13.582417582417582
6.1,0.6795,10.440383865321609,13.538461538461538,-9.559616134678391,-5.626373626373627,35.44038386532161,39.20879120879121,100.14973581632364,102.54945054945055,10.440383865321609,13.142857142857142
6.12,0.6814,9.48241951114459,13.010989010989011,-10.51758048885541,-5.978021978021978,34.48241951114459,38.76923076923077,99.21844006687829,102.02197802197803,9.48241951114459,12.615384615384615
6.14,0.6832999999999999,8.452207301600279,12.307692307692308,-11.547792698399721,-6.5054945054945055,33.45220730160028,38.15384615384615,98.21690775767294,101.49450549450549,8.452207301600279,12.0
6.16,0.6852,7.356767553943773,11.692307692307692,-12.643232446056228,-7.032967032967033,32.356767553943776,37.62637362637363,97.15196376855926,100.87912087912088,7.356767553943773,11.296703296703297
6.18,0.6870999999999999,6.203708555983656,10.813186813186814,-13.796291444016344,-7.736263736263736,31.203708555983656,36.83516483516483,96.03100458153136,100.17582417582418,6.203708555983656,10.593406593406593
6.2,0.6890000000000001,5.00117965824076,9.934065934065934,-14.99882034175924,-8.527472527472527,30.00117965824076,36.043956043956044,94.86195267874395,99.38461538461539,5.00117965824076,9.802197802197803
6.22,0.6909,3.7578189502722923,9.054945054945055,-16.24218104972771,-9.31868131868132,28.75781895027229,35.252747252747255,93.65320567546618,98.50549450549451,3.7578189502722923,8.923076923076923
6.24,0.6928,2.4826957824087903,8.087912087912088,-17.51730421759121,-10.285714285714286,27.48269578240879,34.37362637362637,92.41358044194612,97.62637362637362,2.4826957824087903,7.956043956043956
6.26,0.6947,1.1852484462896222,6.945054945054945,-18.814751553710376,-11.252747252747254,26.185248446289624,33.31868131868132,91.15225251884712,96.57142857142857,1.1852484462896222,6.9010989010989015
6.28,0.6966,-0.12478262093129398,5.8901098901098905,-20.124782620931295,-12.395604395604396,24.875217379068705,32.35164835164835,89.8786911809701,95.51648351648352,-0.12478262093129398,5.758241758241758
6.3,0.6985,-1.437425693469036,4.835164835164835,-21.437425693469034,-13.538461538461538,23.562574306530966,31.296703296703296,88.60259055294256,94.46153846153847,-1.437425693469036,4.7032967032967035
6.32,0.7004,-2.742552210907124,3.6043956043956045,-22.742552210907125,-14.68131868131868,22.257447789092875,30.153846153846153,87.33379722793131,93.4065934065934,-2.742552210907124,3.5604395604395602
6.34,0.7022999999999999,-4.029954318735317,2.4615384615384617,-24.029954318735317,-15.824175824175825,20.970045681264683,28.923076923076923,86.0822348857423,92.26373626373626,-4.029954318735317,2.32967032967033
6.36,0.7042,-5.289424940906706,1.2307692307692308,-25.289424940906706,-16.967032967032967,19.710575059093294,27.78021978021978,84.8578264493896,91.03296703296704,-5.289424940906706,1.010989010989011
6.38,0.7061,-6.510839789107797,0.0,-26.5108397891078,-18.197802197802197,18.4891602108922,26.63736263736264,83.67041435886736,89.8021978021978,-6.510839789107797,-0.04395604395604396
6.4,0.7080000000000001,-7.68424067633821,-1.2307692307692308,-27.68424067633821,-19.34065934065934,17.31575932366179,25.406593406593405,82.52967957692249,88.74725274725274,-7.68424067633821,-1.1868131868131868
6.42,0.7099,-8.799919469459736,-2.6373626373626373,-28.799919469459738,-20.65934065934066,16.200080530540262,24.175824175824175,81.44505997364611,87.6923076923077,-8.799919469459736,-2.4175824175824174
6.44,0.7118,-9.848501987112272,-3.868131868131868,-29.84850198711227,-21.89010989010989,15.151498012887728,23.032967032967033,80.4256687641773,86.81318681318682,-9.848501987112272,-3.5604395604395602
6.46,0.7137,-10.821031126240417,-5.0989010989010985,-30.821031126240417,-23.12087912087912,14.178968873759583,21.802197802197803,79.48021369632158,85.75824175824175,-10.821031126240417,-4.791208791208791
6.48,0.7156,-11.709048482889772,-6.241758241758242,-31.70904848288977,-24.35164835164835,13.290951517110228,20.65934065934066,78.61691770198189,84.35164835164835,-11.709048482889772,-6.1098901098901095
6.5,0.7175,-12.504673721299998,-7.472527472527473,-32.504673721299994,-25.494505494505493,12.495326278700002,19.516483516483518,77.84344173760799,83.20879120879121,-12.504673721299998,-7.252747252747253
6.52,0.7193999999999999,-13.20068094002401,-8.527472527472527,-33.200680940024014,-26.63736263736264,11.79931905997599,18.46153846153846,77.16681054402062,82.15384615384616,-13.20068094002401,-8.307692307692308
6.54,0.7212999999999999,-13.79057128514816,-9.582417582417582,-33.79057128514816,-27.692307692307693,11.20942871485184,17.494505494505493,76.59334205465817,81.0989010989011,-13.79057128514816,-9.362637362637363
6.56,0.7232,-14.26864106895981,-10.54945054945055,-34.26864106895981,-28.747252747252748,10.73135893104019,16.52747252747253,76.128581173253,80.21978021978022,-14.26864106895981,-10.32967032967033
6.58,0.7251,-14.63004466781765,-11.428571428571429,-34.63004466781765,-29.714285714285715,10.36995533218235,15.648351648351648,75.77723862696409,79.34065934065934,-14.63004466781765,-11.208791208791208
6.6,0.727,-14.870851495688855,-12.307692307692308,-34.870851495688854,-30.505494505494507,10.129148504311145,14.945054945054945,75.5431355789164,78.63736263736264,-14.870851495688855,-12.0
6.62,0.7289,-14.988096379921625,-13.010989010989011,-34.98809637992163,-31.208791208791208,10.011903620078375,14.241758241758241,75.42915465483078,78.02197802197803,-14.988096379921625,-12.615384615384615
6.64,0.7308,-14.979822703344853,-13.538461538461538,-34.97982270334485,-31.824175824175825,10.020177296655147,13.714285714285714,75.43719800194974,77.49450549450549,-14.979822703344853,-13.142857142857142
6.66,0.7327,-14.845117721688492,-13.89010989010989,-34.845117721688496,-32.26373626373626,10.154882278311508,13.274725274725276,75.56815295481273,77.14285714285714,-14.845117721688492,-13.494505494505495
6.68,0.7345999999999999,-14.58413951747426,-14.153846153846153,-34.584139517474256,-32.61538461538461,10.41586048252574,12.923076923076923,75.82186583173015,76.79120879120879,-14.58413951747426,-13.846153846153847
6.7,0.7365,-14.198135110741589,-14.241758241758241,-34.19813511074159,-32.79120879120879,10.801864889258411,12.747252747252746,76.19712432823877,76.7032967032967,-14.198135110741589,-14.021978021978022
6.72,0.7384,-13.68944931296907,-14.241758241758241,-33.689449312969074,-32.967032967032964,11.31055068703093,12.659340659340659,76.69164890966304,76.7032967032967,-13.68944931296907,-14.021978021978022
6.74,0.7403,-13.061523982968556,-14.241758241758241,-33.06152398296855,-32.967032967032964,11.938476017031444,12.659340659340659,77.30209353450603,76.7032967032967,-13.061523982968556,-14.021978021978022
6.76,0.7422,-12.318887421930125,-14.065934065934066,-32.31888742193013,-32.967032967032964,12.681112578069875,12.659340659340659,78.02405596417489,76.7032967032967,-12.318887421930125,-13.934065934065934
6.78,0.7441,-11.467133728656915,-13.89010989010989,-31.467133728656915,-32.79120879120879,13.532866271343085,12.659340659340659,78.85209783301998,76.87912087912088,-11.467133728656915,-13.67032967032967
6.8,0.746,-10.512892024753503,-13.538461538461538,-30.512892024753505,-32.527472527472526,14.487107975246497,12.747252747252746,79.7797745664118,77.14285714285714,-10.512892024753503,-13.31868131868132
6.82,0.7479,-9.463785552440964,-13.010989010989011,-29.463785552440964,-32.26373626373626,15.536214447559036,13.098901098901099,80.79967514425704,77.58241758241758,-9.463785552440964,-12.87912087912088
6.84,0.7498,-8.32838074401516,-12.395604395604396,-28.32838074401516,-31.736263736263737,16.67161925598484,13.626373626373626,81.9034716136937,78.1978021978022,-8.32838074401516,-12.263736263736265
6.86,0.7517,-7.116126460922656,-11.692307692307692,-27.116126460922658,-31.12087912087912,17.883873539077342,14.241758241758241,83.0819781585023,78.81318681318682,-7.116126460922656,-11.56043956043956
6.88,0.7535999999999999,-5.83728370111369,-10.901098901098901,-25.83728370111369,-30.32967032967033,19.16271629888631,15.032967032967033,84.32521943488801,79.6043956043956,-5.83728370111369,-10.76923076923077
6.9,0.7555000000000001,-4.5028461748040645,-10.021978021978022,-24.502846174804063,-29.36263736263736,20.497153825195937,15.912087912087912,85.62250778464103,80.3956043956044,-4.5028461748040645,-9.978021978021978
6.92,0.7574,-3.1244522500386127,-8.967032967032967,-23.124452250038612,-28.307692307692307,21.875547749961388,16.87912087912088,86.96252883824086,81.36263736263736,-3.1244522500386127,-8.835164835164836
6.94,0.7593,-1.7142888694605132,-7.912087912087912,-21.714288869460514,-27.252747252747252,23.285711130539486,17.934065934065934,88.33343492324242,82.32967032967034,-1.7142888694605132,-7.956043956043956
6.96,0.7612,-0.28498813738913226,-6.857142857142857,-20.28498813738913,-26.10989010989011,24.71501186261087,18.98901098901099,89.72294559830375,83.47252747252747,-0.28498813738913226,-6.813186813186813
6.98,0.7631,1.1504826294182882,-5.714285714285714,-18.84951737058171,-24.87912087912088,26.15048262941829,20.21978021978022,91.11845454156635,84.52747252747253,1.1504826294182882,-5.4945054945054945
7.0,0.765,2.578936504191157,-4.3076923076923075,-17.421063495808845,-23.560439560439562,27.578936504191155,21.45054945054945,92.50714193484372,85.75824175824175,2.578936504191157,-4.351648351648351
7.02,0.7668999999999999,3.9870872385151372,-3.076923076923077,-16.012912761484863,-22.24175824175824,28.987087238515137,22.857142857142858,93.87609140330372,86.98901098901099,3.9870872385151372,-3.120879120879121
7.04,0.7688,5.361673192035845,-1.7582417582417582,-14.638326807964155,-20.923076923076923,30.361673192035845,24.087912087912088,95.2124104951147,88.21978021978022,5.361673192035845,-1.89010989010989
7.06,0.7706999999999999,6.68958378933501,-0.3516483516483517,-13.31041621066499,-19.604395604395606,31.68958378933501,25.494505494505493,96.50335361791029,89.0989010989011,6.68958378933501,-0.5714285714285714
7.08,0.7726,7.957987329140921,0.8791208791208791,-12.04201267085908,-18.285714285714285,32.95798732914092,26.813186813186814,97.7364462899414,90.15384615384616,7.957987329140921,0.6593406593406593
7.1,0.7745,9.15445892021577,2.3736263736263736,-10.84554107978423,-16.87912087912088,34.154458920215774,28.13186813186813,98.89960951437826,91.64835164835165,9.15445892021577,1.89010989010989
7.12,0.7764,10.267107278251874,3.6923076923076925,-9.732892721748126,-15.472527472527473,35.26710727825187,29.53846153846154,99.98128304632984,93.14285714285714,10.267107278251874,3.4725274725274726
7.14,0.7783,11.284699089753273,5.010989010989011,-8.715300910246727,-14.153846153846153,36.284699089753275,30.857142857142858,100.97054629458066,94.37362637362638,11.284699089753273,4.791208791208791
7.16,0.7802,12.196779632960665,6.329670329670329,-7.803220367039335,-12.923076923076923,37.19677963296066,32.08791208791209,101.85723558457055,95.6043956043956,12.196779632960665,6.1098901098901095
7.18,0.7820999999999999,12.993788343061267,7.648351648351649,-7.006211656938733,-11.692307692307692,37.99378834306127,33.31868131868132,102.63205650640461,96.83516483516483,12.993788343061267,7.252747252747253
7.2,0.784,13.667168019772497,8.87912087912088,-6.332831980227503,-10.54945054945055,38.6671680197725,34.46153846153846,103.28669008222572,97.97802197802197,13.667168019772497,8.571428571428571
7.22,0.7858999999999999,14.209466400324693,10.021978021978022,-5.790533599675307,-9.406593406593407,39.20946640032469,35.42857142857143,103.81389151152445,98.94505494505495,14.209466400324693,9.538461538461538
7.24,0.7878000000000001,14.614428860198789,10.989010989010989,-5.385571139801211,-8.43956043956044,39.614428860198785,36.395604395604394,104.2075802911969,99.91208791208791,14.614428860198789,10.505494505494505
7.26,0.7897,14.877081057836724,11.868131868131869,-5.122918942163276,-7.56043956043956,39.877081057836726,37.27472527472528,104.46292055952331,100.79120879120879,14.877081057836724,11.472527472527473
7.28,0.7916,14.99380040794096,12.571428571428571,-5.0061995920590405,-6.857142857142857,39.99380040794096,37.97802197802198,104.57639057973454,101.49450549450549,14.99380040794096,12.175824175824175
7.3,0.7935,14.962375350736663,13.010989010989011,-5.037624649263337,-6.241758241758242,39.962375350736664,38.59340659340659,104.54584035928758,102.02197802197803,14.962375350736663,12.791208791208792
7.32,0.7954,14.782051481356406,13.362637362637363,-5.217948518643594,-5.802197802197802,39.782051481356405,39.032967032967036,104.37053649506223,102.54945054945055,14.782051481356406,13.23076923076923
7.34,0.7973,14.453563713807405,13.714285714285714,-5.546436286192595,-5.626373626373627,39.453563713807405,39.2967032967033,104.05119344192119,102.81318681318682,14.453563713807405,13.582417582417582
7.36,0.7992,13.979153777114973,13.89010989010989,-6.020846222885027,-5.538461538461538,38.97915377711497,39.38461538461539,103.58999052178136,102.98901098901099,13.979153777114973,13.67032967032967
7.38,0.8010999999999999,13.362572476341052,13.89010989010989,-6.637427523658948,-5.538461538461538,38.36257247634105,39.38461538461539,102.99057412168833,103.07692307692308,13.362572476341052,13.758241758241759
7.4,0.803,12.609066297219911,13.89010989010989,-7.390933702780089,-5.538461538461538,37.60906629721991,39.38461538461539,102.25804467136324,103.07692307692308,12.609066297219911,13.758241758241759
7.42,0.8049,11.725348088933929,13.89010989010989,-8.274651911066071,-5.538461538461538,36.72534808893393,39.2967032967033,101.39892814213576,102.98901098901099,11.725348088933929,13.582417582417582
7.44,0.8068000000000001,10.719551723695918,13.626373626373626,-9.280448276304082,-5.714285714285714,35.719551723695915,39.120879120879124,100.42113196875053,102.72527472527473,10.719551723695918,13.31868131868132
7.46,0.8087,9.60117080280094,13.098901098901099,-10.39882919719906,-5.8901098901098905,34.60117080280094,38.76923076923077,99.33388546177058,102.28571428571429,9.60117080280094,12.791208791208792
7.48,0.8106,8.38098165497386,12.571428571428571,-11.61901834502614,-6.329670329670329,33.38098165497386,38.32967032967033,98.14766494956066,101.75824175824175,8.38098165497386,12.175824175824175
7.5,0.8125,7.070951052389954,11.780219780219781,-12.929048947610045,-6.857142857142857,32.07095105238995,37.8021978021978,96.87410406338569,101.05494505494505,7.070951052389954,11.56043956043956
7.52,0.8143999999999999,5.684129250746533,10.901098901098901,-14.315870749253467,-7.648351648351649,30.684129250746533,37.010989010989015,95.52588975512136,100.35164835164835,5.684129250746533,10.68131868131868
7.54,0.8163,4.234529140216156,10.021978021978022,-15.765470859783843,-8.43956043956044,29.234529140216157,36.13186813186813,94.11664481250318,99.47252747252747,4.234529140216156,9.802197802197803
7.56,0.8181999999999999,2.7369924719068806,8.967032967032967,-17.26300752809312,-9.406593406593407,27.73699247190688,35.252747252747255,92.66079780968529,98.41758241758242,2.7369924719068806,8.747252747252746
7.58,0.8200999999999999,1.2070442974400812,7.912087912087912,-18.79295570255992,-10.461538461538462,26.20704429744008,34.1978021978022,91.17344159904981,97.36263736263736,1.2070442974400812,7.6923076923076925
7.6,0.822,-0.33926307475090167,6.681318681318682,-20.339263074750903,-11.604395604395604,24.660736925249097,32.967032967032964,89.67018161157917,96.3076923076923,-0.33926307475090167,6.461538461538462
7.62,0.8239,-1.8855151460145438,5.362637362637362,-21.885515146014544,-12.835164835164836,23.114484853985456,31.824175824175825,88.16697538552286,95.07692307692308,-1.8855151460145438,5.230769230769231
7.64,0.8258,-3.415107711174542,4.043956043956044,-23.415107711174542,-14.065934065934066,21.584892288825458,30.593406593406595,86.6799648844479,93.75824175824175,-3.415107711174542,3.912087912087912
7.66,0.8277,-4.911425021658541,2.7252747252747254,-24.91142502165854,-15.472527472527473,20.08857497834146,29.274725274725274,85.22530329396272,92.52747252747253,-4.911425021658541,2.5934065934065935
7.68,0.8296,-6.358021774121289,1.3186813186813187,-26.35802177412129,-16.791208791208792,18.64197822587871,27.86813186813187,83.818978099444,91.12087912087912,-6.358021774121289,1.098901098901099
7.7,0.8315,-7.738806971916225,-0.17582417582417584,-27.738806971916226,-18.197802197802197,17.261193028083774,26.46153846153846,82.47663234305287,89.8021978021978,-7.738806971916225,-0.21978021978021978
7.72,0.8333999999999999,-9.038227627476623,-1.5824175824175823,-29.038227627476623,-19.692307692307693,15.961772372523377,25.054945054945055,81.21338603541284,88.3956043956044,-9.038227627476623,-1.7142857142857142
7.74,0.8353,-10.24145021547015,-3.076923076923077,-30.241450215470152,-21.0989010989011,14.75854978452985,23.64835164835165,80.04365975389825,87.07692307692308,-10.24145021547015,-3.032967032967033
7.76,0.8371999999999999,-11.334537750986135,-4.571428571428571,-31.334537750986136,-22.505494505494507,13.665462249013865,22.24175824175824,78.98100249409627,85.84615384615384,-11.334537750986135,-4.175824175824176
7.78,0.8391,-12.304620355293915,-5.8901098901098905,-32.30462035529391,-23.912087912087912,12.695379644706085,20.923076923076923,78.03792585239925,84.87912087912088,-12.304620355293915,-5.582417582417582
7.8,0.841,-13.140057184906507,-7.2967032967032965,-33.14005718490651,-25.318681318681318,11.859942815093493,19.692307692307693,77.22574660485647,83.56043956043956,-13.140057184906507,-6.989010989010989
7.82,0.8429,-13.830587638596953,-8.527472527472527,-33.83058763859695,-26.54945054945055,11.169412361403047,18.373626373626372,76.55443970958378,82.24175824175825,-13.830587638596953,-8.483516483516484
7.84,0.8448,-14.367469822123704,-9.758241758241759,-34.3674698221237,-27.86813186813187,10.632530177876296,17.23076923076923,76.03250369673395,81.01098901098901,-14.367469822123704,-9.538461538461538
7.86,0.8467,-14.743604341935164,-10.901098901098901,-34.74360434193517,-28.923076923076923,10.256395658064836,16.175824175824175,75.66684032106377,79.95604395604396,-14.743604341935164,-10.593406593406593
7.88,0.8486,-14.953641616903221,-11.956043956043956,-34.95364161690322,-29.978021978021978,10.046358383096779,15.208791208791208,75.46265023763328,79.16483516483517,-14.953641616903221,-11.472527472527473
7.9,0.8505,-14.994071040726116,-12.747252747252746,-34.99407104072611,-30.857142857142858,10.005928959273884,14.417582417582418,75.42334632157981,78.37362637362638,-14.994071040726116,-12.263736263736265
7.92,0.8523999999999999,-14.863290496234946,-13.362637362637363,-34.863290496234946,-31.64835164835165,10.136709503765054,13.802197802197803,75.55048608900823,77.75824175824175,-14.863290496234946,-12.87912087912088
7.94,0.8543000000000001,-14.561654915282954,-13.802197802197803,-34.56165491528296,-32.175824175824175,10.438345084717046,13.274725274725276,75.84372448895203,77.31868131868131,-14.561654915282954,-13.31868131868132
7.96,0.8562,-14.091502792690997,-13.978021978021978,-34.091502792690996,-32.527472527472526,10.908497207309003,13.010989010989011,76.30078812754509,77.05494505494505,-14.091502792690997,-13.67032967032967
7.98,0.8581,-13.457159798017143,-14.065934065934066,-33.457159798017145,-32.7032967032967,11.542840201982857,12.835164835164836,76.91747175679946,76.87912087912088,-13.457159798017143,-13.846153846153847
8.0,0.86,-12.664918882530245,-14.065934065934066,-32.664918882530245,-32.79120879120879,12.335081117469755,12.835164835164836,77.68765761383324,76.87912087912088,-12.664918882530245,-13.846153846153847
8.02,0.8619,-11.722996548183637,-13.89010989010989,-31.722996548183637,-32.79120879120879,13.277003451816363,12.835164835164836,78.60335793447642,76.87912087912088,-11.722996548183637,-13.758241758241759
8.04,0.8637999999999999,-10.64146522779597,-13.538461538461538,-30.64146522779597,-32.527472527472526,14.35853477220403,12.835164835164836,79.65478069063352,77.05494505494505,-10.64146522779597,-13.406593406593407
8.06,0.8657,-9.43216201794783,-13.098901098901099,-29.43216201794783,-32.26373626373626,15.56783798205217,13.186813186813186,80.83041831661775,77.4065934065934,-9.43216201794783,-13.054945054945055
8.08,0.8676,-8.10857430495073,-12.483516483516484,-28.10857430495073,-31.736263736263737,16.89142569504927,13.626373626373626,82.11715889914313,78.02197802197803,-8.10857430495073,-12.351648351648352
8.1,0.8694999999999999,-6.6857031260532125,-11.780219780219781,-26.685703126053212,-31.12087912087912,18.314296873946788,14.241758241758241,83.5004190122545,78.72527472527473,-6.6857031260532125,-11.648351648351648
8.12,0.8714,-5.179905409076294,-10.989010989010989,-25.179905409076294,-30.24175824175824,19.820094590923706,15.032967032967033,84.96429708582839,79.51648351648352,-5.179905409076294,-10.857142857142858
8.14,0.8733000000000001,-3.6087165299969146,-10.021978021978022,-23.608716529996915,-29.274725274725274,21.391283470003085,16.0,86.4917459082008,80.3956043956044,-3.6087165299969146,-9.802197802197803
8.16,0.8752,-1.9906549156435085,-8.87912087912088,-21.990654915643507,-28.13186813186813,23.009345084356493,17.054945054945055,88.06476258383961,81.45054945054945,-1.9906549156435085,-8.747252747252746
8.18,0.8771,-0.34501069357095343,-7.648351648351649,-20.345010693570952,-26.9010989010989,24.654989306429048,18.285714285714285,89.66459399972992,82.68131868131869,-0.34501069357095343,-7.604395604395604
8.2,0.8789999999999999,1.3083793506764243,-6.417582417582418,-18.691620649323575,-25.582417582417584,26.308379350676425,19.516483516483518,91.27195560318506,83.91208791208791,1.3083793506764243,-6.197802197802198
8.22,0.8809,2.949368011334111,-5.010989010989011,-17.050631988665888,-24.175824175824175,27.949368011334112,20.835164835164836,92.86726106303324,85.14285714285714,2.949368011334111,-4.8791208791208796
8.24,0.8828,4.557742384874111,-3.5164835164835164,-15.44225761512589,-22.681318681318682,29.55774238487411,22.24175824175824,94.43086017928788,86.46153846153847,4.557742384874111,-3.4725274725274726
8.26,0.8846999999999999,6.113474182359119,-2.021978021978022,-13.88652581764088,-21.186813186813186,31.11347418235912,23.736263736263737,95.9432822270993,87.78021978021978,6.113474182359119,-2.1538461538461537
8.28,0.8865999999999999,7.596972584225622,-0.5274725274725275,-12.403027415774378,-19.692307692307693,32.596972584225625,25.406593406593405,97.38548177235707,88.83516483516483,7.596972584225622,-0.7472527472527473
8.3,0.8885000000000001,8.989336472286519,0.967032967032967,-11.010663527713481,-18.10989010989011,33.98933647228652,26.9010989010989,98.73908388184924,90.24175824175825,8.989336472286519,0.5714285714285714
8.32,0.8904,10.272602793779305,2.5494505494505493,-9.727397206220695,-16.52747252747253,35.272602793779306,28.395604395604394,99.98662557314661,91.91208791208791,10.272602793779305,2.32967032967033
8.34,0.8923,11.429987772498638,4.131868131868132,-8.570012227501362,-15.032967032967033,36.429987772498635,29.89010989010989,101.11179031070014,93.49450549450549,11.429987772498638,3.912087912087912
8.36,0.8941999999999999,12.446117684441925,5.626373626373627,-7.553882315558075,-13.626373626373626,37.44611768444192,31.384615384615383,102.09963235696296,94.9010989010989,12.446117684441925,5.318681318681318
8.38,0.8961,13.307245961426256,7.1208791208791204,-6.692754038573744,-12.219780219780219,38.307245961426254,32.79120879120879,102.93678783209717,96.3076923076923,13.307245961426256,6.813186813186813
8.4,0.898,14.001453476746153,8.527472527472527,-5.998546523253847,-10.901098901098901,39.00145347674615,34.1978021978022,103.61166942391365,97.62637362637362,14.001453476746153,8.131868131868131
8.42,0.8999,14.518829002499322,9.846153846153847,-5.481170997500678,-9.582417582417582,39.518829002499324,35.252747252747255,104.11464182147736,98.76923076923077,14.518829002499322,9.362637362637363
8.44,0.9017999999999999,14.851627008458232,11.076923076923077,-5.148372991541768,-8.43956043956044,39.85162700845823,36.395604395604394,104.43817512104327,99.82417582417582,14.851627008458232,10.417582417582418
8.46,0.9037000000000001,14.99440019644696,11.956043956043956,-5.005599803553039,-7.472527472527473,39.99440019644696,37.362637362637365,104.57697367083158,100.79120879120879,14.99440019644696,11.384615384615385
8.48,0.9056000000000001,14.944104430565003,12.659340659340659,-5.0558955694349965,-6.769230769230769,39.944104430565005,38.065934065934066,104.52807808011704,101.49450549450549,14.944104430565003,12.175824175824175
8.5,0.9075,14.700174030121747,13.098901098901099,-5.299825969878253,-6.153846153846154,39.700174030121744,38.68131868131868,104.29093841609638,102.10989010989012,14.700174030121747,12.791208791208792
8.52,0.9094,14.264565735987166,13.45054945054945,-5.735434264012834,-5.802197802197802,39.26456573598716,39.032967032967036,103.86745694626737,102.54945054945055,14.264565735987166,13.23076923076923
8.54,0.9112999999999999,13.64177003877664,13.626373626373626,-6.35822996122336,-5.802197802197802,38.64177003877664,39.20879120879121,103.26199915125025,102.72527472527473,13.64177003877664,13.494505494505495
8.56,0.9132,12.838788964802538,13.714285714285714,-7.1612110351974625,-5.802197802197802,37.83878896480254,39.120879120879124,102.48137212915235,102.72527472527473,12.838788964802538,13.494505494505495
8.58,0.9151,11.8650798484027,13.714285714285714,-8.1349201515973,-5.802197802197802,36.8650798484027,39.120879120879124,101.53476993320906,102.72527472527473,11.8650798484027,13.31868131868132
8.6,0.9169999999999999,10.73246507190363,13.45054945054945,-9.26753492809637,-5.8901098901098905,35.73246507190363,39.032967032967036,100.43368582448066,102.63736263736264,10.73246507190363,13.142857142857142
8.62,0.9188999999999999,9.45500822143293,13.098901098901099,-10.54499177856707,-6.065934065934066,34.455008221432934,38.76923076923077,99.19179187534175,102.28571428571429,9.45500822143293,12.791208791208792
8.64,0.9208000000000001,8.048857581957245,12.483516483516484,-11.951142418042755,-6.417582417582418,33.04885758195724,38.32967032967033,97.82478682143389,101.75824175824175,8.048857581957245,12.175824175824175
8.66,0.9227,6.532058371843441,11.868131868131869,-13.46794162815656,-6.945054945054945,31.53205837184344,37.8021978021978,96.35021352339652,101.05494505494505,6.532058371843441,11.472527472527473
8.68,0.9246,4.924335589192302,10.901098901098901,-15.075664410807697,-7.648351648351649,29.924335589192303,37.010989010989015,94.78724785850416,100.26373626373626,4.924335589192302,10.593406593406593
8.7,0.9264999999999999,3.246849802274094,9.934065934065934,-16.753150197725905,-8.615384615384615,28.246849802274095,36.043956043956044,93.15646130961005,99.2967032967033,3.246849802274094,9.626373626373626
8.72,0.9284,1.5219286575782334,8.791208791208792,-18.478071342421767,-9.67032967032967,26.521928657578233,34.989010989010985,91.47955994769693,98.24175824175825,1.5219286575782334,8.483516483516484
8.74,0.9303,-0.22722270570398465,7.56043956043956,-20.227222705703984,-10.813186813186814,24.772777294296016,33.75824175824176,89.77910290808119,97.01098901098901,-0.22722270570398465,7.252747252747253
8.76,0.9321999999999999,-1.9768287634232027,6.153846153846154,-21.976828763423203,-12.043956043956044,23.023171236576797,32.43956043956044,88.07820383218858,95.78021978021978,-1.9768287634232027,5.934065934065934
8.78,0.9340999999999999,-3.7028643220267417,4.747252747252747,-23.70286432202674,-13.538461538461538,21.29713567797326,31.12087912087912,86.4002190803447,94.37362637362638,-3.7028643220267417,4.527472527472527
8.8,0.936,-5.381384630233516,3.2527472527472527,-25.381384630233516,-14.945054945054945,19.618615369766484,29.714285714285715,84.76842681002208,92.96703296703296,-5.381384630233516,3.032967032967033
8.82,0.9379000000000001,-6.988860429578291,1.7582417582417582,-26.988860429578292,-16.439560439560438,18.011139570421708,28.307692307692307,83.20570125271034,91.38461538461539,-6.988860429578291,1.4505494505494505
8.84,0.9398,-8.502513298091051,0.17582417582417584,-28.502513298091053,-17.934065934065934,16.497486701908947,26.725274725274726,81.73418670581185,89.89010989010988,-8.502513298091051,-0.13186813186813187
8.86,0.9417,-9.900646514705963,-1.5824175824175823,-29.90064651470596,-19.516483516483518,15.099353485294037,25.054945054945055,80.37497587911002,88.3956043956044,-9.900646514705963,-1.6263736263736264
8.88,0.9436000000000001,-11.162966611107498,-3.1648351648351647,-31.1629666111075,-21.0989010989011,13.837033388892502,23.560439560439562,79.14779729454972,86.98901098901099,-11.162966611107498,-3.208791208791209
8.9,0.9455,-12.270890785771511,-4.65934065934066,-32.27089078577151,-22.681318681318682,12.729109214228489,22.065934065934066,78.07071643024264,85.49450549450549,-12.270890785771511,-4.43956043956044
8.92,0.9474,-13.207835434162652,-6.241758241758242,-33.207835434162654,-24.263736263736263,11.792164565837348,20.571428571428573,77.15985522261258,84.43956043956044,-13.207835434162652,-6.197802197802198
8.94,0.9492999999999999,-13.959481200651073,-7.824175824175824,-33.95948120065107,-25.75824175824176,11.040518799348927,19.164835164835164,76.42913439321322,83.12087912087912,-13.959481200651073,-7.604395604395604
8.96,0.9512,-14.514010181887919,-9.142857142857142,-34.51401018188792,-27.252747252747252,10.485989818112081,17.846153846153847,75.89004284881666,81.71428571428571,-14.514010181887919,-9.010989010989011
8.98,0.9531000000000001,-14.862311207224563,-10.54945054945055,-34.862311207224565,-28.571428571428573,10.137688792775437,16.52747252747253,75.55143811576045,80.3956043956044,-14.862311207224563,-10.153846153846153
9.0,0.955,-14.99814948722491,-11.780219780219781,-34.99814948722491,-29.714285714285715,10.00185051277509,15.472527472527473,75.41938141425095,79.34065934065934,-14.99814948722491,-11.296703296703297
9.02,0.9569,-14.918297353226103,-12.659340659340659,-34.9182973532261,-30.681318681318682,10.081702646773897,14.593406593406593,75.4970105584388,78.46153846153847,-14.918297353226103,-12.175824175824175
9.04,0.9587999999999999,-14.622623304921905,-13.186813186813186,-34.6226233049219,-31.47252747252747,10.377376695078095,13.89010989010989,75.78445338781586,77.84615384615384,-14.622623304921905,-12.791208791208792
9.06,0.9607,-14.11413713362813,-13.626373626373626,-34.114137133628134,-32.0,10.88586286637187,13.362637362637363,76.27878390012856,77.49450549450549,-14.11413713362813,-13.23076923076923
9.08,0.9626,-13.398989489717632,-13.802197802197803,-33.398989489717636,-32.35164835164835,11.601010510282368,13.098901098901099,76.97402267190088,77.23076923076923,-13.398989489717632,-13.494505494505495
9.1,0.9644999999999999,-12.486424906130326,-13.802197802197803,-32.486424906130324,-32.527472527472526,12.513575093869674,13.010989010989011,77.86118252715389,77.14285714285714,-12.486424906130326,-13.494505494505495
9.12,0.9663999999999999,-11.38868796738618,-13.714285714285714,-31.38868796738618,-32.527472527472526,13.61131203261382,13.010989010989011,78.92835975624801,77.23076923076923,-11.38868796738618,-13.406593406593407
9.14,0.9683,-10.120883015803638,-13.362637362637363,-30.12088301580364,-32.35164835164835,14.879116984196362,13.098901098901099,80.16087050405024,77.49450549450549,-10.120883015803638,-13.23076923076923
9.16,0.9702,-8.700788503586923,-12.923076923076923,-28.70078850358692,-32.0,16.29921149641308,13.45054945054945,81.54143124962648,77.93406593406593,-8.700788503586923,-12.703296703296703
9.18,0.9721,-7.148627820401131,-12.219780219780219,-27.14862782040113,-31.47252747252747,17.85137217959887,13.978021978021978,83.05038159877488,78.54945054945055,-7.148627820401131,-12.087912087912088
9.2,0.9739999999999999,-5.486799139880067,-11.428571428571429,-25.486799139880066,-30.681318681318682,19.513200860119934,14.68131868131868,84.66594691676129,79.25274725274726,-5.486799139880067,-11.208791208791208
9.22,0.9759000000000001,-3.7395675237546393,-10.461538461538462,-23.73956752375464,-29.802197802197803,21.26043247624536,15.472527472527473,86.36453765273085,80.13186813186813,-3.7395675237546393,-10.32967032967033
9.24,0.9778,-1.9327231874094395,-9.31868131868132,-21.93272318740944,-28.65934065934066,23.06727681259056,16.615384615384617,88.12108156066496,81.18681318681318,-1.9327231874094395,-9.186813186813186
9.26,0.9797,-0.09321045414745958,-8.087912087912088,-20.09321045414746,-27.428571428571427,24.90678954585254,17.846153846153847,89.90938441563833,82.32967032967034,-0.09321045414745958,-7.956043956043956
9.28,0.9815999999999999,1.7512675039615364,-6.769230769230769,-18.248732496038464,-26.021978021978022,26.751267503961536,19.164835164835164,91.70251426941901,83.64835164835165,1.7512675039615364,-6.549450549450549
9.3,0.9835,3.5726625339115747,-5.274725274725275,-16.427337466088424,-24.439560439560438,28.572662533911576,20.65934065934066,93.47320379670379,84.96703296703296,3.5726625339115747,-5.142857142857143
9.32,0.9854,5.343007940542871,-3.78021978021978,-14.656992059457128,-22.857142857142858,30.343007940542872,22.24175824175824,95.19426486234461,86.37362637362638,5.343007940542871,-3.7362637362637363
9.34,0.9873,7.034851108834849,-2.197802197802198,-12.96514889116515,-21.186813186813186,32.03485110883485,23.824175824175825,96.8390090999442,87.6043956043956,7.034851108834849,-2.241758241758242
9.36,0.9892,8.62168566413685,-0.43956043956043955,-11.37831433586315,-19.604395604395606,33.62168566413685,25.494505494505493,98.38166804125245,88.92307692307692,8.62168566413685,-0.5714285714285714
9.38,0.9911000000000001,10.078376365397215,1.3186813186813187,-9.921623634602785,-17.934065934065934,35.07837636539722,27.164835164835164,99.797806180866,90.68131868131869,10.078376365397215,1.010989010989011
9.4,0.993,11.381569871635387,3.076923076923077,-8.618430128364613,-16.175824175824175,36.381569871635385,28.835164835164836,101.06472030744334,92.43956043956044,11.381569871635387,2.769230769230769
9.42,0.9949,12.510084575923935,4.835164835164835,-7.489915424076065,-14.505494505494505,37.51008457592393,30.505494505494507,102.16181848516561,94.02197802197803,12.510084575923935,4.43956043956044
9.44,0.9967999999999999,13.445272866665613,6.593406593406593,-6.554727133334387,-12.923076923076923,38.44527286666561,32.175824175824175,103.07097223008444,95.6043956043956,13.445272866665613,6.021978021978022
9.46,0.9987,14.171349453865417,8.087912087912088,-5.8286505461345826,-11.340659340659341,39.17134945386542,33.67032967032967,103.77683569617538,97.0989010989011,14.171349453865417,7.604395604395604
9.48,1.0006000000000002,14.675679787474186,9.494505494505495,-5.324320212525814,-10.021978021978022,39.67567978747419,34.989010989010985,104.26712606445292,98.41758241758242,14.675679787474186,9.010989010989011
9.5,1.0025,14.949023092909973,10.637362637362637,-5.050976907090027,-8.703296703296703,39.949023092909975,36.21978021978022,104.53285981266778,99.64835164835165,14.949023092909973,10.241758241758241
9.52,1.0044,14.985725150794064,11.692307692307692,-5.014274849205936,-7.648351648351649,39.98572515079407,37.27472527472528,104.56854012828111,100.61538461538461,14.985725150794064,11.208791208791208
9.54,1.0063,14.783856647137458,12.483516483516484,-5.216143352862542,-6.857142857142857,39.783856647137455,38.065934065934066,104.37229140714388,101.4065934065934,14.783856647137458,12.087912087912088
9.56,1.0082,14.34529370814899,13.010989010989011,-5.65470629185101,-6.241758241758242,39.345293708148986,38.68131868131868,103.9459375463104,102.02197802197803,14.34529370814899,12.703296703296703
9.58,1.0101,13.67573810018615,13.362637362637363,-6.32426189981385,-5.978021978021978,38.67573810018615,38.94505494505494,103.29502158164617,102.37362637362638,13.67573810018615,13.054945054945055
9.6,1.012,12.784675508111953,13.45054945054945,-7.2153244918880475,-5.978021978021978,37.78467550811195,39.032967032967036,102.42876512766634,102.54945054945055,12.784675508111953,13.23076923076923
9.62,1.0139,11.685271290882637,13.45054945054945,-8.314728709117363,-5.978021978021978,36.68527129088264,38.94505494505494,101.35996703516575,102.54945054945055,11.685271290882637,13.23076923076923
9.64,1.0158,10.394204136608005,13.186813186813186,-9.605795863391995,-6.065934065934066,35.394204136608,38.857142857142854,100.10484167712734,102.46153846153847,10.394204136608005,12.967032967032967
9.66,1.0177,8.931439084457821,12.835164835164836,-11.068560915542179,-6.329670329670329,33.93143908445782,38.68131868131868,98.68279828943261,102.10989010989012,8.931439084457821,12.615384615384615
9.68,1.0196,7.319942430562685,12.219780219780219,-12.680057569437315,-6.681318681318682,32.31994243056268,38.24175824175824,97.11616381344811,101.49450549450549,7.319942430562685,12.0
9.7,1.0215,5.585342071698203,11.516483516483516,-14.414657928301796,-7.208791208791209,30.585342071698204,37.53846153846154,95.42985269534323,100.79120879120879,5.585342071698203,11.208791208791208
9.72,1.0234,3.755537845888057,10.637362637362637,-16.244462154111943,-8.0,28.755537845888057,36.65934065934066,93.65098807435417,99.91208791208791,3.755537845888057,10.32967032967033
9.74,1.0253,1.8602673848561462,9.582417582417582,-18.139732615143853,-8.967032967032967,26.860267384856147,35.604395604395606,91.80847972139495,98.85714285714286,1.8602673848561462,9.186813186813186
9.76,1.0272000000000001,-0.06936611855472688,8.263736263736265,-20.069366118554726,-10.10989010989011,24.930633881445274,34.46153846153846,89.93256495287757,97.71428571428571,-0.06936611855472688,7.868131868131868
9.78,1.0291,-2.0013970217662482,6.857142857142857,-22.00139702176625,-11.428571428571429,22.99860297823375,33.142857142857146,88.05431952535984,96.3956043956044,-2.0013970217662482,6.549450549450549
9.8,1.0310000000000001,-3.903523315033023,5.362637362637362,-23.903523315033024,-12.835164835164836,21.096476684966976,31.824175824175825,86.20514619849904,94.9010989010989,-3.903523315033023,5.054945054945055
