TigerWuu/newton/newton/examples/diffsim/gt/chirp_traj/20260616_133149/chirp_02_wrist_flex.csv
t,freq_hz,shoulder_pan_cmd,shoulder_pan_pos,shoulder_lift_cmd,shoulder_lift_pos,elbow_flex_cmd,elbow_flex_pos,wrist_flex_cmd,wrist_flex_pos,wrist_roll_cmd,wrist_roll_pos
0.0,0.1,0.0,0.17582417582417584,-20.0,-19.604395604395606,25.0,27.076923076923077,90.0,89.45054945054945,0.0,-0.3076923076923077
0.02,0.1019,0.0,0.17582417582417584,-20.0,-19.604395604395606,25.0,27.076923076923077,90.00018251179354,89.45054945054945,0.0,-0.3076923076923077
0.04,0.1038,0.0,0.17582417582417584,-20.0,-19.604395604395606,25.0,27.076923076923077,90.00147225911394,89.45054945054945,0.0,-0.3076923076923077
0.06,0.1057,0.0,0.17582417582417584,-20.0,-19.604395604395606,25.0,27.076923076923077,90.00500624500982,89.45054945054945,0.0,-0.3076923076923077
0.08,0.1076,0.0,0.17582417582417584,-20.0,-19.604395604395606,25.0,27.076923076923077,90.01194626555713,89.45054945054945,0.0,-0.3076923076923077
0.1,0.10950000000000001,0.0,0.17582417582417584,-20.0,-19.604395604395606,25.0,27.076923076923077,90.02347008823186,89.45054945054945,0.0,-0.3076923076923077
0.12,0.1114,0.0,0.17582417582417584,-20.0,-19.604395604395606,25.0,27.076923076923077,90.04076227036501,89.45054945054945,0.0,-0.3076923076923077
0.14,0.11330000000000001,0.0,0.17582417582417584,-20.0,-19.604395604395606,25.0,27.076923076923077,90.06500467416748,89.45054945054945,0.0,-0.3076923076923077
0.16,0.11520000000000001,0.0,0.17582417582417584,-20.0,-19.604395604395606,25.0,27.076923076923077,90.09736673875275,89.45054945054945,0.0,-0.3076923076923077
0.18,0.11710000000000001,0.0,0.17582417582417584,-20.0,-19.604395604395606,25.0,27.076923076923077,90.1389955732395,89.45054945054945,0.0,-0.3076923076923077
0.2,0.11900000000000001,0.0,0.17582417582417584,-20.0,-19.604395604395606,25.0,27.076923076923077,90.19100593835006,89.45054945054945,0.0,-0.3076923076923077
0.22,0.12090000000000001,0.0,0.17582417582417584,-20.0,-19.604395604395606,25.0,27.076923076923077,90.25447018689242,89.45054945054945,0.0,-0.3076923076923077
0.24,0.1228,0.0,0.17582417582417584,-20.0,-19.604395604395606,25.0,27.076923076923077,90.33040823608852,89.45054945054945,0.0,-0.3076923076923077
0.26,0.1247,0.0,0.17582417582417584,-20.0,-19.604395604395606,25.0,27.076923076923077,90.41977764685417,89.45054945054945,0.0,-0.3076923076923077
0.28,0.12660000000000002,0.0,0.17582417582417584,-20.0,-19.604395604395606,25.0,27.076923076923077,90.52346388680904,89.62637362637362,0.0,-0.3076923076923077
0.3,0.1285,0.0,0.17582417582417584,-20.0,-19.604395604395606,25.0,27.076923076923077,90.6422708549697,89.71428571428571,0.0,-0.3076923076923077
0.32,0.13040000000000002,0.0,0.17582417582417584,-20.0,-19.604395604395606,25.0,27.076923076923077,90.77691174672125,89.89010989010988,0.0,-0.3076923076923077
0.34,0.1323,0.0,0.17582417582417584,-20.0,-19.604395604395606,25.0,27.076923076923077,90.92800033774795,89.97802197802197,0.0,-0.3076923076923077
0.36,0.1342,0.0,0.17582417582417584,-20.0,-19.604395604395606,25.0,27.076923076923077,91.09604276510358,90.06593406593407,0.0,-0.3076923076923077
0.38,0.1361,0.0,0.17582417582417584,-20.0,-19.604395604395606,25.0,27.076923076923077,91.28142988249924,90.24175824175825,0.0,-0.3076923076923077
0.4,0.138,0.0,0.17582417582417584,-20.0,-19.604395604395606,25.0,27.076923076923077,91.48443026515821,90.41758241758242,0.0,-0.3076923076923077
0.42,0.1399,0.0,0.17582417582417584,-20.0,-19.604395604395606,25.0,27.076923076923077,91.7051839372247,90.50549450549451,0.0,-0.3076923076923077
0.44,0.1418,0.0,0.17582417582417584,-20.0,-19.604395604395606,25.0,27.076923076923077,91.94369689170293,90.68131868131869,0.0,-0.3076923076923077
0.46,0.1437,0.0,0.17582417582417584,-20.0,-19.604395604395606,25.0,27.076923076923077,92.19983646924166,90.94505494505495,0.0,-0.3076923076923077
0.48,0.1456,0.0,0.17582417582417584,-20.0,-19.604395604395606,25.0,27.076923076923077,92.47332765776812,91.12087912087912,0.0,-0.3076923076923077
0.5,0.14750000000000002,0.0,0.17582417582417584,-20.0,-19.604395604395606,25.0,27.076923076923077,92.76375037001719,91.38461538461539,0.0,-0.3076923076923077
0.52,0.1494,0.0,0.17582417582417584,-20.0,-19.604395604395606,25.0,27.076923076923077,93.07053775041027,91.56043956043956,0.0,-0.3076923076923077
0.54,0.15130000000000002,0.0,0.17582417582417584,-20.0,-19.604395604395606,25.0,27.076923076923077,93.39297555652884,91.82417582417582,0.0,-0.3076923076923077
0.56,0.1532,0.0,0.17582417582417584,-20.0,-19.604395604395606,25.0,27.076923076923077,93.73020265362295,92.08791208791209,0.0,-0.3076923076923077
0.58,0.15510000000000002,0.0,0.17582417582417584,-20.0,-19.604395604395606,25.0,27.076923076923077,94.08121265322372,92.35164835164835,0.0,-0.3076923076923077
0.6,0.157,0.0,0.17582417582417584,-20.0,-19.604395604395606,25.0,27.076923076923077,94.44485671902592,92.7032967032967,0.0,-0.3076923076923077
0.62,0.1589,0.0,0.17582417582417584,-20.0,-19.604395604395606,25.0,27.076923076923077,94.81984755481317,92.96703296703296,0.0,-0.3076923076923077
0.64,0.1608,0.0,0.17582417582417584,-20.0,-19.604395604395606,25.0,27.076923076923077,95.20476458035958,93.31868131868131,0.0,-0.3076923076923077
0.66,0.1627,0.0,0.17582417582417584,-20.0,-19.604395604395606,25.0,27.076923076923077,95.59806029201413,93.67032967032966,0.0,-0.3076923076923077
0.68,0.16460000000000002,0.0,0.17582417582417584,-20.0,-19.604395604395606,25.0,27.076923076923077,95.99806779511195,94.02197802197803,0.0,-0.3076923076923077
0.7,0.16649999999999998,0.0,0.17582417582417584,-20.0,-19.604395604395606,25.0,27.076923076923077,96.4030094855295,94.37362637362638,0.0,-0.3076923076923077
0.72,0.1684,0.0,0.17582417582417584,-20.0,-19.604395604395606,25.0,27.076923076923077,96.81100684767475,94.63736263736264,0.0,-0.3076923076923077
0.74,0.1703,0.0,0.17582417582417584,-20.0,-19.604395604395606,25.0,27.076923076923077,97.22009132605606,95.07692307692308,0.0,-0.3076923076923077
0.76,0.17220000000000002,0.0,0.17582417582417584,-20.0,-19.604395604395606,25.0,27.076923076923077,97.62821621738358,95.42857142857143,0.0,-0.3076923076923077
0.78,0.1741,0.0,0.17582417582417584,-20.0,-19.604395604395606,25.0,27.076923076923077,98.03326952000955,95.86813186813187,0.0,-0.3076923076923077
0.8,0.17600000000000002,0.0,0.17582417582417584,-20.0,-19.604395604395606,25.0,27.076923076923077,98.4330876674958,96.21978021978022,0.0,-0.3076923076923077
0.82,0.1779,0.0,0.17582417582417584,-20.0,-19.604395604395606,25.0,27.076923076923077,98.82547006329965,96.57142857142857,0.0,-0.3076923076923077
0.84,0.17980000000000002,0.0,0.17582417582417584,-20.0,-19.604395604395606,25.0,27.076923076923077,99.20819432408757,97.01098901098901,0.0,-0.3076923076923077
0.86,0.1817,0.0,0.17582417582417584,-20.0,-19.604395604395606,25.0,27.076923076923077,99.57903213011207,97.36263736263736,0.0,-0.3076923076923077
0.88,0.1836,0.0,0.17582417582417584,-20.0,-19.604395604395606,25.0,27.076923076923077,99.9357655725211,97.8021978021978,0.0,-0.3076923076923077
0.9,0.1855,0.0,0.17582417582417584,-20.0,-19.604395604395606,25.0,27.076923076923077,100.2762038795043,98.24175824175825,0.0,-0.3076923076923077
0.92,0.1874,0.0,0.17582417582417584,-20.0,-19.604395604395606,25.0,27.076923076923077,100.59820039591354,98.50549450549451,0.0,-0.3076923076923077
0.94,0.1893,0.0,0.17582417582417584,-20.0,-19.604395604395606,25.0,27.076923076923077,100.89966968452055,98.94505494505495,0.0,-0.3076923076923077
0.96,0.1912,0.0,0.17582417582417584,-20.0,-19.604395604395606,25.0,27.076923076923077,101.17860461148236,99.2967032967033,0.0,-0.3076923076923077
0.98,0.1931,0.0,0.17582417582417584,-20.0,-19.604395604395606,25.0,27.076923076923077,101.43309327396538,99.56043956043956,0.0,-0.3076923076923077
1.0,0.195,0.0,0.17582417582417584,-20.0,-19.604395604395606,25.0,27.076923076923077,101.66133562431175,99.91208791208791,0.0,-0.3076923076923077
1.02,0.19690000000000002,0.0,0.17582417582417584,-20.0,-19.604395604395606,25.0,27.076923076923077,101.87337433871836,100.26373626373626,0.0,-0.3076923076923077
1.04,0.1988,0.0,0.17582417582417584,-20.0,-19.604395604395606,25.0,27.076923076923077,102.08016476265658,100.43956043956044,0.0,-0.3076923076923077
1.06,0.20070000000000002,0.0,0.17582417582417584,-20.0,-19.604395604395606,25.0,27.076923076923077,102.28136580117305,100.79120879120879,0.0,-0.3076923076923077
1.08,0.2026,0.0,0.17582417582417584,-20.0,-19.604395604395606,25.0,27.076923076923077,102.47663170020297,100.96703296703296,0.0,-0.3076923076923077
1.1,0.20450000000000002,0.0,0.17582417582417584,-20.0,-19.604395604395606,25.0,27.076923076923077,102.66561241449942,101.23076923076923,0.0,-0.3076923076923077
1.12,0.20640000000000003,0.0,0.17582417582417584,-20.0,-19.604395604395606,25.0,27.076923076923077,102.84795400222013,101.4065934065934,0.0,-0.3076923076923077
1.14,0.20829999999999999,0.0,0.17582417582417584,-20.0,-19.604395604395606,25.0,27.076923076923077,103.0232990466693,101.67032967032966,0.0,-0.3076923076923077
1.16,0.2102,0.0,0.17582417582417584,-20.0,-19.604395604395606,25.0,27.076923076923077,103.1912871056496,101.93406593406593,0.0,-0.3076923076923077
1.18,0.2121,0.0,0.17582417582417584,-20.0,-19.604395604395606,25.0,27.076923076923077,103.35155518883425,102.10989010989012,0.0,-0.3076923076923077
1.2,0.214,0.0,0.17582417582417584,-20.0,-19.604395604395606,25.0,27.076923076923077,103.50373826351782,102.28571428571429,0.0,-0.3076923076923077
1.22,0.2159,0.0,0.17582417582417584,-20.0,-19.604395604395606,25.0,27.076923076923077,103.6474697890511,102.46153846153847,0.0,-0.3076923076923077
1.24,0.2178,0.0,0.17582417582417584,-20.0,-19.604395604395606,25.0,27.076923076923077,103.7823822802061,102.63736263736264,0.0,-0.3076923076923077
1.26,0.2197,0.0,0.17582417582417584,-20.0,-19.604395604395606,25.0,27.076923076923077,103.90810789965461,102.81318681318682,0.0,-0.3076923076923077
1.28,0.22160000000000002,0.0,0.17582417582417584,-20.0,-19.604395604395606,25.0,27.076923076923077,104.02427907967619,102.98901098901099,0.0,-0.3076923076923077
1.3,0.22350000000000003,0.0,0.17582417582417584,-20.0,-19.604395604395606,25.0,27.076923076923077,104.1305291731395,103.16483516483517,0.0,-0.3076923076923077
1.32,0.22540000000000002,0.0,0.17582417582417584,-20.0,-19.604395604395606,25.0,27.076923076923077,104.22649313372439,103.25274725274726,0.0,-0.3076923076923077
1.34,0.2273,0.0,0.17582417582417584,-20.0,-19.604395604395606,25.0,27.076923076923077,104.31180822527097,103.34065934065934,0.0,-0.3076923076923077
1.36,0.22920000000000001,0.0,0.17582417582417584,-20.0,-19.604395604395606,25.0,27.076923076923077,104.38611476005595,103.42857142857143,0.0,-0.3076923076923077
1.38,0.2311,0.0,0.17582417582417584,-20.0,-19.604395604395606,25.0,27.076923076923077,104.44905686570615,103.6043956043956,0.0,-0.3076923076923077
1.4,0.23299999999999998,0.0,0.17582417582417584,-20.0,-19.604395604395606,25.0,27.076923076923077,104.50028328036376,103.6923076923077,0.0,-0.3076923076923077
1.42,0.2349,0.0,0.17582417582417584,-20.0,-19.604395604395606,25.0,27.076923076923077,104.53944817561779,103.78021978021978,0.0,-0.3076923076923077
1.44,0.2368,0.0,0.17582417582417584,-20.0,-19.604395604395606,25.0,27.076923076923077,104.56621200661215,103.78021978021978,0.0,-0.3076923076923077
1.46,0.2387,0.0,0.17582417582417584,-20.0,-19.604395604395606,25.0,27.076923076923077,104.58024238863098,103.78021978021978,0.0,-0.3076923076923077
1.48,0.2406,0.0,0.17582417582417584,-20.0,-19.604395604395606,25.0,27.076923076923077,104.58121499934853,103.86813186813187,0.0,-0.3076923076923077
1.5,0.24250000000000002,0.0,0.17582417582417584,-20.0,-19.604395604395606,25.0,27.076923076923077,104.56881450581268,103.86813186813187,0.0,-0.3076923076923077
1.52,0.2444,0.0,0.17582417582417584,-20.0,-19.604395604395606,25.0,27.076923076923077,104.5427355151086,103.86813186813187,0.0,-0.3076923076923077
1.54,0.24630000000000002,0.0,0.17582417582417584,-20.0,-19.604395604395606,25.0,27.076923076923077,104.5026835475226,103.86813186813187,0.0,-0.3076923076923077
1.56,0.2482,0.0,0.17582417582417584,-20.0,-19.604395604395606,25.0,27.076923076923077,104.44837603089526,103.86813186813187,0.0,-0.3076923076923077
1.58,0.2501,0.0,0.17582417582417584,-20.0,-19.604395604395606,25.0,27.076923076923077,104.379543314719,103.86813186813187,0.0,-0.3076923076923077
1.6,0.252,0.0,0.17582417582417584,-20.0,-19.604395604395606,25.0,27.076923076923077,104.29592970239612,103.86813186813187,0.0,-0.3076923076923077
1.62,0.2539,0.0,0.17582417582417584,-20.0,-19.604395604395606,25.0,27.076923076923077,104.19729449993321,103.86813186813187,0.0,-0.3076923076923077
1.64,0.2558,0.0,0.17582417582417584,-20.0,-19.604395604395606,25.0,27.076923076923077,104.08341307920207,103.86813186813187,0.0,-0.3076923076923077
1.66,0.25770000000000004,0.0,0.17582417582417584,-20.0,-19.604395604395606,25.0,27.076923076923077,103.95407795375078,103.86813186813187,0.0,-0.3076923076923077
1.68,0.2596,0.0,0.17582417582417584,-20.0,-19.604395604395606,25.0,27.076923076923077,103.80909986499846,103.86813186813187,0.0,-0.3076923076923077
1.7,0.2615,0.0,0.17582417582417584,-20.0,-19.604395604395606,25.0,27.076923076923077,103.64830887649535,103.78021978021978,0.0,-0.3076923076923077
1.72,0.26339999999999997,0.0,0.17582417582417584,-20.0,-19.604395604395606,25.0,27.076923076923077,103.47155547377693,103.78021978021978,0.0,-0.3076923076923077
1.74,0.2653,0.0,0.17582417582417584,-20.0,-19.604395604395606,25.0,27.076923076923077,103.27871166718539,103.78021978021978,0.0,-0.3076923076923077
1.76,0.2672,0.0,0.17582417582417584,-20.0,-19.604395604395606,25.0,27.076923076923077,103.06967209487699,103.78021978021978,0.0,-0.3076923076923077
1.78,0.2691,0.0,0.17582417582417584,-20.0,-19.604395604395606,25.0,27.076923076923077,102.84435512307806,103.6923076923077,0.0,-0.3076923076923077
1.8,0.271,0.0,0.17582417582417584,-20.0,-19.604395604395606,25.0,27.076923076923077,102.60270394049692,103.6043956043956,0.0,-0.3076923076923077
1.82,0.27290000000000003,0.0,0.17582417582417584,-20.0,-19.604395604395606,25.0,27.076923076923077,102.344687643645,103.42857142857143,0.0,-0.3076923076923077
1.84,0.27480000000000004,0.0,0.17582417582417584,-20.0,-19.604395604395606,25.0,27.076923076923077,102.0703023096673,103.16483516483517,0.0,-0.3076923076923077
1.86,0.27670000000000006,0.0,0.17582417582417584,-20.0,-19.604395604395606,25.0,27.076923076923077,101.7795720531321,102.98901098901099,0.0,-0.3076923076923077
1.88,0.27859999999999996,0.0,0.17582417582417584,-20.0,-19.604395604395606,25.0,27.076923076923077,101.47255006308173,102.72527472527473,0.0,-0.3076923076923077
1.9,0.28049999999999997,0.0,0.17582417582417584,-20.0,-19.604395604395606,25.0,27.076923076923077,101.14931961650223,102.46153846153847,0.0,-0.3076923076923077
1.92,0.2824,0.0,0.17582417582417584,-20.0,-19.604395604395606,25.0,27.076923076923077,100.80999506423036,102.1978021978022,0.0,-0.3076923076923077
1.94,0.2843,0.0,0.17582417582417584,-20.0,-19.604395604395606,25.0,27.076923076923077,100.45472278518136,101.93406593406593,0.0,-0.3076923076923077
1.96,0.2862,0.0,0.17582417582417584,-20.0,-19.604395604395606,25.0,27.076923076923077,100.08368210465264,101.67032967032966,0.0,-0.3076923076923077
1.98,0.2881,0.0,0.17582417582417584,-20.0,-19.604395604395606,25.0,27.076923076923077,99.69708617233717,101.31868131868131,0.0,-0.3076923076923077
2.0,0.29000000000000004,0.0,0.17582417582417584,-20.0,-19.604395604395606,25.0,27.076923076923077,99.29518279556606,100.96703296703296,0.0,-0.3076923076923077
2.02,0.29190000000000005,0.0,0.17582417582417584,-20.0,-19.604395604395606,25.0,27.076923076923077,98.87825522319498,100.7032967032967,0.0,-0.3076923076923077
2.04,0.2938,0.0,0.17582417582417584,-20.0,-19.604395604395606,25.0,27.076923076923077,98.44662287545376,100.35164835164835,0.0,-0.3076923076923077
2.06,0.2957,0.0,0.17582417582417584,-20.0,-19.604395604395606,25.0,27.076923076923077,98.00064201499298,99.91208791208791,0.0,-0.3076923076923077
2.08,0.2976,0.0,0.17582417582417584,-20.0,-19.604395604395606,25.0,27.076923076923077,97.54070635428937,99.56043956043956,0.0,-0.3076923076923077
2.1,0.2995,0.0,0.17582417582417584,-20.0,-19.604395604395606,25.0,27.076923076923077,97.06724759450995,99.12087912087912,0.0,-0.3076923076923077
2.12,0.3014,0.0,0.17582417582417584,-20.0,-19.604395604395606,25.0,27.076923076923077,96.58073589088896,98.76923076923077,0.0,-0.3076923076923077
2.14,0.3033,0.0,0.17582417582417584,-20.0,-19.604395604395606,25.0,27.076923076923077,96.08168023963917,98.32967032967034,0.0,-0.3076923076923077
2.16,0.3052,0.0,0.17582417582417584,-20.0,-19.604395604395606,25.0,27.076923076923077,95.5706287814027,97.89010989010988,0.0,-0.3076923076923077
2.18,0.30710000000000004,0.0,0.17582417582417584,-20.0,-19.604395604395606,25.0,27.076923076923077,95.04816901624746,97.36263736263736,0.0,-0.3076923076923077
2.2,0.30900000000000005,0.0,0.17582417582417584,-20.0,-19.604395604395606,25.0,27.076923076923077,94.51492792523307,96.92307692307692,0.0,-0.3076923076923077
2.22,0.31090000000000007,0.0,0.17582417582417584,-20.0,-19.604395604395606,25.0,27.076923076923077,93.97157199360834,96.3956043956044,0.0,-0.3076923076923077
2.24,0.3128,0.0,0.17582417582417584,-20.0,-19.604395604395606,25.0,27.076923076923077,93.41880713075922,95.95604395604396,0.0,-0.3076923076923077
2.26,0.3147,0.0,0.17582417582417584,-20.0,-19.604395604395606,25.0,27.076923076923077,92.85737848210486,95.42857142857143,0.0,-0.3076923076923077
2.28,0.3166,0.0,0.17582417582417584,-20.0,-19.604395604395606,25.0,27.076923076923077,92.28807012823998,94.9010989010989,0.0,-0.3076923076923077
2.3,0.3185,0.0,0.17582417582417584,-20.0,-19.604395604395606,25.0,27.076923076923077,91.71170466674536,94.37362637362638,0.0,-0.3076923076923077
2.32,0.3204,0.0,0.17582417582417584,-20.0,-19.604395604395606,25.0,27.076923076923077,91.12914267223584,93.84615384615384,0.0,-0.3076923076923077
2.34,0.32230000000000003,0.0,0.17582417582417584,-20.0,-19.604395604395606,25.0,27.076923076923077,90.54128203038753,93.31868131868131,0.0,-0.3076923076923077
2.36,0.3242,0.0,0.17582417582417584,-20.0,-19.604395604395606,25.0,27.076923076923077,89.94905714188488,92.79120879120879,0.0,-0.3076923076923077
2.38,0.3261,0.0,0.17582417582417584,-20.0,-19.604395604395606,25.0,27.076923076923077,89.35343799245214,92.17582417582418,0.0,-0.3076923076923077
2.4,0.32799999999999996,0.0,0.17582417582417584,-20.0,-19.604395604395606,25.0,27.076923076923077,88.7554290853869,91.56043956043956,0.0,-0.3076923076923077
2.42,0.32989999999999997,0.0,0.17582417582417584,-20.0,-19.604395604395606,25.0,27.076923076923077,88.15606823329306,91.03296703296704,0.0,-0.3076923076923077
2.44,0.3318,0.0,0.17582417582417584,-20.0,-19.604395604395606,25.0,27.076923076923077,87.55642520601968,90.41758241758242,0.0,-0.3076923076923077
2.46,0.3337,0.0,0.17582417582417584,-20.0,-19.604395604395606,25.0,27.076923076923077,86.95760023214979,89.8021978021978,0.0,-0.3076923076923077
2.48,0.3356,0.0,0.17582417582417584,-20.0,-19.604395604395606,25.0,27.076923076923077,86.36072235175116,89.27472527472527,0.0,-0.3076923076923077
2.5,0.3375,0.0,0.17582417582417584,-20.0,-19.604395604395606,25.0,27.076923076923077,85.76694761849812,88.74725274725274,0.0,-0.3076923076923077
2.52,0.33940000000000003,0.0,0.17582417582417584,-20.0,-19.604395604395606,25.0,27.076923076923077,85.17745714970086,88.21978021978022,0.0,-0.3076923076923077
2.54,0.34130000000000005,0.0,0.17582417582417584,-20.0,-19.604395604395606,25.0,27.076923076923077,84.5934550232365,87.6923076923077,0.0,-0.3076923076923077
2.56,0.3432,0.0,0.17582417582417584,-20.0,-19.604395604395606,25.0,27.076923076923077,84.01616602086332,87.25274725274726,0.0,-0.3076923076923077
2.58,0.3451,0.0,0.17582417582417584,-20.0,-19.604395604395606,25.0,27.076923076923077,83.44683321791769,86.72527472527473,0.0,-0.3076923076923077
2.6,0.34700000000000003,0.0,0.17582417582417584,-20.0,-19.604395604395606,25.0,27.076923076923077,82.88671541993975,86.10989010989012,0.0,-0.3076923076923077
2.62,0.3489,0.0,0.17582417582417584,-20.0,-19.604395604395606,25.0,27.076923076923077,82.33708444735062,85.4065934065934,0.0,-0.13186813186813187
2.64,0.3508,0.0,0.17582417582417584,-20.0,-19.604395604395606,25.0,27.076923076923077,81.79922226990772,84.79120879120879,0.0,0.04395604395604396
2.66,0.3527,0.0,0.17582417582417584,-20.0,-19.604395604395606,25.0,27.076923076923077,81.27441799329782,84.17582417582418,0.0,0.04395604395604396
2.68,0.3546,0.0,0.17582417582417584,-20.0,-19.604395604395606,25.0,27.076923076923077,80.76396470088564,83.56043956043956,0.0,0.04395604395604396
2.7,0.35650000000000004,0.0,0.17582417582417584,-20.0,-19.604395604395606,25.0,27.076923076923077,80.26915615431976,83.03296703296704,0.0,0.04395604395604396
2.72,0.35840000000000005,0.0,0.17582417582417584,-20.0,-19.604395604395606,25.0,27.076923076923077,79.79128335740648,82.41758241758242,0.0,0.04395604395604396
2.74,0.36030000000000006,0.0,0.17582417582417584,-20.0,-19.604395604395606,25.0,27.076923076923077,79.33163098839168,81.97802197802197,0.0,0.04395604395604396
2.76,0.36219999999999997,0.0,0.17582417582417584,-20.0,-19.604395604395606,25.0,27.076923076923077,78.89147370654273,81.45054945054945,0.0,0.04395604395604396
2.78,0.3641,0.0,0.17582417582417584,-20.0,-19.604395604395606,25.0,27.076923076923077,78.47207233969155,80.92307692307692,0.0,0.04395604395604396
2.8,0.366,0.0,0.17582417582417584,-20.0,-19.604395604395606,25.0,27.076923076923077,78.07466996018627,80.3956043956044,0.0,0.04395604395604396
2.82,0.3679,0.0,0.17582417582417584,-20.0,-19.604395604395606,25.0,27.076923076923077,77.70048785749808,79.95604395604396,0.0,0.04395604395604396
2.84,0.3698,0.0,0.17582417582417584,-20.0,-19.604395604395606,25.0,27.076923076923077,77.35072141654194,79.51648351648352,0.0,0.04395604395604396
2.86,0.37170000000000003,0.0,0.17582417582417584,-20.0,-19.604395604395606,25.0,27.076923076923077,77.0265359115881,79.07692307692308,0.0,0.04395604395604396
2.88,0.37360000000000004,0.0,0.17582417582417584,-20.0,-19.604395604395606,25.0,27.076923076923077,76.72906222646635,78.63736263736264,0.0,0.04395604395604396
2.9,0.37549999999999994,0.0,0.17582417582417584,-20.0,-19.604395604395606,25.0,27.076923076923077,76.45939251259115,78.28571428571429,0.0,0.04395604395604396
2.92,0.37739999999999996,0.0,0.17582417582417584,-20.0,-19.604395604395606,25.0,27.076923076923077,76.2185757971599,77.93406593406593,0.0,0.04395604395604396
2.94,0.37929999999999997,0.0,0.17582417582417584,-20.0,-19.604395604395606,25.0,27.076923076923077,76.00761355469577,77.58241758241758,0.0,0.04395604395604396
2.96,0.3812,0.0,0.17582417582417584,-20.0,-19.604395604395606,25.0,27.076923076923077,75.82745525591548,77.31868131868131,0.0,0.04395604395604396
2.98,0.3831,0.0,0.17582417582417584,-20.0,-19.604395604395606,25.0,27.076923076923077,75.67899390869768,76.96703296703296,0.0,0.04395604395604396
3.0,0.385,0.0,0.17582417582417584,-20.0,-19.604395604395606,25.0,27.076923076923077,75.56306160670471,76.7032967032967,0.0,0.04395604395604396
3.02,0.3869,0.0,0.17582417582417584,-20.0,-19.604395604395606,25.0,27.076923076923077,75.48042510196431,76.52747252747253,0.0,0.04395604395604396
3.04,0.38880000000000003,0.0,0.17582417582417584,-20.0,-19.604395604395606,25.0,27.076923076923077,75.43178141844433,76.35164835164835,0.0,0.04395604395604396
3.06,0.39070000000000005,0.0,0.17582417582417584,-20.0,-19.604395604395606,25.0,27.076923076923077,75.41775352434661,76.17582417582418,0.0,0.04395604395604396
3.08,0.39260000000000006,0.0,0.17582417582417584,-20.0,-19.604395604395606,25.0,27.076923076923077,75.43888608150205,76.08791208791209,0.0,0.04395604395604396
3.1,0.3945000000000001,0.0,0.17582417582417584,-20.0,-19.604395604395606,25.0,27.076923076923077,75.49564129086096,76.08791208791209,0.0,0.04395604395604396
3.12,0.3964,0.0,0.17582417582417584,-20.0,-19.604395604395606,25.0,27.076923076923077,75.58839485363643,76.08791208791209,0.0,0.04395604395604396
3.14,0.3983,0.0,0.17582417582417584,-20.0,-19.604395604395606,25.0,27.076923076923077,75.7174320681683,76.08791208791209,0.0,0.04395604395604396
3.16,0.4002,0.0,0.17582417582417584,-20.0,-19.604395604395606,25.0,27.076923076923077,75.88294408302478,76.08791208791209,0.0,0.04395604395604396
3.18,0.4021,0.0,0.17582417582417584,-20.0,-19.604395604395606,25.0,27.076923076923077,76.0850243272432,76.08791208791209,0.0,0.04395604395604396
3.2,0.404,0.0,0.17582417582417584,-20.0,-19.604395604395606,25.0,27.076923076923077,76.32366513892518,76.08791208791209,0.0,0.04395604395604396
3.22,0.40590000000000004,0.0,0.17582417582417584,-20.0,-19.604395604395606,25.0,27.076923076923077,76.59875461363762,76.08791208791209,0.0,0.04395604395604396
3.24,0.40780000000000005,0.0,0.17582417582417584,-20.0,-19.604395604395606,25.0,27.076923076923077,76.91007369422569,76.08791208791209,0.0,0.04395604395604396
3.26,0.40969999999999995,0.0,0.17582417582417584,-20.0,-19.604395604395606,25.0,27.076923076923077,77.25729352370993,76.08791208791209,0.0,0.04395604395604396
3.28,0.41159999999999997,0.0,0.17582417582417584,-20.0,-19.604395604395606,25.0,27.076923076923077,77.63997308291326,76.35164835164835,0.0,0.04395604395604396
3.3,0.4135,0.0,0.17582417582417584,-20.0,-19.604395604395606,25.0,27.076923076923077,78.05755713433717,76.61538461538461,0.0,0.04395604395604396
3.32,0.4154,0.0,0.17582417582417584,-20.0,-19.604395604395606,25.0,27.076923076923077,78.50937449357733,76.87912087912088,0.0,0.04395604395604396
3.34,0.4173,0.0,0.17582417582417584,-20.0,-19.604395604395606,25.0,27.076923076923077,78.99463664923027,77.14285714285714,0.0,0.04395604395604396
3.36,0.4192,0.0,0.17582417582417584,-20.0,-19.604395604395606,25.0,27.076923076923077,79.5124367517906,77.49450549450549,0.0,0.04395604395604396
3.38,0.42110000000000003,0.0,0.17582417582417584,-20.0,-19.604395604395606,25.0,27.076923076923077,80.0617489914687,77.84615384615384,0.0,0.04395604395604396
3.4,0.42300000000000004,0.0,0.17582417582417584,-20.0,-19.604395604395606,25.0,27.076923076923077,80.64142838416639,78.28571428571429,0.0,0.04395604395604396
3.42,0.42490000000000006,0.0,0.17582417582417584,-20.0,-19.604395604395606,25.0,27.076923076923077,81.25021098403163,78.63736263736264,0.0,0.04395604395604396
3.44,0.42679999999999996,0.0,0.17582417582417584,-20.0,-19.604395604395606,25.0,27.076923076923077,81.88671454006565,79.16483516483517,0.0,0.04395604395604396
3.46,0.42869999999999997,0.0,0.17582417582417584,-20.0,-19.604395604395606,25.0,27.076923076923077,82.54943961317946,79.6923076923077,0.0,0.04395604395604396
3.48,0.4306,0.0,0.17582417582417584,-20.0,-19.604395604395606,25.0,27.076923076923077,83.23677116888346,80.21978021978022,0.0,0.04395604395604396
3.5,0.4325,0.0,0.17582417582417584,-20.0,-19.604395604395606,25.0,27.076923076923077,83.94698065944864,80.74725274725274,0.0,0.04395604395604396
3.52,0.4344,0.0,0.17582417582417584,-20.0,-19.604395604395606,25.0,27.076923076923077,84.67822860789245,81.36263736263736,0.0,0.04395604395604396
3.54,0.4363,0.0,0.17582417582417584,-20.0,-19.604395604395606,25.0,27.076923076923077,85.42856770452367,82.06593406593407,0.0,0.04395604395604396
3.56,0.43820000000000003,0.0,0.17582417582417584,-20.0,-19.604395604395606,25.0,27.076923076923077,86.195946425023,82.68131868131869,0.0,0.04395604395604396
3.58,0.44010000000000005,0.0,0.17582417582417584,-20.0,-19.604395604395606,25.0,27.076923076923077,86.97821317714462,83.38461538461539,0.0,0.04395604395604396
3.6,0.44200000000000006,0.0,0.17582417582417584,-20.0,-19.604395604395606,25.0,27.076923076923077,87.77312098109896,84.0,0.0,0.04395604395604396
3.62,0.4439000000000001,0.0,0.17582417582417584,-20.0,-19.604395604395606,25.0,27.076923076923077,88.57833268652054,84.7032967032967,0.0,0.04395604395604396
3.64,0.4458,0.0,0.17582417582417584,-20.0,-19.604395604395606,25.0,27.076923076923077,89.39142672664323,85.4065934065934,0.0,0.04395604395604396
3.66,0.4477,0.0,0.17582417582417584,-20.0,-19.604395604395606,25.0,27.076923076923077,90.20990340789987,86.1978021978022,0.0,0.04395604395604396
3.68,0.4496,0.0,0.17582417582417584,-20.0,-19.604395604395606,25.0,27.076923076923077,91.03119173064205,86.98901098901099,0.0,0.04395604395604396
3.7,0.4515,0.0,0.17582417582417584,-20.0,-19.604395604395606,25.0,27.076923076923077,91.85265673404457,87.78021978021978,0.0,0.04395604395604396
3.72,0.4534,0.0,0.17582417582417584,-20.0,-19.604395604395606,25.0,27.076923076923077,92.67160735552515,88.3956043956044,0.0,0.04395604395604396
3.74,0.45530000000000004,0.0,0.17582417582417584,-20.0,-19.604395604395606,25.0,27.076923076923077,93.48530479218174,89.01098901098901,0.0,0.04395604395604396
3.76,0.45719999999999994,0.0,0.17582417582417584,-20.0,-19.604395604395606,25.0,27.076923076923077,94.2909713488377,89.62637362637362,0.0,0.04395604395604396
3.78,0.45909999999999995,0.0,0.17582417582417584,-20.0,-19.604395604395606,25.0,27.076923076923077,95.0857997542998,90.41758241758242,0.0,0.04395604395604396
3.8,0.46099999999999997,0.0,0.17582417582417584,-20.0,-19.604395604395606,25.0,27.076923076923077,95.86696292438496,91.38461538461539,0.0,-0.3076923076923077
3.82,0.4629,0.0,0.17582417582417584,-20.0,-19.604395604395606,25.0,27.076923076923077,96.63162414717654,92.26373626373626,0.0,-0.3076923076923077
3.84,0.4648,0.0,0.17582417582417584,-20.0,-19.604395604395606,25.0,27.076923076923077,97.37694766283778,93.14285714285714,0.0,-0.21978021978021978
3.86,0.4667,0.0,0.17582417582417584,-20.0,-19.604395604395606,25.0,27.076923076923077,98.1001096071585,93.93406593406593,0.0,-0.13186813186813187
3.88,0.4686,0.0,0.17582417582417584,-20.0,-19.604395604395606,25.0,27.076923076923077,98.79830928485447,94.72527472527473,0.0,-0.21978021978021978
3.9,0.47050000000000003,0.0,0.17582417582417584,-20.0,-19.604395604395606,25.0,27.076923076923077,99.46878073549495,95.51648351648352,0.0,-0.3076923076923077
3.92,0.47240000000000004,0.0,0.17582417582417584,-20.0,-19.604395604395606,25.0,27.076923076923077,100.10880455182031,96.3076923076923,0.0,-0.3076923076923077
3.94,0.47430000000000005,0.0,0.17582417582417584,-20.0,-19.604395604395606,25.0,27.076923076923077,100.71571990714766,97.01098901098901,0.0,-0.3076923076923077
3.96,0.47619999999999996,0.0,0.17582417582417584,-20.0,-19.604395604395606,25.0,27.076923076923077,101.28693674556632,97.71428571428571,0.0,-0.3076923076923077
3.98,0.47809999999999997,0.0,0.17582417582417584,-20.0,-19.604395604395606,25.0,27.076923076923077,101.81994808571886,98.41758241758242,0.0,-0.3076923076923077
4.0,0.48,0.0,0.17582417582417584,-20.0,-19.604395604395606,25.0,27.076923076923077,102.31234238616675,99.03296703296704,0.0,-0.3076923076923077
4.02,0.4819,0.0,0.17582417582417584,-20.0,-19.604395604395606,25.0,27.076923076923077,102.76181591767512,99.64835164835165,0.0,-0.3076923076923077
4.04,0.4838,0.0,0.17582417582417584,-20.0,-19.604395604395606,25.0,27.076923076923077,103.16618508524064,100.26373626373626,0.0,-0.3076923076923077
4.06,0.4857,0.0,0.17582417582417584,-20.0,-19.604395604395606,25.0,27.076923076923077,103.52339864035113,100.79120879120879,0.0,-0.3076923076923077
4.08,0.48760000000000003,0.0,0.17582417582417584,-20.0,-19.604395604395606,25.0,27.076923076923077,103.83154972183223,101.31868131868131,0.0,-0.3076923076923077
4.1,0.48949999999999994,0.0,0.17582417582417584,-20.0,-19.604395604395606,25.0,27.076923076923077,104.08888766172126,101.84615384615384,0.0,-0.3076923076923077
4.12,0.49140000000000006,0.0,0.17582417582417584,-20.0,-19.604395604395606,25.0,27.076923076923077,104.29382949094327,102.28571428571429,0.0,-0.3076923076923077
4.14,0.49329999999999996,0.0,0.17582417582417584,-20.0,-19.604395604395606,25.0,27.076923076923077,104.44497107816247,102.54945054945055,0.0,-0.3076923076923077
4.16,0.4952,0.0,0.17582417582417584,-20.0,-19.604395604395606,25.0,27.076923076923077,104.54109783407542,102.9010989010989,0.0,-0.3076923076923077
4.18,0.4971,0.0,0.17582417582417584,-20.0,-19.604395604395606,25.0,27.076923076923077,104.5811949126151,103.25274725274726,0.0,-0.3076923076923077
4.2,0.499,0.0,0.17582417582417584,-20.0,-19.604395604395606,25.0,27.076923076923077,104.56445684007453,103.42857142857143,0.0,-0.3076923076923077
4.22,0.5009,0.0,0.17582417582417584,-20.0,-19.604395604395606,25.0,27.076923076923077,104.4902965030521,103.6043956043956,0.0,-0.3076923076923077
4.24,0.5028,0.0,0.17582417582417584,-20.0,-19.604395604395606,25.0,27.076923076923077,104.35835342639012,103.78021978021978,0.0,-0.3076923076923077
4.26,0.5047,0.0,0.17582417582417584,-20.0,-19.604395604395606,25.0,27.076923076923077,104.16850127294063,103.86813186813187,0.0,-0.3076923076923077
4.28,0.5066,0.0,0.17582417582417584,-20.0,-19.604395604395606,25.0,27.076923076923077,103.92085449806629,103.86813186813187,0.0,-0.3076923076923077
4.3,0.5085,0.0,0.17582417582417584,-20.0,-19.604395604395606,25.0,27.076923076923077,103.61577409328552,103.78021978021978,0.0,-0.3076923076923077
4.32,0.5104000000000001,0.0,0.17582417582417584,-20.0,-19.604395604395606,25.0,27.076923076923077,103.25387235541167,103.78021978021978,0.0,-0.3076923076923077
4.34,0.5123,0.0,0.17582417582417584,-20.0,-19.604395604395606,25.0,27.076923076923077,102.8360166199315,103.78021978021978,0.0,-0.3076923076923077
4.36,0.5142,0.0,0.17582417582417584,-20.0,-19.604395604395606,25.0,27.076923076923077,102.36333190022457,103.78021978021978,0.0,-0.3076923076923077
4.38,0.5161,0.0,0.17582417582417584,-20.0,-19.604395604395606,25.0,27.076923076923077,101.83720237755418,103.51648351648352,0.0,-0.3076923076923077
4.4,0.518,0.0,0.17582417582417584,-20.0,-19.604395604395606,25.0,27.076923076923077,101.25927169056251,103.16483516483517,0.0,-0.3076923076923077
4.42,0.5199,0.0,0.17582417582417584,-20.0,-19.604395604395606,25.0,27.076923076923077,100.63144197728508,102.81318681318682,0.0,-0.3076923076923077
4.44,0.5218,0.0,0.17582417582417584,-20.0,-19.604395604395606,25.0,27.076923076923077,99.95587162745595,102.37362637362638,0.0,-0.3076923076923077
4.46,0.5237,0.0,0.17582417582417584,-20.0,-19.604395604395606,25.0,27.076923076923077,99.23497170810973,101.93406593406593,0.0,-0.3076923076923077
4.48,0.5256000000000001,0.0,0.17582417582417584,-20.0,-19.604395604395606,25.0,27.076923076923077,98.47140103118126,101.4065934065934,0.0,-0.3076923076923077
4.5,0.5275,0.0,0.17582417582417584,-20.0,-19.604395604395606,25.0,27.076923076923077,97.66805983796128,100.87912087912088,0.0,-0.3076923076923077
4.52,0.5294,0.0,0.17582417582417584,-20.0,-19.604395604395606,25.0,27.076923076923077,96.82808208186061,100.26373626373626,0.0,-0.3076923076923077
4.54,0.5313,0.0,0.17582417582417584,-20.0,-19.604395604395606,25.0,27.076923076923077,95.95482629795829,99.56043956043956,0.0,-0.3076923076923077
4.56,0.5332,0.0,0.17582417582417584,-20.0,-19.604395604395606,25.0,27.076923076923077,95.05186505523254,98.85714285714286,0.0,-0.3076923076923077
4.58,0.5351,0.0,0.17582417582417584,-20.0,-19.604395604395606,25.0,27.076923076923077,94.12297299517576,98.06593406593407,0.0,-0.3076923076923077
4.6,0.5369999999999999,0.0,0.17582417582417584,-20.0,-19.604395604395606,25.0,27.076923076923077,93.17211346864717,97.27472527472527,0.0,-0.3076923076923077
4.62,0.5389,0.0,0.17582417582417584,-20.0,-19.604395604395606,25.0,27.076923076923077,92.20342379128203,96.48351648351648,0.0,-0.3076923076923077
4.64,0.5408,0.0,0.17582417582417584,-20.0,-19.604395604395606,25.0,27.076923076923077,91.22119914652433,95.78021978021978,0.0,-0.3076923076923077
4.66,0.5427000000000001,0.0,0.17582417582417584,-20.0,-19.604395604395606,25.0,27.076923076923077,90.22987517433003,94.81318681318682,0.0,-0.3076923076923077
4.68,0.5446,0.0,0.17582417582417584,-20.0,-19.604395604395606,25.0,27.076923076923077,89.23400929276853,93.93406593406593,0.0,-0.3076923076923077
4.7,0.5465,0.0,0.17582417582417584,-20.0,-19.604395604395606,25.0,27.076923076923077,88.23826080906437,93.05494505494505,0.0,-0.3076923076923077
4.72,0.5484,0.0,0.17582417582417584,-20.0,-19.604395604395606,25.0,27.076923076923077,87.24736988603922,92.08791208791209,0.0,-0.3076923076923077
4.74,0.5503,0.0,0.17582417582417584,-20.0,-19.604395604395606,25.0,27.076923076923077,86.2661354393554,91.12087912087912,0.0,-0.3076923076923077
4.76,0.5522,0.0,0.17582417582417584,-20.0,-19.604395604395606,25.0,27.076923076923077,85.29939205039,90.15384615384616,0.0,-0.3076923076923077
4.78,0.5541,0.0,0.17582417582417584,-20.0,-19.604395604395606,25.0,27.076923076923077,84.35198598890277,89.18681318681318,0.0,-0.3076923076923077
4.8,0.5559999999999999,0.0,0.17582417582417584,-20.0,-19.604395604395606,25.0,27.076923076923077,83.42875044884758,88.3076923076923,0.0,-0.3076923076923077
4.82,0.5579000000000001,0.0,0.17582417582417584,-20.0,-19.604395604395606,25.0,27.076923076923077,82.53448010964163,87.6043956043956,0.0,-0.3076923076923077
4.84,0.5598,0.0,0.17582417582417584,-20.0,-19.604395604395606,25.0,27.076923076923077,81.67390514388248,86.72527472527473,0.0,-0.3076923076923077
4.86,0.5617000000000001,0.0,0.17582417582417584,-20.0,-19.604395604395606,25.0,27.076923076923077,80.85166480081462,85.75824175824175,0.0,-0.3076923076923077
4.88,0.5636,0.0,0.17582417582417584,-20.0,-19.604395604395606,25.0,27.076923076923077,80.07228070272565,84.79120879120879,0.0,-0.21978021978021978
4.9,0.5655,0.0,0.17582417582417584,-20.0,-19.604395604395606,25.0,27.076923076923077,79.34012999881634,83.73626373626374,0.0,0.04395604395604396
4.92,0.5674,0.0,0.17582417582417584,-20.0,-19.604395604395606,25.0,27.076923076923077,78.65941852787151,82.94505494505495,0.0,0.04395604395604396
4.94,0.5693,0.0,0.17582417582417584,-20.0,-19.604395604395606,25.0,27.076923076923077,78.03415414717504,81.97802197802197,0.0,-0.04395604395604396
4.96,0.5712,0.0,0.17582417582417584,-20.0,-19.604395604395606,25.0,27.076923076923077,77.46812039049826,81.18681318681318,0.0,0.04395604395604396
4.98,0.5731,0.0,0.17582417582417584,-20.0,-19.604395604395606,25.0,27.076923076923077,76.96485062256254,80.3956043956044,0.0,0.04395604395604396
5.0,0.575,0.0,0.17582417582417584,-20.0,-19.604395604395606,25.0,27.076923076923077,76.52760286107168,79.6923076923077,0.0,0.04395604395604396
5.02,0.5769,0.0,0.17582417582417584,-20.0,-19.604395604395606,25.0,27.076923076923077,76.15933544014919,79.07692307692308,0.0,0.04395604395604396
5.04,0.5788,0.0,0.17582417582417584,-20.0,-19.604395604395606,25.0,27.076923076923077,75.8626836907423,78.46153846153847,0.0,0.04395604395604396
5.06,0.5807,0.0,0.17582417582417584,-20.0,-19.604395604395606,25.0,27.076923076923077,75.63993781419768,77.93406593406593,0.0,0.04395604395604396
5.08,0.5826,0.0,0.17582417582417584,-20.0,-19.604395604395606,25.0,27.076923076923077,75.49302212472072,77.4065934065934,0.0,0.04395604395604396
5.1,0.5845,0.0,0.17582417582417584,-20.0,-19.604395604395606,25.0,27.076923076923077,75.42347583474486,76.96703296703296,0.0,0.04395604395604396
5.12,0.5864,0.0,0.17582417582417584,-20.0,-19.604395604395606,25.0,27.076923076923077,75.43243555431295,76.7032967032967,0.0,0.04395604395604396
5.14,0.5882999999999999,0.0,0.17582417582417584,-20.0,-19.604395604395606,25.0,27.076923076923077,75.52061967136845,76.43956043956044,0.0,0.04395604395604396
5.16,0.5902000000000001,0.0,0.17582417582417584,-20.0,-19.604395604395606,25.0,27.076923076923077,75.68831477433598,76.26373626373626,0.0,0.04395604395604396
5.18,0.5921,0.0,0.17582417582417584,-20.0,-19.604395604395606,25.0,27.076923076923077,75.935364271513,76.17582417582418,0.0,0.04395604395604396
5.2,0.5940000000000001,0.0,0.17582417582417584,-20.0,-19.604395604395606,25.0,27.076923076923077,76.26115935357966,76.08791208791209,0.0,0.04395604395604396
5.22,0.5959,0.0,0.17582417582417584,-20.0,-19.604395604395606,25.0,27.076923076923077,76.66463243595356,76.08791208791209,0.0,0.04395604395604396
5.24,0.5978,0.0,0.17582417582417584,-20.0,-19.604395604395606,25.0,27.076923076923077,77.14425320677277,76.08791208791209,0.0,0.04395604395604396
5.26,0.5997,0.0,0.17582417582417584,-20.0,-19.604395604395606,25.0,27.076923076923077,77.6980273939941,76.17582417582418,0.0,0.04395604395604396
5.28,0.6016,0.0,0.17582417582417584,-20.0,-19.604395604395606,25.0,27.076923076923077,78.32349835146974,76.43956043956044,0.0,0.04395604395604396
5.3,0.6034999999999999,0.0,0.17582417582417584,-20.0,-19.604395604395606,25.0,27.076923076923077,79.01775154894356,76.87912087912088,0.0,0.04395604395604396
5.32,0.6054,0.0,0.17582417582417584,-20.0,-19.604395604395606,25.0,27.076923076923077,79.77742203474021,77.23076923076923,0.0,0.04395604395604396
5.34,0.6073,0.0,0.17582417582417584,-20.0,-19.604395604395606,25.0,27.076923076923077,80.59870492255486,77.67032967032966,0.0,0.04395604395604396
5.36,0.6092,0.0,0.17582417582417584,-20.0,-19.604395604395606,25.0,27.076923076923077,81.47736893526884,78.1978021978022,0.0,0.04395604395604396
5.38,0.6111,0.0,0.17582417582417584,-20.0,-19.604395604395606,25.0,27.076923076923077,82.40877301918675,78.81318681318682,0.0,0.04395604395604396
5.4,0.613,0.0,0.17582417582417584,-20.0,-19.604395604395606,25.0,27.076923076923077,83.38788602162029,79.42857142857143,0.0,0.04395604395604396
5.42,0.6149,0.0,0.17582417582417584,-20.0,-19.604395604395606,25.0,27.076923076923077,84.40930940342733,80.13186813186813,0.0,0.04395604395604396
5.44,0.6168,0.0,0.17582417582417584,-20.0,-19.604395604395606,25.0,27.076923076923077,85.46730293608226,80.92307692307692,0.0,0.04395604395604396
5.46,0.6187,0.0,0.17582417582417584,-20.0,-19.604395604395606,25.0,27.076923076923077,86.5558133102242,81.71428571428571,0.0,0.04395604395604396
5.48,0.6206,0.0,0.17582417582417584,-20.0,-19.604395604395606,25.0,27.076923076923077,87.66850555955628,82.68131868131869,0.0,0.04395604395604396
5.5,0.6224999999999999,0.0,0.17582417582417584,-20.0,-19.604395604395606,25.0,27.076923076923077,88.79879718059483,83.56043956043956,0.0,0.04395604395604396
5.52,0.6244,0.0,0.17582417582417584,-20.0,-19.604395604395606,25.0,27.076923076923077,89.93989480526358,84.52747252747253,0.0,0.04395604395604396
5.54,0.6263,0.0,0.17582417582417584,-20.0,-19.604395604395606,25.0,27.076923076923077,91.0848332598602,85.49450549450549,0.0,0.04395604395604396
5.56,0.6282,0.0,0.17582417582417584,-20.0,-19.604395604395606,25.0,27.076923076923077,92.22651682067955,86.54945054945055,0.0,0.04395604395604396
5.58,0.6301,0.0,0.17582417582417584,-20.0,-19.604395604395606,25.0,27.076923076923077,93.35776245374247,87.51648351648352,0.0,0.04395604395604396
5.6,0.6319999999999999,0.0,0.17582417582417584,-20.0,-19.604395604395606,25.0,27.076923076923077,94.47134480384877,88.48351648351648,0.0,0.04395604395604396
5.62,0.6339,0.0,0.17582417582417584,-20.0,-19.604395604395606,25.0,27.076923076923077,95.56004267675416,89.27472527472527,0.0,0.04395604395604396
5.64,0.6357999999999999,0.0,0.17582417582417584,-20.0,-19.604395604395606,25.0,27.076923076923077,96.61668673785508,90.41758241758242,0.0,0.04395604395604396
5.66,0.6377,0.0,0.17582417582417584,-20.0,-19.604395604395606,25.0,27.076923076923077,97.63420813157872,91.73626373626374,0.0,-0.13186813186813187
5.68,0.6396,0.0,0.17582417582417584,-20.0,-19.604395604395606,25.0,27.076923076923077,98.60568770790319,92.87912087912088,0.0,-0.3076923076923077
5.7,0.6415,0.0,0.17582417582417584,-20.0,-19.604395604395606,25.0,27.076923076923077,99.52440552630577,93.93406593406593,0.0,-0.21978021978021978
5.72,0.6434,0.0,0.17582417582417584,-20.0,-19.604395604395606,25.0,27.076923076923077,100.38389029313566,94.98901098901099,0.0,-0.13186813186813187
5.74,0.6453,0.0,0.17582417582417584,-20.0,-19.604395604395606,25.0,27.076923076923077,101.17796837615325,96.04395604395604,0.0,-0.3076923076923077
5.76,0.6472,0.0,0.17582417582417584,-20.0,-19.604395604395606,25.0,27.076923076923077,101.90081202994389,97.0989010989011,0.0,-0.3076923076923077
5.78,0.6491,0.0,0.17582417582417584,-20.0,-19.604395604395606,25.0,27.076923076923077,102.54698645829995,97.97802197802197,0.0,-0.3076923076923077
5.8,0.6509999999999999,0.0,0.17582417582417584,-20.0,-19.604395604395606,25.0,27.076923076923077,103.11149533463261,98.94505494505495,0.0,-0.3076923076923077
5.82,0.6529,0.0,0.17582417582417584,-20.0,-19.604395604395606,25.0,27.076923076923077,103.58982439919279,99.73626373626374,0.0,-0.3076923076923077
5.84,0.6547999999999999,0.0,0.17582417582417584,-20.0,-19.604395604395606,25.0,27.076923076923077,103.9779827524886,100.52747252747253,0.0,-0.3076923076923077
5.86,0.6567000000000001,0.0,0.17582417582417584,-20.0,-19.604395604395606,25.0,27.076923076923077,104.27254146791712,101.14285714285714,0.0,-0.3076923076923077
5.88,0.6586,0.0,0.17582417582417584,-20.0,-19.604395604395606,25.0,27.076923076923077,104.47066915338775,101.75824175824175,0.0,-0.3076923076923077
5.9,0.6605,0.0,0.17582417582417584,-20.0,-19.604395604395606,25.0,27.076923076923077,104.57016410169369,102.28571428571429,0.0,-0.3076923076923077
5.92,0.6624,0.0,0.17582417582417584,-20.0,-19.604395604395606,25.0,27.076923076923077,104.56948268264976,102.72527472527473,0.0,-0.3076923076923077
5.94,0.6643,0.0,0.17582417582417584,-20.0,-19.604395604395606,25.0,27.076923076923077,104.46776364660175,103.07692307692308,0.0,-0.3076923076923077
5.96,0.6662,0.0,0.17582417582417584,-20.0,-19.604395604395606,25.0,27.076923076923077,104.26484802883691,103.34065934065934,0.0,-0.3076923076923077
5.98,0.6681,0.0,0.17582417582417584,-20.0,-19.604395604395606,25.0,27.076923076923077,103.96129436767339,103.42857142857143,0.0,-0.3076923076923077
6.0,0.67,0.0,0.17582417582417584,-20.0,-19.604395604395606,25.0,27.076923076923077,103.55838897553525,103.42857142857143,0.0,-0.3076923076923077
6.02,0.6718999999999999,0.0,0.17582417582417584,-20.0,-19.604395604395606,25.0,27.076923076923077,103.05815103205231,103.42857142857143,0.0,-0.3076923076923077
6.04,0.6738,0.0,0.17582417582417584,-20.0,-19.604395604395606,25.0,27.076923076923077,102.46333230105827,103.42857142857143,0.0,-0.3076923076923077
6.06,0.6757,0.0,0.17582417582417584,-20.0,-19.604395604395606,25.0,27.076923076923077,101.77741130915334,103.25274725274726,0.0,-0.3076923076923077
6.08,0.6776,0.0,0.17582417582417584,-20.0,-19.604395604395606,25.0,27.076923076923077,101.00458186207935,103.07692307692308,0.0,-0.3076923076923077
6.1,0.6795,0.0,0.17582417582417584,-20.0,-19.604395604395606,25.0,27.076923076923077,100.14973581632364,102.63736263736264,0.0,-0.3076923076923077
6.12,0.6814,0.0,0.17582417582417584,-20.0,-19.604395604395606,25.0,27.076923076923077,99.21844006687829,102.1978021978022,0.0,-0.3076923076923077
6.14,0.6832999999999999,0.0,0.17582417582417584,-20.0,-19.604395604395606,25.0,27.076923076923077,98.21690775767294,101.67032967032966,0.0,-0.3076923076923077
6.16,0.6852,0.0,0.17582417582417584,-20.0,-19.604395604395606,25.0,27.076923076923077,97.15196376855926,101.05494505494505,0.0,-0.3076923076923077
6.18,0.6870999999999999,0.0,0.17582417582417584,-20.0,-19.604395604395606,25.0,27.076923076923077,96.03100458153136,100.35164835164835,0.0,-0.3076923076923077
6.2,0.6890000000000001,0.0,0.17582417582417584,-20.0,-19.604395604395606,25.0,27.076923076923077,94.86195267874395,99.56043956043956,0.0,-0.3076923076923077
6.22,0.6909,0.0,0.17582417582417584,-20.0,-19.604395604395606,25.0,27.076923076923077,93.65320567546618,98.5934065934066,0.0,-0.3076923076923077
6.24,0.6928,0.0,0.17582417582417584,-20.0,-19.604395604395606,25.0,27.076923076923077,92.41358044194612,97.71428571428571,0.0,-0.3076923076923077
6.26,0.6947,0.0,0.17582417582417584,-20.0,-19.604395604395606,25.0,27.076923076923077,91.15225251884712,96.74725274725274,0.0,-0.3076923076923077
6.28,0.6966,0.0,0.17582417582417584,-20.0,-19.604395604395606,25.0,27.076923076923077,89.8786911809701,95.6923076923077,0.0,-0.3076923076923077
6.3,0.6985,0.0,0.17582417582417584,-20.0,-19.604395604395606,25.0,27.076923076923077,88.60259055294256,94.54945054945055,0.0,-0.3076923076923077
6.32,0.7004,0.0,0.17582417582417584,-20.0,-19.604395604395606,25.0,27.076923076923077,87.33379722793131,93.49450549450549,0.0,-0.3076923076923077
6.34,0.7022999999999999,0.0,0.17582417582417584,-20.0,-19.604395604395606,25.0,27.076923076923077,86.0822348857423,92.35164835164835,0.0,-0.3076923076923077
6.36,0.7042,0.0,0.17582417582417584,-20.0,-19.604395604395606,25.0,27.076923076923077,84.8578264493896,91.12087912087912,0.0,-0.3076923076923077
6.38,0.7061,0.0,0.17582417582417584,-20.0,-19.604395604395606,25.0,27.076923076923077,83.67041435886736,89.8021978021978,0.0,-0.3076923076923077
6.4,0.7080000000000001,0.0,0.17582417582417584,-20.0,-19.604395604395606,25.0,27.076923076923077,82.52967957692249,88.65934065934066,0.0,-0.3076923076923077
6.42,0.7099,0.0,0.17582417582417584,-20.0,-19.604395604395606,25.0,27.076923076923077,81.44505997364611,87.51648351648352,0.0,-0.3076923076923077
6.44,0.7118,0.0,0.17582417582417584,-20.0,-19.604395604395606,25.0,27.076923076923077,80.4256687641773,86.46153846153847,0.0,-0.3076923076923077
6.46,0.7137,0.0,0.17582417582417584,-20.0,-19.604395604395606,25.0,27.076923076923077,79.48021369632158,85.49450549450549,0.0,-0.3076923076923077
6.48,0.7156,0.0,0.17582417582417584,-20.0,-19.604395604395606,25.0,27.076923076923077,78.61691770198189,84.35164835164835,0.0,-0.3076923076923077
6.5,0.7175,0.0,0.17582417582417584,-20.0,-19.604395604395606,25.0,27.076923076923077,77.84344173760799,83.20879120879121,0.0,-0.13186813186813187
6.52,0.7193999999999999,0.0,0.17582417582417584,-20.0,-19.604395604395606,25.0,27.076923076923077,77.16681054402062,82.06593406593407,0.0,0.13186813186813187
6.54,0.7212999999999999,0.0,0.17582417582417584,-20.0,-19.604395604395606,25.0,27.076923076923077,76.59334205465817,81.01098901098901,0.0,-0.04395604395604396
6.56,0.7232,0.0,0.17582417582417584,-20.0,-19.604395604395606,25.0,27.076923076923077,76.128581173253,80.04395604395604,0.0,-0.13186813186813187
6.58,0.7251,0.0,0.17582417582417584,-20.0,-19.604395604395606,25.0,27.076923076923077,75.77723862696409,79.25274725274726,0.0,-0.13186813186813187
6.6,0.727,0.0,0.17582417582417584,-20.0,-19.604395604395606,25.0,27.076923076923077,75.5431355789164,78.54945054945055,0.0,0.04395604395604396
6.62,0.7289,0.0,0.17582417582417584,-20.0,-19.604395604395606,25.0,27.076923076923077,75.42915465483078,77.93406593406593,0.0,0.13186813186813187
6.64,0.7308,0.0,0.17582417582417584,-20.0,-19.604395604395606,25.0,27.076923076923077,75.43719800194974,77.31868131868131,0.0,0.13186813186813187
6.66,0.7327,0.0,0.17582417582417584,-20.0,-19.604395604395606,25.0,27.076923076923077,75.56815295481273,76.96703296703296,0.0,0.13186813186813187
6.68,0.7345999999999999,0.0,0.17582417582417584,-20.0,-19.604395604395606,25.0,27.076923076923077,75.82186583173015,76.7032967032967,0.0,0.13186813186813187
6.7,0.7365,0.0,0.17582417582417584,-20.0,-19.604395604395606,25.0,27.076923076923077,76.19712432823877,76.52747252747253,0.0,0.13186813186813187
6.72,0.7384,0.0,0.17582417582417584,-20.0,-19.604395604395606,25.0,27.076923076923077,76.69164890966304,76.43956043956044,0.0,0.13186813186813187
6.74,0.7403,0.0,0.17582417582417584,-20.0,-19.604395604395606,25.0,27.076923076923077,77.30209353450603,76.43956043956044,0.0,0.13186813186813187
6.76,0.7422,0.0,0.17582417582417584,-20.0,-19.604395604395606,25.0,27.076923076923077,78.02405596417489,76.43956043956044,0.0,0.13186813186813187
6.78,0.7441,0.0,0.17582417582417584,-20.0,-19.604395604395606,25.0,27.076923076923077,78.85209783301998,76.61538461538461,0.0,0.13186813186813187
6.8,0.746,0.0,0.17582417582417584,-20.0,-19.604395604395606,25.0,27.076923076923077,79.7797745664118,77.05494505494505,0.0,0.13186813186813187
6.82,0.7479,0.0,0.17582417582417584,-20.0,-19.604395604395606,25.0,27.076923076923077,80.79967514425704,77.49450549450549,0.0,0.13186813186813187
6.84,0.7498,0.0,0.17582417582417584,-20.0,-19.604395604395606,25.0,27.076923076923077,81.9034716136937,78.10989010989012,0.0,0.13186813186813187
6.86,0.7517,0.0,0.17582417582417584,-20.0,-19.604395604395606,25.0,27.076923076923077,83.0819781585023,78.72527472527473,0.0,0.13186813186813187
6.88,0.7535999999999999,0.0,0.17582417582417584,-20.0,-19.604395604395606,25.0,27.076923076923077,84.32521943488801,79.42857142857143,0.0,0.13186813186813187
6.9,0.7555000000000001,0.0,0.17582417582417584,-20.0,-19.604395604395606,25.0,27.076923076923077,85.62250778464103,80.3076923076923,0.0,0.13186813186813187
6.92,0.7574,0.0,0.17582417582417584,-20.0,-19.604395604395606,25.0,27.076923076923077,86.96252883824086,81.36263736263736,0.0,0.13186813186813187
6.94,0.7593,0.0,0.17582417582417584,-20.0,-19.604395604395606,25.0,27.076923076923077,88.33343492324242,82.24175824175825,0.0,0.13186813186813187
6.96,0.7612,0.0,0.17582417582417584,-20.0,-19.604395604395606,25.0,27.076923076923077,89.72294559830375,83.2967032967033,0.0,0.13186813186813187
6.98,0.7631,0.0,0.17582417582417584,-20.0,-19.604395604395606,25.0,27.076923076923077,91.11845454156635,84.43956043956044,0.0,0.13186813186813187
7.0,0.765,0.0,0.17582417582417584,-20.0,-19.604395604395606,25.0,27.076923076923077,92.50714193484372,85.67032967032966,0.0,0.13186813186813187
7.02,0.7668999999999999,0.0,0.17582417582417584,-20.0,-19.604395604395606,25.0,27.076923076923077,93.87609140330372,86.9010989010989,0.0,0.13186813186813187
7.04,0.7688,0.0,0.17582417582417584,-20.0,-19.604395604395606,25.0,27.076923076923077,95.2124104951147,88.13186813186813,0.0,0.13186813186813187
7.06,0.7706999999999999,0.0,0.17582417582417584,-20.0,-19.604395604395606,25.0,27.076923076923077,96.50335361791029,89.45054945054945,0.0,0.13186813186813187
7.08,0.7726,0.0,0.17582417582417584,-20.0,-19.604395604395606,25.0,27.076923076923077,97.7364462899414,90.41758241758242,0.0,0.13186813186813187
7.1,0.7745,0.0,0.17582417582417584,-20.0,-19.604395604395606,25.0,27.076923076923077,98.89960951437826,91.73626373626374,0.0,0.04395604395604396
7.12,0.7764,0.0,0.17582417582417584,-20.0,-19.604395604395606,25.0,27.076923076923077,99.98128304632984,93.14285714285714,0.0,-0.3076923076923077
7.14,0.7783,0.0,0.17582417582417584,-20.0,-19.604395604395606,25.0,27.076923076923077,100.97054629458066,94.46153846153847,0.0,-0.3076923076923077
7.16,0.7802,0.0,0.17582417582417584,-20.0,-19.604395604395606,25.0,27.076923076923077,101.85723558457055,95.78021978021978,0.0,-0.21978021978021978
7.18,0.7820999999999999,0.0,0.17582417582417584,-20.0,-19.604395604395606,25.0,27.076923076923077,102.63205650640461,97.01098901098901,0.0,-0.13186813186813187
7.2,0.784,0.0,0.17582417582417584,-20.0,-19.604395604395606,25.0,27.076923076923077,103.28669008222572,98.15384615384616,0.0,-0.3076923076923077
7.22,0.7858999999999999,0.0,0.17582417582417584,-20.0,-19.604395604395606,25.0,27.076923076923077,103.81389151152445,99.12087912087912,0.0,-0.3076923076923077
7.24,0.7878000000000001,0.0,0.17582417582417584,-20.0,-19.604395604395606,25.0,27.076923076923077,104.2075802911969,100.08791208791209,0.0,-0.3076923076923077
7.26,0.7897,0.0,0.17582417582417584,-20.0,-19.604395604395606,25.0,27.076923076923077,104.46292055952331,100.87912087912088,0.0,-0.3076923076923077
7.28,0.7916,0.0,0.17582417582417584,-20.0,-19.604395604395606,25.0,27.076923076923077,104.57639057973454,101.67032967032966,0.0,-0.3076923076923077
7.3,0.7935,0.0,0.17582417582417584,-20.0,-19.604395604395606,25.0,27.076923076923077,104.54584035928758,102.1978021978022,0.0,-0.3076923076923077
7.32,0.7954,0.0,0.17582417582417584,-20.0,-19.604395604395606,25.0,27.076923076923077,104.37053649506223,102.63736263736264,0.0,-0.3076923076923077
7.34,0.7973,0.0,0.17582417582417584,-20.0,-19.604395604395606,25.0,27.076923076923077,104.05119344192119,102.98901098901099,0.0,-0.3076923076923077
7.36,0.7992,0.0,0.17582417582417584,-20.0,-19.604395604395606,25.0,27.076923076923077,103.58999052178136,103.16483516483517,0.0,-0.3076923076923077
7.38,0.8010999999999999,0.0,0.17582417582417584,-20.0,-19.604395604395606,25.0,27.076923076923077,102.99057412168833,103.25274725274726,0.0,-0.3076923076923077
7.4,0.803,0.0,0.17582417582417584,-20.0,-19.604395604395606,25.0,27.076923076923077,102.25804467136324,103.25274725274726,0.0,-0.3076923076923077
7.42,0.8049,0.0,0.17582417582417584,-20.0,-19.604395604395606,25.0,27.076923076923077,101.39892814213576,103.16483516483517,0.0,-0.3076923076923077
7.44,0.8068000000000001,0.0,0.17582417582417584,-20.0,-19.604395604395606,25.0,27.076923076923077,100.42113196875053,102.9010989010989,0.0,-0.3076923076923077
7.46,0.8087,0.0,0.17582417582417584,-20.0,-19.604395604395606,25.0,27.076923076923077,99.33388546177058,102.46153846153847,0.0,-0.3076923076923077
7.48,0.8106,0.0,0.17582417582417584,-20.0,-19.604395604395606,25.0,27.076923076923077,98.14766494956066,101.93406593406593,0.0,-0.3076923076923077
7.5,0.8125,0.0,0.17582417582417584,-20.0,-19.604395604395606,25.0,27.076923076923077,96.87410406338569,101.23076923076923,0.0,-0.3076923076923077
7.52,0.8143999999999999,0.0,0.17582417582417584,-20.0,-19.604395604395606,25.0,27.076923076923077,95.52588975512136,100.43956043956044,0.0,-0.3076923076923077
7.54,0.8163,0.0,0.17582417582417584,-20.0,-19.604395604395606,25.0,27.076923076923077,94.11664481250318,99.56043956043956,0.0,-0.3076923076923077
7.56,0.8181999999999999,0.0,0.17582417582417584,-20.0,-19.604395604395606,25.0,27.076923076923077,92.66079780968529,98.5934065934066,0.0,-0.3076923076923077
7.58,0.8200999999999999,0.0,0.17582417582417584,-20.0,-19.604395604395606,25.0,27.076923076923077,91.17344159904981,97.53846153846153,0.0,-0.3076923076923077
7.6,0.822,0.0,0.17582417582417584,-20.0,-19.604395604395606,25.0,27.076923076923077,89.67018161157917,96.3956043956044,0.0,-0.3076923076923077
7.62,0.8239,0.0,0.17582417582417584,-20.0,-19.604395604395606,25.0,27.076923076923077,88.16697538552286,95.25274725274726,0.0,-0.3076923076923077
7.64,0.8258,0.0,0.17582417582417584,-20.0,-19.604395604395606,25.0,27.076923076923077,86.6799648844479,93.84615384615384,0.0,-0.3076923076923077
7.66,0.8277,0.0,0.17582417582417584,-20.0,-19.604395604395606,25.0,27.076923076923077,85.22530329396272,92.52747252747253,0.0,-0.3076923076923077
7.68,0.8296,0.0,0.17582417582417584,-20.0,-19.604395604395606,25.0,27.076923076923077,83.818978099444,91.12087912087912,0.0,-0.3076923076923077
7.7,0.8315,0.0,0.17582417582417584,-20.0,-19.604395604395606,25.0,27.076923076923077,82.47663234305287,89.8021978021978,0.0,-0.3076923076923077
7.72,0.8333999999999999,0.0,0.17582417582417584,-20.0,-19.604395604395606,25.0,27.076923076923077,81.21338603541284,88.3956043956044,0.0,-0.3076923076923077
7.74,0.8353,0.0,0.17582417582417584,-20.0,-19.604395604395606,25.0,27.076923076923077,80.04365975389825,87.07692307692308,0.0,-0.3076923076923077
7.76,0.8371999999999999,0.0,0.17582417582417584,-20.0,-19.604395604395606,25.0,27.076923076923077,78.98100249409627,85.93406593406593,0.0,-0.3076923076923077
7.78,0.8391,0.0,0.17582417582417584,-20.0,-19.604395604395606,25.0,27.076923076923077,78.03792585239925,84.79120879120879,0.0,-0.3076923076923077
7.8,0.841,0.0,0.17582417582417584,-20.0,-19.604395604395606,25.0,27.076923076923077,77.22574660485647,83.38461538461539,0.0,-0.3076923076923077
7.82,0.8429,0.0,0.17582417582417584,-20.0,-19.604395604395606,25.0,27.076923076923077,76.55443970958378,82.06593406593407,0.0,0.04395604395604396
7.84,0.8448,0.0,0.17582417582417584,-20.0,-19.604395604395606,25.0,27.076923076923077,76.03250369673395,80.83516483516483,0.0,0.04395604395604396
7.86,0.8467,0.0,0.17582417582417584,-20.0,-19.604395604395606,25.0,27.076923076923077,75.66684032106377,79.86813186813187,0.0,-0.13186813186813187
7.88,0.8486,0.0,0.17582417582417584,-20.0,-19.604395604395606,25.0,27.076923076923077,75.46265023763328,78.98901098901099,0.0,-0.13186813186813187
7.9,0.8505,0.0,0.17582417582417584,-20.0,-19.604395604395606,25.0,27.076923076923077,75.42334632157981,78.1978021978022,0.0,-0.13186813186813187
7.92,0.8523999999999999,0.0,0.17582417582417584,-20.0,-19.604395604395606,25.0,27.076923076923077,75.55048608900823,77.58241758241758,0.0,0.04395604395604396
7.94,0.8543000000000001,0.0,0.17582417582417584,-20.0,-19.604395604395606,25.0,27.076923076923077,75.84372448895203,77.14285714285714,0.0,0.04395604395604396
7.96,0.8562,0.0,0.17582417582417584,-20.0,-19.604395604395606,25.0,27.076923076923077,76.30078812754509,76.87912087912088,0.0,0.04395604395604396
7.98,0.8581,0.0,0.17582417582417584,-20.0,-19.604395604395606,25.0,27.076923076923077,76.91747175679946,76.7032967032967,0.0,0.04395604395604396
8.0,0.86,0.0,0.17582417582417584,-20.0,-19.604395604395606,25.0,27.076923076923077,77.68765761383324,76.79120879120879,0.0,0.04395604395604396
8.02,0.8619,0.0,0.17582417582417584,-20.0,-19.604395604395606,25.0,27.076923076923077,78.60335793447642,76.79120879120879,0.0,0.04395604395604396
8.04,0.8637999999999999,0.0,0.17582417582417584,-20.0,-19.604395604395606,25.0,27.076923076923077,79.65478069063352,76.87912087912088,0.0,0.13186813186813187
8.06,0.8657,0.0,0.17582417582417584,-20.0,-19.604395604395606,25.0,27.076923076923077,80.83041831661775,77.31868131868131,0.0,0.13186813186813187
8.08,0.8676,0.0,0.17582417582417584,-20.0,-19.604395604395606,25.0,27.076923076923077,82.11715889914313,77.93406593406593,0.0,0.13186813186813187
8.1,0.8694999999999999,0.0,0.17582417582417584,-20.0,-19.604395604395606,25.0,27.076923076923077,83.5004190122545,78.63736263736264,0.0,0.13186813186813187
8.12,0.8714,0.0,0.17582417582417584,-20.0,-19.604395604395606,25.0,27.076923076923077,84.96429708582839,79.42857142857143,0.0,0.13186813186813187
8.14,0.8733000000000001,0.0,0.17582417582417584,-20.0,-19.604395604395606,25.0,27.076923076923077,86.4917459082008,80.3076923076923,0.0,0.13186813186813187
8.16,0.8752,0.0,0.17582417582417584,-20.0,-19.604395604395606,25.0,27.076923076923077,88.06476258383961,81.53846153846153,0.0,0.13186813186813187
8.18,0.8771,0.0,0.17582417582417584,-20.0,-19.604395604395606,25.0,27.076923076923077,89.66459399972992,82.68131868131869,0.0,0.13186813186813187
8.2,0.8789999999999999,0.0,0.17582417582417584,-20.0,-19.604395604395606,25.0,27.076923076923077,91.27195560318506,83.82417582417582,0.0,0.13186813186813187
8.22,0.8809,0.0,0.17582417582417584,-20.0,-19.604395604395606,25.0,27.076923076923077,92.86726106303324,85.05494505494505,0.0,0.13186813186813187
8.24,0.8828,0.0,0.17582417582417584,-20.0,-19.604395604395606,25.0,27.076923076923077,94.43086017928788,86.37362637362638,0.0,0.13186813186813187
8.26,0.8846999999999999,0.0,0.17582417582417584,-20.0,-19.604395604395606,25.0,27.076923076923077,95.9432822270993,87.6923076923077,0.0,0.13186813186813187
8.28,0.8865999999999999,0.0,0.17582417582417584,-20.0,-19.604395604395606,25.0,27.076923076923077,97.38548177235707,89.01098901098901,0.0,0.13186813186813187
8.3,0.8885000000000001,0.0,0.17582417582417584,-20.0,-19.604395604395606,25.0,27.076923076923077,98.73908388184924,90.41758241758242,0.0,0.04395604395604396
8.32,0.8904,0.0,0.17582417582417584,-20.0,-19.604395604395606,25.0,27.076923076923077,99.98662557314661,92.08791208791209,0.0,-0.21978021978021978
8.34,0.8923,0.0,0.17582417582417584,-20.0,-19.604395604395606,25.0,27.076923076923077,101.11179031070014,93.58241758241758,0.0,-0.3076923076923077
8.36,0.8941999999999999,0.0,0.17582417582417584,-20.0,-19.604395604395606,25.0,27.076923076923077,102.09963235696296,95.07692307692308,0.0,-0.3076923076923077
8.38,0.8961,0.0,0.17582417582417584,-20.0,-19.604395604395606,25.0,27.076923076923077,102.93678783209717,96.3956043956044,0.0,-0.3076923076923077
8.4,0.898,0.0,0.17582417582417584,-20.0,-19.604395604395606,25.0,27.076923076923077,103.61166942391365,97.71428571428571,0.0,-0.3076923076923077
8.42,0.8999,0.0,0.17582417582417584,-20.0,-19.604395604395606,25.0,27.076923076923077,104.11464182147736,98.94505494505495,0.0,-0.3076923076923077
8.44,0.9017999999999999,0.0,0.17582417582417584,-20.0,-19.604395604395606,25.0,27.076923076923077,104.43817512104327,100.08791208791209,0.0,-0.3076923076923077
8.46,0.9037000000000001,0.0,0.17582417582417584,-20.0,-19.604395604395606,25.0,27.076923076923077,104.57697367083158,100.96703296703296,0.0,-0.3076923076923077
8.48,0.9056000000000001,0.0,0.17582417582417584,-20.0,-19.604395604395606,25.0,27.076923076923077,104.52807808011704,101.67032967032966,0.0,-0.3076923076923077
8.5,0.9075,0.0,0.17582417582417584,-20.0,-19.604395604395606,25.0,27.076923076923077,104.29093841609638,102.28571428571429,0.0,-0.3076923076923077
8.52,0.9094,0.0,0.17582417582417584,-20.0,-19.604395604395606,25.0,27.076923076923077,103.86745694626737,102.63736263736264,0.0,-0.3076923076923077
8.54,0.9112999999999999,0.0,0.17582417582417584,-20.0,-19.604395604395606,25.0,27.076923076923077,103.26199915125025,102.9010989010989,0.0,-0.3076923076923077
8.56,0.9132,0.0,0.17582417582417584,-20.0,-19.604395604395606,25.0,27.076923076923077,102.48137212915235,102.9010989010989,0.0,-0.3076923076923077
8.58,0.9151,0.0,0.17582417582417584,-20.0,-19.604395604395606,25.0,27.076923076923077,101.53476993320906,102.9010989010989,0.0,-0.3076923076923077
8.6,0.9169999999999999,0.0,0.17582417582417584,-20.0,-19.604395604395606,25.0,27.076923076923077,100.43368582448066,102.72527472527473,0.0,-0.3076923076923077
8.62,0.9188999999999999,0.0,0.17582417582417584,-20.0,-19.604395604395606,25.0,27.076923076923077,99.19179187534175,102.46153846153847,0.0,-0.3076923076923077
8.64,0.9208000000000001,0.0,0.17582417582417584,-20.0,-19.604395604395606,25.0,27.076923076923077,97.82478682143389,101.93406593406593,0.0,-0.3076923076923077
8.66,0.9227,0.0,0.17582417582417584,-20.0,-19.604395604395606,25.0,27.076923076923077,96.35021352339652,101.23076923076923,0.0,-0.3076923076923077
8.68,0.9246,0.0,0.17582417582417584,-20.0,-19.604395604395606,25.0,27.076923076923077,94.78724785850416,100.35164835164835,0.0,-0.3076923076923077
8.7,0.9264999999999999,0.0,0.17582417582417584,-20.0,-19.604395604395606,25.0,27.076923076923077,93.15646130961005,99.38461538461539,0.0,-0.3076923076923077
8.72,0.9284,0.0,0.17582417582417584,-20.0,-19.604395604395606,25.0,27.076923076923077,91.47955994769693,98.32967032967034,0.0,-0.3076923076923077
8.74,0.9303,0.0,0.17582417582417584,-20.0,-19.604395604395606,25.0,27.076923076923077,89.77910290808119,97.0989010989011,0.0,-0.3076923076923077
8.76,0.9321999999999999,0.0,0.17582417582417584,-20.0,-19.604395604395606,25.0,27.076923076923077,88.07820383218858,95.78021978021978,0.0,-0.3076923076923077
8.78,0.9340999999999999,0.0,0.17582417582417584,-20.0,-19.604395604395606,25.0,27.076923076923077,86.4002190803447,94.46153846153847,0.0,-0.3076923076923077
8.8,0.936,0.0,0.17582417582417584,-20.0,-19.604395604395606,25.0,27.076923076923077,84.76842681002208,92.96703296703296,0.0,-0.3076923076923077
8.82,0.9379000000000001,0.0,0.17582417582417584,-20.0,-19.604395604395606,25.0,27.076923076923077,83.20570125271034,91.47252747252747,0.0,-0.3076923076923077
8.84,0.9398,0.0,0.17582417582417584,-20.0,-19.604395604395606,25.0,27.076923076923077,81.73418670581185,89.89010989010988,0.0,-0.3076923076923077
8.86,0.9417,0.0,0.17582417582417584,-20.0,-19.604395604395606,25.0,27.076923076923077,80.37497587911002,88.3956043956044,0.0,-0.3076923076923077
8.88,0.9436000000000001,0.0,0.17582417582417584,-20.0,-19.604395604395606,25.0,27.076923076923077,79.14779729454972,86.98901098901099,0.0,-0.3076923076923077
8.9,0.9455,0.0,0.17582417582417584,-20.0,-19.604395604395606,25.0,27.076923076923077,78.07071643024264,85.49450549450549,0.0,-0.3076923076923077
8.92,0.9474,0.0,0.17582417582417584,-20.0,-19.604395604395606,25.0,27.076923076923077,77.15985522261258,84.35164835164835,0.0,-0.3076923076923077
8.94,0.9492999999999999,0.0,0.17582417582417584,-20.0,-19.604395604395606,25.0,27.076923076923077,76.42913439321322,83.03296703296704,0.0,-0.3076923076923077
8.96,0.9512,0.0,0.17582417582417584,-20.0,-19.604395604395606,25.0,27.076923076923077,75.89004284881666,81.53846153846153,0.0,-0.04395604395604396
8.98,0.9531000000000001,0.0,0.17582417582417584,-20.0,-19.604395604395606,25.0,27.076923076923077,75.55143811576045,80.21978021978022,0.0,0.13186813186813187
9.0,0.955,0.0,0.17582417582417584,-20.0,-19.604395604395606,25.0,27.076923076923077,75.41938141425095,79.16483516483517,0.0,-0.04395604395604396
9.02,0.9569,0.0,0.17582417582417584,-20.0,-19.604395604395606,25.0,27.076923076923077,75.4970105584388,78.37362637362638,0.0,-0.21978021978021978
9.04,0.9587999999999999,0.0,0.17582417582417584,-20.0,-19.604395604395606,25.0,27.076923076923077,75.78445338781586,77.75824175824175,0.0,-0.21978021978021978
9.06,0.9607,0.0,0.17582417582417584,-20.0,-19.604395604395606,25.0,27.076923076923077,76.27878390012856,77.31868131868131,0.0,-0.13186813186813187
9.08,0.9626,0.0,0.17582417582417584,-20.0,-19.604395604395606,25.0,27.076923076923077,76.97402267190088,77.05494505494505,0.0,0.04395604395604396
9.1,0.9644999999999999,0.0,0.17582417582417584,-20.0,-19.604395604395606,25.0,27.076923076923077,77.86118252715389,77.05494505494505,0.0,0.04395604395604396
9.12,0.9663999999999999,0.0,0.17582417582417584,-20.0,-19.604395604395606,25.0,27.076923076923077,78.92835975624801,77.05494505494505,0.0,0.04395604395604396
9.14,0.9683,0.0,0.17582417582417584,-20.0,-19.604395604395606,25.0,27.076923076923077,80.16087050405024,77.31868131868131,0.0,0.13186813186813187
9.16,0.9702,0.0,0.17582417582417584,-20.0,-19.604395604395606,25.0,27.076923076923077,81.54143124962648,77.75824175824175,0.0,0.13186813186813187
9.18,0.9721,0.0,0.17582417582417584,-20.0,-19.604395604395606,25.0,27.076923076923077,83.05038159877488,78.37362637362638,0.0,0.13186813186813187
9.2,0.9739999999999999,0.0,0.17582417582417584,-20.0,-19.604395604395606,25.0,27.076923076923077,84.66594691676129,79.07692307692308,0.0,0.13186813186813187
9.22,0.9759000000000001,0.0,0.17582417582417584,-20.0,-19.604395604395606,25.0,27.076923076923077,86.36453765273085,80.04395604395604,0.0,0.13186813186813187
9.24,0.9778,0.0,0.17582417582417584,-20.0,-19.604395604395606,25.0,27.076923076923077,88.12108156066496,81.0989010989011,0.0,0.13186813186813187
9.26,0.9797,0.0,0.17582417582417584,-20.0,-19.604395604395606,25.0,27.076923076923077,89.90938441563833,82.24175824175825,0.0,0.13186813186813187
9.28,0.9815999999999999,0.0,0.17582417582417584,-20.0,-19.604395604395606,25.0,27.076923076923077,91.70251426941901,83.56043956043956,0.0,0.13186813186813187
9.3,0.9835,0.0,0.17582417582417584,-20.0,-19.604395604395606,25.0,27.076923076923077,93.47320379670379,84.96703296703296,0.0,0.13186813186813187
9.32,0.9854,0.0,0.17582417582417584,-20.0,-19.604395604395606,25.0,27.076923076923077,95.19426486234461,86.28571428571429,0.0,0.13186813186813187
9.34,0.9873,0.0,0.17582417582417584,-20.0,-19.604395604395606,25.0,27.076923076923077,96.8390090999442,87.78021978021978,0.0,0.13186813186813187
9.36,0.9892,0.0,0.17582417582417584,-20.0,-19.604395604395606,25.0,27.076923076923077,98.38166804125245,89.0989010989011,0.0,0.13186813186813187
9.38,0.9911000000000001,0.0,0.17582417582417584,-20.0,-19.604395604395606,25.0,27.076923076923077,99.797806180866,90.76923076923077,0.0,0.13186813186813187
9.4,0.993,0.0,0.17582417582417584,-20.0,-19.604395604395606,25.0,27.076923076923077,101.06472030744334,92.52747252747253,0.0,-0.13186813186813187
9.42,0.9949,0.0,0.17582417582417584,-20.0,-19.604395604395606,25.0,27.076923076923077,102.16181848516561,94.10989010989012,0.0,-0.3076923076923077
9.44,0.9967999999999999,0.0,0.17582417582417584,-20.0,-19.604395604395606,25.0,27.076923076923077,103.07097223008444,95.78021978021978,0.0,-0.21978021978021978
9.46,0.9987,0.0,0.17582417582417584,-20.0,-19.604395604395606,25.0,27.076923076923077,103.77683569617538,97.18681318681318,0.0,-0.21978021978021978
9.48,1.0006000000000002,0.0,0.17582417582417584,-20.0,-19.604395604395606,25.0,27.076923076923077,104.26712606445292,98.50549450549451,0.0,-0.3076923076923077
9.5,1.0025,0.0,0.17582417582417584,-20.0,-19.604395604395606,25.0,27.076923076923077,104.53285981266778,99.73626373626374,0.0,-0.3076923076923077
9.52,1.0044,0.0,0.17582417582417584,-20.0,-19.604395604395606,25.0,27.076923076923077,104.56854012828111,100.79120879120879,0.0,-0.3076923076923077
9.54,1.0063,0.0,0.17582417582417584,-20.0,-19.604395604395606,25.0,27.076923076923077,104.37229140714388,101.58241758241758,0.0,-0.3076923076923077
9.56,1.0082,0.0,0.17582417582417584,-20.0,-19.604395604395606,25.0,27.076923076923077,103.9459375463104,102.10989010989012,0.0,-0.3076923076923077
9.58,1.0101,0.0,0.17582417582417584,-20.0,-19.604395604395606,25.0,27.076923076923077,103.29502158164617,102.54945054945055,0.0,-0.3076923076923077
9.6,1.012,0.0,0.17582417582417584,-20.0,-19.604395604395606,25.0,27.076923076923077,102.42876512766634,102.63736263736264,0.0,-0.3076923076923077
9.62,1.0139,0.0,0.17582417582417584,-20.0,-19.604395604395606,25.0,27.076923076923077,101.35996703516575,102.63736263736264,0.0,-0.3076923076923077
9.64,1.0158,0.0,0.17582417582417584,-20.0,-19.604395604395606,25.0,27.076923076923077,100.10484167712734,102.63736263736264,0.0,-0.3076923076923077
9.66,1.0177,0.0,0.17582417582417584,-20.0,-19.604395604395606,25.0,27.076923076923077,98.68279828943261,102.28571428571429,0.0,-0.3076923076923077
9.68,1.0196,0.0,0.17582417582417584,-20.0,-19.604395604395606,25.0,27.076923076923077,97.11616381344811,101.67032967032966,0.0,-0.3076923076923077
9.7,1.0215,0.0,0.17582417582417584,-20.0,-19.604395604395606,25.0,27.076923076923077,95.42985269534323,100.96703296703296,0.0,-0.3076923076923077
9.72,1.0234,0.0,0.17582417582417584,-20.0,-19.604395604395606,25.0,27.076923076923077,93.65098807435417,100.0,0.0,-0.3076923076923077
9.74,1.0253,0.0,0.17582417582417584,-20.0,-19.604395604395606,25.0,27.076923076923077,91.80847972139495,98.94505494505495,0.0,-0.3076923076923077
9.76,1.0272000000000001,0.0,0.17582417582417584,-20.0,-19.604395604395606,25.0,27.076923076923077,89.93256495287757,97.8021978021978,0.0,-0.3076923076923077
9.78,1.0291,0.0,0.17582417582417584,-20.0,-19.604395604395606,25.0,27.076923076923077,88.05431952535984,96.3956043956044,0.0,-0.3076923076923077
9.8,1.0310000000000001,0.0,0.17582417582417584,-20.0,-19.604395604395606,25.0,27.076923076923077,86.20514619849904,94.98901098901099,0.0,-0.3076923076923077
9.82,1.0329000000000002,0.0,0.17582417582417584,-20.0,-19.604395604395606,25.0,27.076923076923077,84.41624922181359,93.4065934065934,0.0,-0.3076923076923077
9.84,1.0348,0.0,0.17582417582417584,-20.0,-19.604395604395606,25.0,27.076923076923077,82.71810344141599,91.73626373626374,0.0,-0.3076923076923077
9.86,1.0367,0.0,0.17582417582417584,-20.0,-19.604395604395606,25.0,27.076923076923077,81.13992702449494,90.15384615384616,0.0,-0.3076923076923077
9.88,1.0386000000000002,0.0,0.17582417582417584,-20.0,-19.604395604395606,25.0,27.076923076923077,79.70916695222415,88.48351648351648,0.0,-0.3076923076923077
9.9,1.0405,0.0,0.17582417582417584,-20.0,-19.604395604395606,25.0,27.076923076923077,78.45100642863625,86.81318681318682,0.0,-0.3076923076923077
9.92,1.0424,0.0,0.17582417582417584,-20.0,-19.604395604395606,25.0,27.076923076923077,77.38790318902278,85.4065934065934,0.0,-0.3076923076923077
9.94,1.0443,0.0,0.17582417582417584,-20.0,-19.604395604395606,25.0,27.076923076923077,76.5391673645331,84.08791208791209,0.0,-0.3076923076923077
9.96,1.0462,0.0,0.17582417582417584,-20.0,-19.604395604395606,25.0,27.076923076923077,75.92058707060477,82.50549450549451,0.0,-0.3076923076923077
9.98,1.0481,0.0,0.17582417582417584,-20.0,-19.604395604395606,25.0,27.076923076923077,75.54410923943314,81.01098901098901,0.0,-0.04395604395604396
10.0,1.05,0.0,0.17582417582417584,-20.0,-19.604395604395606,25.0,27.076923076923077,75.41758241758242,79.78021978021978,0.0,0.13186813186813187
10.02,1.0519,0.0,0.17582417582417584,-20.0,-19.604395604395606,25.0,27.076923076923077,75.54456730879934,78.72527472527473,0.0,-0.04395604395604396
10.04,1.0538,0.0,0.17582417582417584,-20.0,-19.604395604395606,25.0,27.076923076923077,75.92421977174156,78.10989010989012,0.0,-0.21978021978021978
10.06,1.0557,0.0,0.17582417582417584,-20.0,-19.604395604395606,25.0,27.076923076923077,76.551249798131,77.67032967032966,0.0,-0.21978021978021978
10.08,1.0576,0.0,0.17582417582417584,-20.0,-19.604395604395606,25.0,27.076923076923077,77.41595871684373,77.31868131868131,0.0,-0.13186813186813187
10.1,1.0595,0.0,0.17582417582417584,-20.0,-19.604395604395606,25.0,27.076923076923077,78.5043555140987,77.31868131868131,0.0,0.04395604395604396
10.12,1.0614,0.0,0.17582417582417584,-20.0,-19.604395604395606,25.0,27.076923076923077,79.79835175173541,77.31868131868131,0.0,0.04395604395604396
10.14,1.0633000000000001,0.0,0.17582417582417584,-20.0,-19.604395604395606,25.0,27.076923076923077,81.27603312886353,77.58241758241758,0.0,0.13186813186813187
10.16,1.0652000000000001,0.0,0.17582417582417584,-20.0,-19.604395604395606,25.0,27.076923076923077,82.91200429254626,78.02197802197803,0.0,0.13186813186813187
10.18,1.0671,0.0,0.17582417582417584,-20.0,-19.604395604395606,25.0,27.076923076923077,84.67780208721749,78.9010989010989,0.0,0.13186813186813187
10.2,1.069,0.0,0.17582417582417584,-20.0,-19.604395604395606,25.0,27.076923076923077,86.54237106722546,79.78021978021978,0.0,0.13186813186813187
10.22,1.0709000000000002,0.0,0.17582417582417584,-20.0,-19.604395604395606,25.0,27.076923076923077,88.47259380923953,80.92307692307692,0.0,0.13186813186813187
10.24,1.0728,0.0,0.17582417582417584,-20.0,-19.604395604395606,25.0,27.076923076923077,90.4338673776572,82.06593406593407,0.0,0.13186813186813187
10.26,1.0747,0.0,0.17582417582417584,-20.0,-19.604395604395606,25.0,27.076923076923077,92.39071624195638,83.38461538461539,0.0,0.13186813186813187
10.28,1.0766,0.0,0.17582417582417584,-20.0,-19.604395604395606,25.0,27.076923076923077,94.30743104389497,84.79120879120879,0.0,0.13186813186813187
10.3,1.0785,0.0,0.17582417582417584,-20.0,-19.604395604395606,25.0,27.076923076923077,96.14872188619596,86.28571428571429,0.0,0.13186813186813187
10.32,1.0804,0.0,0.17582417582417584,-20.0,-19.604395604395606,25.0,27.076923076923077,97.88037428186753,87.86813186813187,0.0,0.13186813186813187
10.34,1.0823,0.0,0.17582417582417584,-20.0,-19.604395604395606,25.0,27.076923076923077,99.46989558055088,89.53846153846153,0.0,0.13186813186813187
10.36,1.0842,0.0,0.17582417582417584,-20.0,-19.604395604395606,25.0,27.076923076923077,100.88713958768,91.38461538461539,0.0,-0.04395604395604396
10.38,1.0861,0.0,0.17582417582417584,-20.0,-19.604395604395606,25.0,27.076923076923077,102.10489722236143,93.31868131868131,0.0,-0.3076923076923077
10.4,1.088,0.0,0.17582417582417584,-20.0,-19.604395604395606,25.0,27.076923076923077,103.09944142512454,94.98901098901099,0.0,-0.3076923076923077
10.42,1.0899,0.0,0.17582417582417584,-20.0,-19.604395604395606,25.0,27.076923076923077,103.85101512702023,96.48351648351648,0.0,-0.21978021978021978
10.44,1.0918,0.0,0.17582417582417584,-20.0,-19.604395604395606,25.0,27.076923076923077,104.34425192236202,97.97802197802197,0.0,-0.3076923076923077
10.46,1.0937000000000001,0.0,0.17582417582417584,-20.0,-19.604395604395606,25.0,27.076923076923077,104.56852013944922,99.38461538461539,0.0,-0.3076923076923077
10.48,1.0956000000000001,0.0,0.17582417582417584,-20.0,-19.604395604395606,25.0,27.076923076923077,104.51818226298086,100.52747252747253,0.0,-0.3076923076923077
10.5,1.0975000000000001,0.0,0.17582417582417584,-20.0,-19.604395604395606,25.0,27.076923076923077,104.19276311012896,101.4065934065934,0.0,-0.3076923076923077
10.52,1.0994,0.0,0.17582417582417584,-20.0,-19.604395604395606,25.0,27.076923076923077,103.59702177662416,101.93406593406593,0.0,-0.3076923076923077
10.54,1.1013,0.0,0.17582417582417584,-20.0,-19.604395604395606,25.0,27.076923076923077,102.74092412290746,102.28571428571429,0.0,-0.3076923076923077
10.56,1.1032000000000002,0.0,0.17582417582417584,-20.0,-19.604395604395606,25.0,27.076923076923077,101.63951443296965,102.46153846153847,0.0,-0.3076923076923077
10.58,1.1051000000000002,0.0,0.17582417582417584,-20.0,-19.604395604395606,25.0,27.076923076923077,100.31268681631715,102.37362637362638,0.0,-0.3076923076923077
10.6,1.107,0.0,0.17582417582417584,-20.0,-19.604395604395606,25.0,27.076923076923077,98.7848589003436,102.10989010989012,0.0,-0.3076923076923077
10.62,1.1089,0.0,0.17582417582417584,-20.0,-19.604395604395606,25.0,27.076923076923077,97.08455233807304,101.58241758241758,0.0,-0.3076923076923077
10.64,1.1108000000000002,0.0,0.17582417582417584,-20.0,-19.604395604395606,25.0,27.076923076923077,95.2438865953023,100.87912087912088,0.0,-0.3076923076923077
10.66,1.1127,0.0,0.17582417582417584,-20.0,-19.604395604395606,25.0,27.076923076923077,93.29799434166844,100.08791208791209,0.0,-0.3076923076923077
10.68,1.1146,0.0,0.17582417582417584,-20.0,-19.604395604395606,25.0,27.076923076923077,91.28436851241017,98.94505494505495,0.0,-0.3076923076923077
10.7,1.1165,0.0,0.17582417582417584,-20.0,-19.604395604395606,25.0,27.076923076923077,89.24215269305274,97.71428571428571,0.0,-0.3076923076923077
10.72,1.1184,0.0,0.17582417582417584,-20.0,-19.604395604395606,25.0,27.076923076923077,87.21138787126131,96.3076923076923,0.0,-0.3076923076923077
10.74,1.1203,0.0,0.17582417582417584,-20.0,-19.604395604395606,25.0,27.076923076923077,85.23222976488118,94.63736263736264,0.0,-0.3076923076923077
10.76,1.1222,0.0,0.17582417582417584,-20.0,-19.604395604395606,25.0,27.076923076923077,83.3441518423768,93.05494505494505,0.0,-0.3076923076923077
10.78,1.1241,0.0,0.17582417582417584,-20.0,-19.604395604395606,25.0,27.076923076923077,81.58514977556477,91.38461538461539,0.0,-0.3076923076923077
10.8,1.1260000000000001,0.0,0.17582417582417584,-20.0,-19.604395604395606,25.0,27.076923076923077,79.9909633837095,89.62637362637362,0.0,-0.3076923076923077
10.82,1.1279000000000001,0.0,0.17582417582417584,-20.0,-19.604395604395606,25.0,27.076923076923077,78.59433212741354,87.78021978021978,0.0,-0.3076923076923077
10.84,1.1298000000000001,0.0,0.17582417582417584,-20.0,-19.604395604395606,25.0,27.076923076923077,77.42429988106042,86.10989010989012,0.0,-0.3076923076923077
10.86,1.1317000000000002,0.0,0.17582417582417584,-20.0,-19.604395604395606,25.0,27.076923076923077,76.50558405124832,84.61538461538461,0.0,-0.3076923076923077
10.88,1.1336000000000002,0.0,0.17582417582417584,-20.0,-19.604395604395606,25.0,27.076923076923077,75.85802311986555,83.20879120879121,0.0,-0.3076923076923077
10.9,1.1355000000000002,0.0,0.17582417582417584,-20.0,-19.604395604395606,25.0,27.076923076923077,75.49611538541764,81.71428571428571,0.0,-0.3076923076923077
10.92,1.1374000000000002,0.0,0.17582417582417584,-20.0,-19.604395604395606,25.0,27.076923076923077,75.42866007311454,80.13186813186813,0.0,0.04395604395604396
10.94,1.1393,0.0,0.17582417582417584,-20.0,-19.604395604395606,25.0,27.076923076923077,75.65851010812759,78.9010989010989,0.0,0.04395604395604396
10.96,1.1412000000000002,0.0,0.17582417582417584,-20.0,-19.604395604395606,25.0,27.076923076923077,76.18244372896432,78.10989010989012,0.0,-0.13186813186813187
10.98,1.1431000000000002,0.0,0.17582417582417584,-20.0,-19.604395604395606,25.0,27.076923076923077,76.9911597968438,77.75824175824175,0.0,-0.3076923076923077
11.0,1.145,0.0,0.17582417582417584,-20.0,-19.604395604395606,25.0,27.076923076923077,78.06939917557136,77.67032967032966,0.0,-0.3076923076923077
11.02,1.1469,0.0,0.17582417582417584,-20.0,-19.604395604395606,25.0,27.076923076923077,79.39619196278903,77.67032967032966,0.0,0.04395604395604396
11.04,1.1488,0.0,0.17582417582417584,-20.0,-19.604395604395606,25.0,27.076923076923077,80.94522769962343,77.75824175824175,0.0,0.04395604395604396
11.06,1.1507,0.0,0.17582417582417584,-20.0,-19.604395604395606,25.0,27.076923076923077,82.68534302659859,78.10989010989012,0.0,-0.04395604395604396
11.08,1.1526,0.0,0.17582417582417584,-20.0,-19.604395604395606,25.0,27.076923076923077,84.58111864601376,78.81318681318682,0.0,-0.04395604395604396
11.1,1.1545,0.0,0.17582417582417584,-20.0,-19.604395604395606,25.0,27.076923076923077,86.5935749522655,79.6923076923077,0.0,0.04395604395604396
11.12,1.1564,0.0,0.17582417582417584,-20.0,-19.604395604395606,25.0,27.076923076923077,88.6809533587043,80.83516483516483,0.0,0.04395604395604396
11.14,1.1583,0.0,0.17582417582417584,-20.0,-19.604395604395606,25.0,27.076923076923077,90.799568237665,82.06593406593407,0.0,0.04395604395604396
11.16,1.1602000000000001,0.0,0.17582417582417584,-20.0,-19.604395604395606,25.0,27.076923076923077,92.90471255124113,83.47252747252747,0.0,0.13186813186813187
11.18,1.1621000000000001,0.0,0.17582417582417584,-20.0,-19.604395604395606,25.0,27.076923076923077,94.95159873186807,84.96703296703296,0.0,0.13186813186813187
11.2,1.164,0.0,0.17582417582417584,-20.0,-19.604395604395606,25.0,27.076923076923077,96.89631521588704,86.46153846153847,0.0,0.13186813186813187
11.22,1.1659000000000002,0.0,0.17582417582417584,-20.0,-19.604395604395606,25.0,27.076923076923077,98.69677827542839,88.04395604395604,0.0,0.13186813186813187
11.24,1.1678000000000002,0.0,0.17582417582417584,-20.0,-19.604395604395606,25.0,27.076923076923077,100.31365846189098,89.71428571428571,0.0,0.13186813186813187
11.26,1.1697000000000002,0.0,0.17582417582417584,-20.0,-19.604395604395606,25.0,27.076923076923077,101.71126108718042,91.73626373626374,0.0,-0.04395604395604396
11.28,1.1716,0.0,0.17582417582417584,-20.0,-19.604395604395606,25.0,27.076923076923077,102.85834073654487,93.75824175824175,0.0,-0.3076923076923077
11.3,1.1735000000000002,0.0,0.17582417582417584,-20.0,-19.604395604395606,25.0,27.076923076923077,103.72883082938567,95.51648351648352,0.0,-0.21978021978021978
11.32,1.1754000000000002,0.0,0.17582417582417584,-20.0,-19.604395604395606,25.0,27.076923076923077,104.30247071166087,97.0989010989011,0.0,-0.21978021978021978
11.34,1.1773,0.0,0.17582417582417584,-20.0,-19.604395604395606,25.0,27.076923076923077,104.56531465505417,98.68131868131869,0.0,-0.21978021978021978
11.36,1.1792,0.0,0.17582417582417584,-20.0,-19.604395604395606,25.0,27.076923076923077,104.510109423341,99.91208791208791,0.0,-0.3076923076923077
11.38,1.1811000000000003,0.0,0.17582417582417584,-20.0,-19.604395604395606,25.0,27.076923076923077,104.13652970496356,100.96703296703296,0.0,-0.3076923076923077
11.4,1.183,0.0,0.17582417582417584,-20.0,-19.604395604395606,25.0,27.076923076923077,103.45126365306027,101.67032967032966,0.0,-0.3076923076923077
11.42,1.1849,0.0,0.17582417582417584,-20.0,-19.604395604395606,25.0,27.076923076923077,102.46794396203336,102.10989010989012,0.0,-0.3076923076923077
11.44,1.1868,0.0,0.17582417582417584,-20.0,-19.604395604395606,25.0,27.076923076923077,101.20692327774995,102.1978021978022,0.0,-0.3076923076923077
11.46,1.1887,0.0,0.17582417582417584,-20.0,-19.604395604395606,25.0,27.076923076923077,99.69489621510134,102.10989010989012,0.0,-0.3076923076923077
11.48,1.1906,0.0,0.17582417582417584,-20.0,-19.604395604395606,25.0,27.076923076923077,97.96437376568828,101.84615384615384,0.0,-0.3076923076923077
11.5,1.1925000000000001,0.0,0.17582417582417584,-20.0,-19.604395604395606,25.0,27.076923076923077,96.05301934055132,101.31868131868131,0.0,-0.3076923076923077
11.52,1.1944000000000001,0.0,0.17582417582417584,-20.0,-19.604395604395606,25.0,27.076923076923077,94.00285902752532,100.52747252747253,0.0,-0.3076923076923077
11.54,1.1963,0.0,0.17582417582417584,-20.0,-19.604395604395606,25.0,27.076923076923077,91.85938176981598,99.56043956043956,0.0,-0.3076923076923077
11.56,1.1982000000000002,0.0,0.17582417582417584,-20.0,-19.604395604395606,25.0,27.076923076923077,89.67054801405779,98.32967032967034,0.0,-0.3076923076923077
11.58,1.2001000000000002,0.0,0.17582417582417584,-20.0,-19.604395604395606,25.0,27.076923076923077,87.4857278589324,96.92307692307692,0.0,-0.3076923076923077
11.6,1.202,0.0,0.17582417582417584,-20.0,-19.604395604395606,25.0,27.076923076923077,85.3545917920976,95.34065934065934,0.0,-0.3076923076923077
11.62,1.2039,0.0,0.17582417582417584,-20.0,-19.604395604395606,25.0,27.076923076923077,83.32597867431546,93.75824175824175,0.0,-0.3076923076923077
11.64,1.2058000000000002,0.0,0.17582417582417584,-20.0,-19.604395604395606,25.0,27.076923076923077,81.44676666550005,92.0,0.0,-0.3076923076923077
11.66,1.2077000000000002,0.0,0.17582417582417584,-20.0,-19.604395604395606,25.0,27.076923076923077,79.76077324921745,89.97802197802197,0.0,-0.3076923076923077
11.68,1.2096,0.0,0.17582417582417584,-20.0,-19.604395604395606,25.0,27.076923076923077,78.30771037371193,88.13186813186813,0.0,-0.3076923076923077
11.7,1.2115,0.0,0.17582417582417584,-20.0,-19.604395604395606,25.0,27.076923076923077,77.12221997587943,86.28571428571429,0.0,-0.3076923076923077
11.72,1.2134000000000003,0.0,0.17582417582417584,-20.0,-19.604395604395606,25.0,27.076923076923077,76.233013791083,84.7032967032967,0.0,-0.3076923076923077
11.74,1.2153,0.0,0.17582417582417584,-20.0,-19.604395604395606,25.0,27.076923076923077,75.66213939220364,83.12087912087912,0.0,-0.3076923076923077
11.76,1.2172,0.0,0.17582417582417584,-20.0,-19.604395604395606,25.0,27.076923076923077,75.42439187645627,81.62637362637362,0.0,-0.3076923076923077
11.78,1.2191,0.0,0.17582417582417584,-20.0,-19.604395604395606,25.0,27.076923076923077,75.52688757335896,80.21978021978022,0.0,-0.13186813186813187
11.8,1.221,0.0,0.17582417582417584,-20.0,-19.604395604395606,25.0,27.076923076923077,75.96881264072293,78.98901098901099,0.0,0.13186813186813187
11.82,1.2229,0.0,0.17582417582417584,-20.0,-19.604395604395606,25.0,27.076923076923077,76.74135551943982,78.10989010989012,0.0,-0.04395604395604396
11.84,1.2248,0.0,0.17582417582417584,-20.0,-19.604395604395606,25.0,27.076923076923077,77.82782801550609,77.67032967032966,0.0,-0.21978021978021978
11.86,1.2267000000000001,0.0,0.17582417582417584,-20.0,-19.604395604395606,25.0,27.076923076923077,79.2039753623778,77.67032967032966,0.0,-0.3076923076923077
11.88,1.2286000000000001,0.0,0.17582417582417584,-20.0,-19.604395604395606,25.0,27.076923076923077,80.83847108956846,78.02197802197803,0.0,-0.3076923076923077
11.9,1.2305000000000001,0.0,0.17582417582417584,-20.0,-19.604395604395606,25.0,27.076923076923077,82.69358799127627,78.28571428571429,0.0,-0.04395604395604396
11.92,1.2324000000000002,0.0,0.17582417582417584,-20.0,-19.604395604395606,25.0,27.076923076923077,84.72603206193075,78.81318681318682,0.0,0.13186813186813187
11.94,1.2343,0.0,0.17582417582417584,-20.0,-19.604395604395606,25.0,27.076923076923077,86.88792205470457,79.51648351648352,0.0,-0.04395604395604396
11.96,1.2362000000000002,0.0,0.17582417582417584,-20.0,-19.604395604395606,25.0,27.076923076923077,89.12789343305163,80.57142857142857,0.0,-0.21978021978021978
11.98,1.2381000000000002,0.0,0.17582417582417584,-20.0,-19.604395604395606,25.0,27.076923076923077,91.39230202814811,81.8021978021978,0.0,-0.3076923076923077
12.0,1.2400000000000002,0.0,0.17582417582417584,-20.0,-19.604395604395606,25.0,27.076923076923077,93.62649978316227,83.2967032967033,0.0,-0.3076923076923077
12.02,1.2419,0.0,0.17582417582417584,-20.0,-19.604395604395606,25.0,27.076923076923077,95.77615264473182,84.96703296703296,0.0,-0.3076923076923077
12.04,1.2438,0.0,0.17582417582417584,-20.0,-19.604395604395606,25.0,27.076923076923077,97.78856902642461,86.63736263736264,0.0,-0.21978021978021978
12.06,1.2457000000000003,0.0,0.17582417582417584,-20.0,-19.604395604395606,25.0,27.076923076923077,99.61400637680835,88.57142857142857,0.0,-0.21978021978021978
12.08,1.2476,0.0,0.17582417582417584,-20.0,-19.604395604395606,25.0,27.076923076923077,101.20692327774981,90.5934065934066,0.0,-0.3076923076923077
12.1,1.2495,0.0,0.17582417582417584,-20.0,-19.604395604395606,25.0,27.076923076923077,102.52714519982595,92.61538461538461,0.0,-0.3076923076923077
12.12,1.2514,0.0,0.17582417582417584,-20.0,-19.604395604395606,25.0,27.076923076923077,103.54091355472579,94.37362637362638,0.0,-0.3076923076923077
12.14,1.2533,0.0,0.17582417582417584,-20.0,-19.604395604395606,25.0,27.076923076923077,104.22178999235734,96.21978021978022,0.0,-0.3076923076923077
12.16,1.2552,0.0,0.17582417582417584,-20.0,-19.604395604395606,25.0,27.076923076923077,104.55139095544786,97.89010989010988,0.0,-0.3076923076923077
12.18,1.2571,0.0,0.17582417582417584,-20.0,-19.604395604395606,25.0,27.076923076923077,104.51993126890613,99.38461538461539,0.0,-0.3076923076923077
12.2,1.2590000000000001,0.0,0.17582417582417584,-20.0,-19.604395604395606,25.0,27.076923076923077,104.12655992771941,100.61538461538461,0.0,-0.3076923076923077
12.22,1.2609000000000001,0.0,0.17582417582417584,-20.0,-19.604395604395606,25.0,27.076923076923077,103.37947616019841,101.4065934065934,0.0,-0.3076923076923077
12.24,1.2628000000000001,0.0,0.17582417582417584,-20.0,-19.604395604395606,25.0,27.076923076923077,102.2958191712347,101.84615384615384,0.0,-0.3076923076923077
12.26,1.2647000000000002,0.0,0.17582417582417584,-20.0,-19.604395604395606,25.0,27.076923076923077,100.90133058728264,101.93406593406593,0.0,-0.3076923076923077
12.28,1.2666,0.0,0.17582417582417584,-20.0,-19.604395604395606,25.0,27.076923076923077,99.22979439435693,101.93406593406593,0.0,-0.3076923076923077
12.3,1.2685000000000002,0.0,0.17582417582417584,-20.0,-19.604395604395606,25.0,27.076923076923077,97.32226493790475,101.58241758241758,0.0,-0.3076923076923077
12.32,1.2704000000000002,0.0,0.17582417582417584,-20.0,-19.604395604395606,25.0,27.076923076923077,95.22609919009811,101.05494505494505,0.0,-0.3076923076923077
12.34,1.2723,0.0,0.17582417582417584,-20.0,-19.604395604395606,25.0,27.076923076923077,92.99381483638176,100.26373626373626,0.0,-0.3076923076923077
12.36,1.2742,0.0,0.17582417582417584,-20.0,-19.604395604395606,25.0,27.076923076923077,90.68180064286243,99.20879120879121,0.0,-0.3076923076923077
12.38,1.2761000000000002,0.0,0.17582417582417584,-20.0,-19.604395604395606,25.0,27.076923076923077,88.34890990034663,97.8021978021978,0.0,-0.3076923076923077
12.4,1.2780000000000002,0.0,0.17582417582417584,-20.0,-19.604395604395606,25.0,27.076923076923077,86.05497137173215,96.3076923076923,0.0,-0.3076923076923077
12.42,1.2799,0.0,0.17582417582417584,-20.0,-19.604395604395606,25.0,27.076923076923077,83.85925498405884,94.63736263736264,0.0,-0.3076923076923077
12.44,1.2818,0.0,0.17582417582417584,-20.0,-19.604395604395606,25.0,27.076923076923077,81.81893141018375,92.87912087912088,0.0,-0.3076923076923077
12.46,1.2837000000000003,0.0,0.17582417582417584,-20.0,-19.604395604395606,25.0,27.076923076923077,79.98756560449877,90.94505494505495,0.0,-0.3076923076923077
12.48,1.2856,0.0,0.17582417582417584,-20.0,-19.604395604395606,25.0,27.076923076923077,78.41368424312263,89.01098901098901,0.0,-0.3076923076923077
12.5,1.2875,0.0,0.17582417582417584,-20.0,-19.604395604395606,25.0,27.076923076923077,77.1394558484586,87.07692307692308,0.0,-0.3076923076923077
12.52,1.2894,0.0,0.17582417582417584,-20.0,-19.604395604395606,25.0,27.076923076923077,76.19952015524694,85.23076923076923,0.0,-0.3076923076923077
12.54,1.2913000000000001,0.0,0.17582417582417584,-20.0,-19.604395604395606,25.0,27.076923076923077,75.62000003292465,83.64835164835165,0.0,-0.3076923076923077
12.56,1.2932000000000001,0.0,0.17582417582417584,-20.0,-19.604395604395606,25.0,27.076923076923077,75.4177250781284,81.97802197802197,0.0,-0.3076923076923077
12.58,1.2951000000000001,0.0,0.17582417582417584,-20.0,-19.604395604395606,25.0,27.076923076923077,75.59969091991837,80.3956043956044,0.0,-0.21978021978021978
12.6,1.2970000000000002,0.0,0.17582417582417584,-20.0,-19.604395604395606,25.0,27.076923076923077,76.16277245312065,79.16483516483517,0.0,-0.04395604395604396
12.62,1.2989,0.0,0.17582417582417584,-20.0,-19.604395604395606,25.0,27.076923076923077,77.09370277006977,78.1978021978022,0.0,-0.04395604395604396
12.64,1.3008000000000002,0.0,0.17582417582417584,-20.0,-19.604395604395606,25.0,27.076923076923077,78.36932265660096,77.67032967032966,0.0,-0.04395604395604396
12.66,1.3027000000000002,0.0,0.17582417582417584,-20.0,-19.604395604395606,25.0,27.076923076923077,79.9570983299387,77.67032967032966,0.0,-0.13186813186813187
12.68,1.3046,0.0,0.17582417582417584,-20.0,-19.604395604395606,25.0,27.076923076923077,81.81589781234665,78.10989010989012,0.0,-0.21978021978021978
12.7,1.3065,0.0,0.17582417582417584,-20.0,-19.604395604395606,25.0,27.076923076923077,83.89700915107167,78.9010989010989,0.0,-0.21978021978021978
12.72,1.3084000000000002,0.0,0.17582417582417584,-20.0,-19.604395604395606,25.0,27.076923076923077,86.14537681101284,79.6043956043956,0.0,0.04395604395604396
12.74,1.3103,0.0,0.17582417582417584,-20.0,-19.604395604395606,25.0,27.076923076923077,88.50102617769241,80.3076923076923,0.0,0.04395604395604396
12.76,1.3122,0.0,0.17582417582417584,-20.0,-19.604395604395606,25.0,27.076923076923077,90.90064040235096,81.36263736263736,0.0,-0.13186813186813187
12.78,1.3141,0.0,0.17582417582417584,-20.0,-19.604395604395606,25.0,27.076923076923077,93.27924897246018,82.50549450549451,0.0,-0.3076923076923077
12.8,1.3160000000000003,0.0,0.17582417582417584,-20.0,-19.604395604395606,25.0,27.076923076923077,95.5719835548656,84.17582417582418,0.0,-0.3076923076923077
12.82,1.3179,0.0,0.17582417582417584,-20.0,-19.604395604395606,25.0,27.076923076923077,97.71585396642494,86.10989010989012,0.0,-0.3076923076923077
12.84,1.3198,0.0,0.17582417582417584,-20.0,-19.604395604395606,25.0,27.076923076923077,99.65149568149288,88.21978021978022,0.0,-0.3076923076923077
12.86,1.3217,0.0,0.17582417582417584,-20.0,-19.604395604395606,25.0,27.076923076923077,101.32484015789893,90.15384615384616,0.0,-0.3076923076923077
12.88,1.3236,0.0,0.17582417582417584,-20.0,-19.604395604395606,25.0,27.076923076923077,102.68866048925527,92.08791208791209,0.0,-0.21978021978021978
12.9,1.3255000000000001,0.0,0.17582417582417584,-20.0,-19.604395604395606,25.0,27.076923076923077,103.70394747040041,94.10989010989012,0.0,-0.21978021978021978
12.92,1.3274000000000001,0.0,0.17582417582417584,-20.0,-19.604395604395606,25.0,27.076923076923077,104.34107505534953,96.04395604395604,0.0,-0.3076923076923077
12.94,1.3293000000000001,0.0,0.17582417582417584,-20.0,-19.604395604395606,25.0,27.076923076923077,104.58071931580581,97.8021978021978,0.0,-0.3076923076923077
12.96,1.3312000000000002,0.0,0.17582417582417584,-20.0,-19.604395604395606,25.0,27.076923076923077,104.41450125848058,99.38461538461539,0.0,-0.3076923076923077
12.98,1.3331000000000002,0.0,0.17582417582417584,-20.0,-19.604395604395606,25.0,27.076923076923077,103.8453310815333,100.52747252747253,0.0,-0.3076923076923077
13.0,1.3350000000000002,0.0,0.17582417582417584,-20.0,-19.604395604395606,25.0,27.076923076923077,102.88743946294169,101.31868131868131,0.0,-0.3076923076923077
13.02,1.3369,0.0,0.17582417582417584,-20.0,-19.604395604395606,25.0,27.076923076923077,101.56609006757472,101.75824175824175,0.0,-0.3076923076923077
13.04,1.3388,0.0,0.17582417582417584,-20.0,-19.604395604395606,25.0,27.076923076923077,99.91697640383406,101.84615384615384,0.0,-0.3076923076923077
13.06,1.3407000000000002,0.0,0.17582417582417584,-20.0,-19.604395604395606,25.0,27.076923076923077,97.98531520727224,101.58241758241758,0.0,-0.3076923076923077
13.08,1.3426,0.0,0.17582417582417584,-20.0,-19.604395604395606,25.0,27.076923076923077,95.82465742022222,101.14285714285714,0.0,-0.3076923076923077
13.1,1.3445,0.0,0.17582417582417584,-20.0,-19.604395604395606,25.0,27.076923076923077,93.4954463133334,100.43956043956044,0.0,-0.3076923076923077
13.12,1.3464,0.0,0.17582417582417584,-20.0,-19.604395604395606,25.0,27.076923076923077,91.06336010213631,99.47252747252747,0.0,-0.3076923076923077
13.14,1.3483,0.0,0.17582417582417584,-20.0,-19.604395604395606,25.0,27.076923076923077,88.59748330703859,98.24175824175825,0.0,-0.3076923076923077
13.16,1.3502,0.0,0.17582417582417584,-20.0,-19.604395604395606,25.0,27.076923076923077,86.16835686625654,96.74725274725274,0.0,-0.3076923076923077
13.18,1.3521,0.0,0.17582417582417584,-20.0,-19.604395604395606,25.0,27.076923076923077,83.84596144296007,95.07692307692308,0.0,-0.3076923076923077
13.2,1.354,0.0,0.17582417582417584,-20.0,-19.604395604395606,25.0,27.076923076923077,81.69769130897787,93.23076923076923,0.0,-0.3076923076923077
13.22,1.3559,0.0,0.17582417582417584,-20.0,-19.604395604395606,25.0,27.076923076923077,79.78637751579065,91.2967032967033,0.0,-0.3076923076923077
13.24,1.3578000000000001,0.0,0.17582417582417584,-20.0,-19.604395604395606,25.0,27.076923076923077,78.16841870151045,89.27472527472527,0.0,-0.3076923076923077
