TigerWuu/newton/newton/examples/diffsim/gt/chirp_traj/20260616_133149/chirp_05_shoulder_pan.csv
t,freq_hz,shoulder_pan_cmd,shoulder_pan_pos,shoulder_lift_cmd,shoulder_lift_pos,elbow_flex_cmd,elbow_flex_pos,wrist_flex_cmd,wrist_flex_pos,wrist_roll_cmd,wrist_roll_pos
0.0,0.1,0.0,0.17582417582417584,-20.0,-18.197802197802197,25.0,26.98901098901099,90.0,89.45054945054945,0.0,-0.3956043956043956
0.02,0.1019,0.00018773820511593507,0.17582417582417584,-20.0,-18.197802197802197,25.0,26.98901098901099,90.0,89.45054945054945,0.0,-0.3956043956043956
0.04,0.1038,0.0015144187569875855,0.17582417582417584,-20.0,-18.197802197802197,25.0,26.98901098901099,90.0,89.45054945054945,0.0,-0.3956043956043956
0.06,0.1057,0.005149603947560855,0.17582417582417584,-20.0,-18.197802197802197,25.0,26.98901098901099,90.0,89.45054945054945,0.0,-0.3956043956043956
0.08,0.1076,0.012288359069694962,0.17582417582417584,-20.0,-18.197802197802197,25.0,26.98901098901099,90.0,89.45054945054945,0.0,-0.3956043956043956
0.1,0.10950000000000001,0.0241421781736963,0.17582417582417584,-20.0,-18.197802197802197,25.0,26.98901098901099,90.0,89.45054945054945,0.0,-0.3956043956043956
0.12,0.1114,0.04192953959927005,0.17582417582417584,-20.0,-18.197802197802197,25.0,26.98901098901099,90.0,89.45054945054945,0.0,-0.3956043956043956
0.14,0.11330000000000001,0.0668661493885626,0.17582417582417584,-20.0,-18.197802197802197,25.0,26.98901098901099,90.0,89.45054945054945,0.0,-0.3956043956043956
0.16,0.11520000000000001,0.10015493473813697,0.17582417582417584,-20.0,-18.197802197802197,25.0,26.98901098901099,90.0,89.45054945054945,0.0,-0.3956043956043956
0.18,0.11710000000000001,0.14297585340761665,0.17582417582417584,-20.0,-18.197802197802197,25.0,26.98901098901099,90.0,89.45054945054945,0.0,-0.3956043956043956
0.2,0.11900000000000001,0.19647558843092594,0.17582417582417584,-20.0,-18.197802197802197,25.0,26.98901098901099,90.0,89.45054945054945,0.0,-0.3956043956043956
0.22,0.12090000000000001,0.26175720053364415,0.17582417582417584,-20.0,-18.197802197802197,25.0,26.98901098901099,90.0,89.45054945054945,0.0,-0.3956043956043956
0.24,0.1228,0.3398698133088367,0.17582417582417584,-20.0,-18.197802197802197,25.0,26.98901098901099,90.0,89.45054945054945,0.0,-0.3956043956043956
0.26,0.1247,0.43179840840688916,0.17582417582417584,-20.0,-18.197802197802197,25.0,26.98901098901099,90.0,89.45054945054945,0.0,-0.3956043956043956
0.28,0.12660000000000002,0.5384538097169128,0.17582417582417584,-20.0,-18.197802197802197,25.0,26.98901098901099,90.0,89.45054945054945,0.0,-0.3956043956043956
0.3,0.1285,0.6606629367246666,0.17582417582417584,-20.0,-18.197802197802197,25.0,26.98901098901099,90.0,89.45054945054945,0.0,-0.3956043956043956
0.32,0.13040000000000002,0.7991594078933774,0.17582417582417584,-20.0,-18.197802197802197,25.0,26.98901098901099,90.0,89.45054945054945,0.0,-0.3956043956043956
0.34,0.1323,0.9545745750007076,0.17582417582417584,-20.0,-18.197802197802197,25.0,26.98901098901099,90.0,89.45054945054945,0.0,-0.3956043956043956
0.36,0.1342,1.1274290688518338,0.17582417582417584,-20.0,-18.197802197802197,25.0,26.98901098901099,90.0,89.45054945054945,0.0,-0.3956043956043956
0.38,0.1361,1.3181249356529463,0.17582417582417584,-20.0,-18.197802197802197,25.0,26.98901098901099,90.0,89.45054945054945,0.0,-0.3956043956043956
0.4,0.138,1.5269384415530898,0.26373626373626374,-20.0,-18.197802197802197,25.0,26.98901098901099,90.0,89.45054945054945,0.0,-0.3956043956043956
0.42,0.1399,1.7540136204308434,0.43956043956043955,-20.0,-18.197802197802197,25.0,26.98901098901099,90.0,89.45054945054945,0.0,-0.3956043956043956
0.44,0.1418,1.9993566369061795,0.6153846153846154,-20.0,-18.197802197802197,25.0,26.98901098901099,90.0,89.45054945054945,0.0,-0.3076923076923077
0.46,0.1437,2.262831032791905,0.8791208791208791,-20.0,-18.197802197802197,25.0,26.98901098901099,90.0,89.45054945054945,0.0,-0.3076923076923077
0.48,0.1456,2.5441539207637387,1.1428571428571428,-20.0,-18.197802197802197,25.0,26.98901098901099,90.0,89.45054945054945,0.0,-0.3076923076923077
0.5,0.14750000000000002,2.842893183928759,1.4065934065934067,-20.0,-18.197802197802197,25.0,26.98901098901099,90.0,89.45054945054945,0.0,-0.3076923076923077
0.52,0.1494,3.158465734220054,1.6703296703296704,-20.0,-18.197802197802197,25.0,26.98901098901099,90.0,89.45054945054945,0.0,-0.3076923076923077
0.54,0.15130000000000002,3.490136876158147,1.934065934065934,-20.0,-18.197802197802197,25.0,26.98901098901099,90.0,89.45054945054945,0.0,-0.3076923076923077
0.56,0.1532,3.837020815520219,2.197802197802198,-20.0,-18.197802197802197,25.0,26.98901098901099,90.0,89.45054945054945,0.0,-0.3076923076923077
0.58,0.15510000000000002,4.198082344875936,2.4615384615384617,-20.0,-18.197802197802197,25.0,26.98901098901099,90.0,89.45054945054945,0.0,-0.3076923076923077
0.6,0.157,4.572139729819439,2.8131868131868134,-20.0,-18.197802197802197,25.0,26.98901098901099,90.0,89.45054945054945,0.0,-0.3076923076923077
0.62,0.1589,4.957868811092667,3.076923076923077,-20.0,-18.197802197802197,25.0,26.98901098901099,90.0,89.45054945054945,0.0,-0.3076923076923077
0.64,0.1608,5.353808328704466,3.4285714285714284,-20.0,-18.197802197802197,25.0,26.98901098901099,90.0,89.45054945054945,0.0,-0.3076923076923077
0.66,0.1627,5.758366464656588,3.868131868131868,-20.0,-18.197802197802197,25.0,26.98901098901099,90.0,89.45054945054945,0.0,-0.3076923076923077
0.68,0.16460000000000002,6.169828591053365,4.21978021978022,-20.0,-18.197802197802197,25.0,26.98901098901099,90.0,89.45054945054945,0.0,-0.3076923076923077
0.7,0.16649999999999998,6.586366200262064,4.571428571428571,-20.0,-18.197802197802197,25.0,26.98901098901099,90.0,89.45054945054945,0.0,-0.3076923076923077
0.72,0.1684,7.006046983478548,4.923076923076923,-20.0,-18.197802197802197,25.0,26.98901098901099,90.0,89.45054945054945,0.0,-0.3076923076923077
0.74,0.1703,7.4268460136145595,5.274725274725275,-20.0,-18.197802197802197,25.0,26.98901098901099,90.0,89.45054945054945,0.0,-0.3076923076923077
0.76,0.17220000000000002,7.846657977941664,5.714285714285714,-20.0,-18.197802197802197,25.0,26.98901098901099,90.0,89.45054945054945,0.0,-0.3076923076923077
0.78,0.1741,8.26331039548836,6.153846153846154,-20.0,-18.197802197802197,25.0,26.98901098901099,90.0,89.45054945054945,0.0,-0.3076923076923077
0.8,0.17600000000000002,8.674577743882262,6.593406593406593,-20.0,-18.197802197802197,25.0,26.98901098901099,90.0,89.45054945054945,0.0,-0.3076923076923077
0.82,0.1779,9.078196410251707,6.945054945054945,-20.0,-18.197802197802197,25.0,26.98901098901099,90.0,89.45054945054945,0.0,-0.3076923076923077
0.84,0.17980000000000002,9.471880371047133,7.384615384615385,-20.0,-18.197802197802197,25.0,26.98901098901099,90.0,89.45054945054945,0.0,-0.3076923076923077
0.86,0.1817,9.853337496309713,7.824175824175824,-20.0,-18.197802197802197,25.0,26.98901098901099,90.0,89.45054945054945,0.0,-0.3076923076923077
0.88,0.1836,10.22028636510272,8.175824175824175,-20.0,-18.197802197802197,25.0,26.98901098901099,90.0,89.45054945054945,0.0,-0.3076923076923077
0.9,0.1855,10.570473470628006,8.615384615384615,-20.0,-18.197802197802197,25.0,26.98901098901099,90.0,89.45054945054945,0.0,-0.3076923076923077
0.92,0.1874,10.901690686075352,9.054945054945055,-20.0,-18.197802197802197,25.0,26.98901098901099,90.0,89.45054945054945,0.0,-0.3076923076923077
0.94,0.1893,11.211792855591971,9.406593406593407,-20.0,-18.197802197802197,25.0,26.98901098901099,90.0,89.45054945054945,0.0,-0.3076923076923077
0.96,0.1912,11.498715369007849,9.758241758241759,-20.0,-18.197802197802197,25.0,26.98901098901099,90.0,89.45054945054945,0.0,-0.3076923076923077
0.98,0.1931,11.760491574199516,10.10989010989011,-20.0,-18.197802197802197,25.0,26.98901098901099,90.0,89.45054945054945,0.0,-0.3076923076923077
1.0,0.195,11.99526987730636,10.373626373626374,-20.0,-18.197802197802197,25.0,26.98901098901099,90.0,89.45054945054945,0.0,-0.3076923076923077
1.02,0.19690000000000002,12.213380536812787,10.725274725274724,-20.0,-18.197802197802197,25.0,26.98901098901099,90.0,89.45054945054945,0.0,-0.3076923076923077
1.04,0.1988,12.426092615694227,10.989010989010989,-20.0,-18.197802197802197,25.0,26.98901098901099,90.0,89.45054945054945,0.0,-0.3076923076923077
1.06,0.20070000000000002,12.633055251395048,11.252747252747254,-20.0,-18.197802197802197,25.0,26.98901098901099,90.0,89.45054945054945,0.0,-0.3076923076923077
1.08,0.2026,12.83391278882974,11.516483516483516,-20.0,-18.197802197802197,25.0,26.98901098901099,90.0,89.45054945054945,0.0,-0.3076923076923077
1.1,0.20450000000000002,13.028305158848315,11.692307692307692,-20.0,-18.197802197802197,25.0,26.98901098901099,90.0,89.45054945054945,0.0,-0.3076923076923077
1.12,0.20640000000000003,13.215868284122452,11.956043956043956,-20.0,-18.197802197802197,25.0,26.98901098901099,90.0,89.45054945054945,0.0,-0.3076923076923077
1.14,0.20829999999999999,13.39623451296427,12.219780219780219,-20.0,-18.197802197802197,25.0,26.98901098901099,90.0,89.45054945054945,0.0,-0.3076923076923077
1.16,0.2102,13.569033081546122,12.395604395604396,-20.0,-18.197802197802197,25.0,26.98901098901099,90.0,89.45054945054945,0.0,-0.3076923076923077
1.18,0.2121,13.733890604942543,12.659340659340659,-20.0,-18.197802197802197,25.0,26.98901098901099,90.0,89.45054945054945,0.0,-0.3076923076923077
1.2,0.214,13.890431597363852,12.835164835164836,-20.0,-18.197802197802197,25.0,26.98901098901099,90.0,89.45054945054945,0.0,-0.3076923076923077
1.22,0.2159,14.038279021895072,13.010989010989011,-20.0,-18.197802197802197,25.0,26.98901098901099,90.0,89.45054945054945,0.0,-0.3076923076923077
1.24,0.2178,14.177054869993466,13.274725274725276,-20.0,-18.197802197802197,25.0,26.98901098901099,90.0,89.45054945054945,0.0,-0.3076923076923077
1.26,0.2197,14.306380770933343,13.362637362637363,-20.0,-18.197802197802197,25.0,26.98901098901099,90.0,89.45054945054945,0.0,-0.3076923076923077
1.28,0.22160000000000002,14.42587863131726,13.538461538461538,-20.0,-18.197802197802197,25.0,26.98901098901099,90.0,89.45054945054945,0.0,-0.3076923076923077
1.3,0.22350000000000003,14.535171304698885,13.714285714285714,-20.0,-18.197802197802197,25.0,26.98901098901099,90.0,89.45054945054945,0.0,-0.3076923076923077
1.32,0.22540000000000002,14.633883291283947,13.89010989010989,-20.0,-18.197802197802197,25.0,26.98901098901099,90.0,89.45054945054945,0.0,-0.3076923076923077
1.34,0.2273,14.721641467592216,13.978021978021978,-20.0,-18.197802197802197,25.0,26.98901098901099,90.0,89.45054945054945,0.0,-0.3076923076923077
1.36,0.22920000000000001,14.798075845875182,14.065934065934066,-20.0,-18.197802197802197,25.0,26.98901098901099,90.0,89.45054945054945,0.0,-0.3076923076923077
1.38,0.2311,14.862820362990888,14.153846153846153,-20.0,-18.197802197802197,25.0,26.98901098901099,90.0,89.45054945054945,0.0,-0.3076923076923077
1.4,0.23299999999999998,14.915513698339517,14.241758241758241,-20.0,-18.197802197802197,25.0,26.98901098901099,90.0,89.45054945054945,0.0,-0.3076923076923077
1.42,0.2349,14.955800120360426,14.417582417582418,-20.0,-18.197802197802197,25.0,26.98901098901099,90.0,89.45054945054945,0.0,-0.3076923076923077
1.44,0.2368,14.983330360983862,14.505494505494505,-20.0,-18.197802197802197,25.0,26.98901098901099,90.0,89.45054945054945,0.0,-0.3076923076923077
1.46,0.2387,14.997762517318229,14.505494505494505,-20.0,-18.197802197802197,25.0,26.98901098901099,90.0,89.45054945054945,0.0,-0.3076923076923077
1.48,0.2406,14.998762979736817,14.593406593406593,-20.0,-18.197802197802197,25.0,26.98901098901099,90.0,89.45054945054945,0.0,-0.3076923076923077
1.5,0.24250000000000002,14.986007385406424,14.68131868131868,-20.0,-18.197802197802197,25.0,26.98901098901099,90.0,89.45054945054945,0.0,-0.3076923076923077
1.52,0.2444,14.95918159617427,14.68131868131868,-20.0,-18.197802197802197,25.0,26.98901098901099,90.0,89.45054945054945,0.0,-0.3076923076923077
1.54,0.24630000000000002,14.917982699599351,14.68131868131868,-20.0,-18.197802197802197,25.0,26.98901098901099,90.0,89.45054945054945,0.0,-0.3076923076923077
1.56,0.2482,14.862120031779988,14.593406593406593,-20.0,-18.197802197802197,25.0,26.98901098901099,90.0,89.45054945054945,0.0,-0.3076923076923077
1.58,0.2501,14.791316220490915,14.593406593406593,-20.0,-18.197802197802197,25.0,26.98901098901099,90.0,89.45054945054945,0.0,-0.3076923076923077
1.6,0.252,14.705308247001293,14.593406593406593,-20.0,-18.197802197802197,25.0,26.98901098901099,90.0,89.45054945054945,0.0,-0.3076923076923077
1.62,0.2539,14.60384852479943,14.593406593406593,-20.0,-18.197802197802197,25.0,26.98901098901099,90.0,89.45054945054945,0.0,-0.3076923076923077
1.64,0.2558,14.486705993301307,14.593406593406593,-20.0,-18.197802197802197,25.0,26.98901098901099,90.0,89.45054945054945,0.0,-0.3076923076923077
1.66,0.25770000000000004,14.353667224468603,14.593406593406593,-20.0,-18.197802197802197,25.0,26.98901098901099,90.0,89.45054945054945,0.0,-0.3076923076923077
1.68,0.2596,14.204537540107692,14.593406593406593,-20.0,-18.197802197802197,25.0,26.98901098901099,90.0,89.45054945054945,0.0,-0.3076923076923077
1.7,0.2615,14.039142137465085,14.593406593406593,-20.0,-18.197802197802197,25.0,26.98901098901099,90.0,89.45054945054945,0.0,-0.3076923076923077
1.72,0.26339999999999997,13.857327220576884,14.593406593406593,-20.0,-18.197802197802197,25.0,26.98901098901099,90.0,89.45054945054945,0.0,-0.3076923076923077
1.74,0.2653,13.658961134670731,14.593406593406593,-20.0,-18.197802197802197,25.0,26.98901098901099,90.0,89.45054945054945,0.0,-0.3076923076923077
1.76,0.2672,13.443935500758927,14.505494505494505,-20.0,-18.197802197802197,25.0,26.98901098901099,90.0,89.45054945054945,0.0,-0.3076923076923077
1.78,0.2691,13.212166347401327,14.417582417582418,-20.0,-18.197802197802197,25.0,26.98901098901099,90.0,89.45054945054945,0.0,-0.3076923076923077
1.8,0.271,12.963595236456904,14.153846153846153,-20.0,-18.197802197802197,25.0,26.98901098901099,90.0,89.45054945054945,0.0,-0.3076923076923077
1.82,0.27290000000000003,12.69819037948412,13.89010989010989,-20.0,-18.197802197802197,25.0,26.98901098901099,90.0,89.45054945054945,0.0,-0.3076923076923077
1.84,0.27480000000000004,12.415947741293042,13.626373626373626,-20.0,-18.197802197802197,25.0,26.98901098901099,90.0,89.45054945054945,0.0,-0.3076923076923077
1.86,0.27670000000000006,12.11689212699723,13.362637362637363,-20.0,-18.197802197802197,25.0,26.98901098901099,90.0,89.45054945054945,0.0,-0.3076923076923077
1.88,0.27859999999999996,11.801078248761543,13.098901098901099,-20.0,-18.197802197802197,25.0,26.98901098901099,90.0,89.45054945054945,0.0,-0.3076923076923077
1.9,0.28049999999999997,11.46859176829355,12.835164835164836,-20.0,-18.197802197802197,25.0,26.98901098901099,90.0,89.45054945054945,0.0,-0.3076923076923077
1.92,0.2824,11.119550310983007,12.571428571428571,-20.0,-18.197802197802197,25.0,26.98901098901099,90.0,89.45054945054945,0.0,-0.3076923076923077
1.94,0.2843,10.75410444745483,12.307692307692308,-20.0,-18.197802197802197,25.0,26.98901098901099,90.0,89.45054945054945,0.0,-0.3076923076923077
1.96,0.2862,10.372438638169442,11.956043956043956,-20.0,-18.197802197802197,25.0,26.98901098901099,90.0,89.45054945054945,0.0,-0.3076923076923077
1.98,0.2881,9.974772136578933,11.692307692307692,-20.0,-18.197802197802197,25.0,26.98901098901099,90.0,89.45054945054945,0.0,-0.3076923076923077
2.0,0.29000000000000004,9.561359846230348,11.252747252747254,-20.0,-18.197802197802197,25.0,26.98901098901099,90.0,89.45054945054945,0.0,-0.3076923076923077
2.02,0.29190000000000005,9.132493127099597,10.901098901098901,-20.0,-18.197802197802197,25.0,26.98901098901099,90.0,89.45054945054945,0.0,-0.3076923076923077
2.04,0.2938,8.688500546340899,10.54945054945055,-20.0,-18.197802197802197,25.0,26.98901098901099,90.0,89.45054945054945,0.0,-0.3076923076923077
2.06,0.2957,8.22974856854967,10.197802197802197,-20.0,-18.197802197802197,25.0,26.98901098901099,90.0,89.45054945054945,0.0,-0.3076923076923077
2.08,0.2976,7.756642180561411,9.758241758241759,-20.0,-18.197802197802197,25.0,26.98901098901099,90.0,89.45054945054945,0.0,-0.3076923076923077
2.1,0.2995,7.269625445746859,9.31868131868132,-20.0,-18.197802197802197,25.0,26.98901098901099,90.0,89.45054945054945,0.0,-0.3076923076923077
2.12,0.3014,6.769181982715471,8.87912087912088,-20.0,-18.197802197802197,25.0,26.98901098901099,90.0,89.45054945054945,0.0,-0.3076923076923077
2.14,0.3033,6.255835363306304,8.43956043956044,-20.0,-18.197802197802197,25.0,26.98901098901099,90.0,89.45054945054945,0.0,-0.3076923076923077
2.16,0.3052,5.730149424728486,8.0,-20.0,-18.197802197802197,25.0,26.98901098901099,90.0,89.45054945054945,0.0,-0.3076923076923077
2.18,0.30710000000000004,5.192728490714232,7.56043956043956,-20.0,-18.197802197802197,25.0,26.98901098901099,90.0,89.45054945054945,0.0,-0.3076923076923077
2.2,0.30900000000000005,4.644217496566043,7.032967032967033,-20.0,-18.197802197802197,25.0,26.98901098901099,90.0,89.45054945054945,0.0,-0.3076923076923077
2.22,0.31090000000000007,4.085302013018372,6.5054945054945055,-20.0,-18.197802197802197,25.0,26.98901098901099,90.0,89.45054945054945,0.0,-0.3076923076923077
2.24,0.3128,3.5167081638932385,5.978021978021978,-20.0,-18.197802197802197,25.0,26.98901098901099,90.0,89.45054945054945,0.0,-0.3076923076923077
2.26,0.3147,2.9392024326097523,5.538461538461538,-20.0,-18.197802197802197,25.0,26.98901098901099,90.0,89.45054945054945,0.0,-0.3076923076923077
2.28,0.3166,2.3535913527110512,5.010989010989011,-20.0,-18.197802197802197,25.0,26.98901098901099,90.0,89.45054945054945,0.0,-0.3076923076923077
2.3,0.3185,1.7607210776996411,4.483516483516484,-20.0,-18.197802197802197,25.0,26.98901098901099,90.0,89.45054945054945,0.0,-0.3076923076923077
2.32,0.3204,1.1614768256231491,3.956043956043956,-20.0,-18.197802197802197,25.0,26.98901098901099,90.0,89.45054945054945,0.0,-0.3076923076923077
2.34,0.32230000000000003,0.5567821940308902,3.340659340659341,-20.0,-18.197802197802197,25.0,26.98901098901099,90.0,89.45054945054945,0.0,-0.3076923076923077
2.36,0.3242,-0.05240165887500486,2.8131868131868134,-20.0,-18.197802197802197,25.0,26.98901098901099,90.0,89.45054945054945,0.0,-0.3076923076923077
2.38,0.3261,-0.6650769708385956,2.10989010989011,-20.0,-18.197802197802197,25.0,26.98901098901099,90.0,89.45054945054945,0.0,-0.3076923076923077
2.4,0.32799999999999996,-1.2802104735846986,1.5824175824175823,-20.0,-18.197802197802197,25.0,26.98901098901099,90.0,89.45054945054945,0.0,-0.3076923076923077
2.42,0.32989999999999997,-1.896734635685736,0.967032967032967,-20.0,-18.197802197802197,25.0,26.98901098901099,90.0,89.45054945054945,0.0,-0.3076923076923077
2.44,0.3318,-2.5135490533407223,0.43956043956043955,-20.0,-18.197802197802197,25.0,26.98901098901099,90.0,89.45054945054945,0.0,-0.3076923076923077
2.46,0.3337,-3.1295219917976893,-0.26373626373626374,-20.0,-18.197802197802197,25.0,26.98901098901099,90.0,89.45054945054945,0.0,-0.3076923076923077
2.48,0.3356,-3.743492079773668,-0.8791208791208791,-20.0,-18.197802197802197,25.0,26.98901098901099,90.0,89.45054945054945,0.0,-0.3076923076923077
2.5,0.3375,-4.354270158816932,-1.4945054945054945,-20.0,-18.197802197802197,25.0,26.98901098901099,90.0,89.45054945054945,0.0,-0.3076923076923077
2.52,0.33940000000000003,-4.960641289117049,-2.10989010989011,-20.0,-18.197802197802197,25.0,26.98901098901099,90.0,89.45054945054945,0.0,-0.3076923076923077
2.54,0.34130000000000005,-5.561366912797419,-2.7252747252747254,-20.0,-18.197802197802197,25.0,26.98901098901099,90.0,89.45054945054945,0.0,-0.3076923076923077
2.56,0.3432,-6.155187175223486,-3.340659340659341,-20.0,-18.197802197802197,25.0,26.98901098901099,90.0,89.45054945054945,0.0,-0.3076923076923077
2.58,0.3451,-6.740823404327329,-3.868131868131868,-20.0,-18.197802197802197,25.0,26.98901098901099,90.0,89.45054945054945,0.0,-0.3076923076923077
2.6,0.34700000000000003,-7.3169807473867685,-4.483516483516484,-20.0,-18.197802197802197,25.0,26.98901098901099,90.0,89.45054945054945,0.0,-0.3076923076923077
2.62,0.3489,-7.882350964104297,-5.0989010989010985,-20.0,-18.197802197802197,25.0,26.98901098901099,90.0,89.45054945054945,0.0,-0.3076923076923077
2.64,0.3508,-8.435615374209467,-5.626373626373627,-20.0,-18.197802197802197,25.0,26.98901098901099,90.0,89.45054945054945,0.0,-0.3076923076923077
2.66,0.3527,-8.975447957157858,-6.241758241758242,-20.0,-18.197802197802197,25.0,26.98901098901099,90.0,89.45054945054945,0.0,-0.3076923076923077
2.68,0.3546,-9.500518600822236,-6.857142857142857,-20.0,-18.197802197802197,25.0,26.98901098901099,90.0,89.45054945054945,0.0,-0.3076923076923077
2.7,0.35650000000000004,-10.009496495368143,-7.384615384615385,-20.0,-18.197802197802197,25.0,26.98901098901099,90.0,89.45054945054945,0.0,-0.3076923076923077
2.72,0.35840000000000005,-10.501053667777052,-8.0,-20.0,-18.197802197802197,25.0,26.98901098901099,90.0,89.45054945054945,0.0,-0.3076923076923077
2.74,0.36030000000000006,-10.973868651729735,-8.527472527472527,-20.0,-18.197802197802197,25.0,26.98901098901099,90.0,89.45054945054945,0.0,-0.3076923076923077
2.76,0.36219999999999997,-11.426630286789138,-9.054945054945055,-20.0,-18.197802197802197,25.0,26.98901098901099,90.0,89.45054945054945,0.0,-0.3076923076923077
2.78,0.3641,-11.85804164003092,-9.494505494505495,-20.0,-18.197802197802197,25.0,26.98901098901099,90.0,89.45054945054945,0.0,-0.3076923076923077
2.8,0.366,-12.266824042460996,-10.021978021978022,-20.0,-18.197802197802197,25.0,26.98901098901099,90.0,89.45054945054945,0.0,-0.3076923076923077
2.82,0.3679,-12.651721231737094,-10.461538461538462,-20.0,-18.197802197802197,25.0,26.98901098901099,90.0,89.45054945054945,0.0,-0.3076923076923077
2.84,0.3698,-13.011503591876599,-10.901098901098901,-20.0,-18.197802197802197,25.0,26.98901098901099,90.0,89.45054945054945,0.0,-0.3076923076923077
2.86,0.37170000000000003,-13.344972479790695,-11.340659340659341,-20.0,-18.197802197802197,25.0,26.98901098901099,90.0,89.45054945054945,0.0,-0.3076923076923077
2.88,0.37360000000000004,-13.650964627636345,-11.868131868131869,-20.0,-18.197802197802197,25.0,26.98901098901099,90.0,89.45054945054945,0.0,-0.3076923076923077
2.9,0.37549999999999994,-13.928356609128171,-12.219780219780219,-20.0,-18.197802197802197,25.0,26.98901098901099,90.0,89.45054945054945,0.0,-0.3076923076923077
2.92,0.37739999999999996,-14.176069357103804,-12.571428571428571,-20.0,-18.197802197802197,25.0,26.98901098901099,90.0,89.45054945054945,0.0,-0.3076923076923077
2.94,0.37929999999999997,-14.393072718794492,-12.923076923076923,-20.0,-18.197802197802197,25.0,26.98901098901099,90.0,89.45054945054945,0.0,-0.3076923076923077
2.96,0.3812,-14.578390034420034,-13.274725274725276,-20.0,-18.197802197802197,25.0,26.98901098901099,90.0,89.45054945054945,0.0,-0.3076923076923077
2.98,0.3831,-14.731102723909325,-13.538461538461538,-20.0,-18.197802197802197,25.0,26.98901098901099,90.0,89.45054945054945,0.0,-0.3076923076923077
3.0,0.385,-14.850354865748363,-13.802197802197803,-20.0,-18.197802197802197,25.0,26.98901098901099,90.0,89.45054945054945,0.0,-0.3076923076923077
3.02,0.3869,-14.935357751182158,-13.978021978021978,-20.0,-18.197802197802197,25.0,26.98901098901099,90.0,89.45054945054945,0.0,-0.3076923076923077
3.04,0.38880000000000003,-14.985394396249815,-14.241758241758241,-20.0,-18.197802197802197,25.0,26.98901098901099,90.0,89.45054945054945,0.0,-0.3076923076923077
3.06,0.39070000000000005,-14.99982399341891,-14.32967032967033,-20.0,-18.197802197802197,25.0,26.98901098901099,90.0,89.45054945054945,0.0,-0.3076923076923077
3.08,0.39260000000000006,-14.978086283910857,-14.505494505494505,-20.0,-18.197802197802197,25.0,26.98901098901099,90.0,89.45054945054945,0.0,-0.3076923076923077
3.1,0.3945000000000001,-14.9197058311792,-14.593406593406593,-20.0,-18.197802197802197,25.0,26.98901098901099,90.0,89.45054945054945,0.0,-0.3076923076923077
3.12,0.3964,-14.82429617542297,-14.68131868131868,-20.0,-18.197802197802197,25.0,26.98901098901099,90.0,89.45054945054945,0.0,-0.3076923076923077
3.14,0.3983,-14.691563848493038,-14.68131868131868,-20.0,-18.197802197802197,25.0,26.98901098901099,90.0,89.45054945054945,0.0,-0.3076923076923077
3.16,0.4002,-14.521312228086792,-14.68131868131868,-20.0,-18.197802197802197,25.0,26.98901098901099,90.0,89.45054945054945,0.0,-0.3076923076923077
3.18,0.4021,-14.313445209731,-14.68131868131868,-20.0,-18.197802197802197,25.0,26.98901098901099,90.0,89.45054945054945,0.0,-0.3076923076923077
3.2,0.404,-14.067970674730326,-14.593406593406593,-20.0,-18.197802197802197,25.0,26.98901098901099,90.0,89.45054945054945,0.0,-0.3076923076923077
3.22,0.40590000000000004,-13.785003732015566,-14.593406593406593,-20.0,-18.197802197802197,25.0,26.98901098901099,90.0,89.45054945054945,0.0,-0.3076923076923077
3.24,0.40780000000000005,-13.464769711666877,-14.593406593406593,-20.0,-18.197802197802197,25.0,26.98901098901099,90.0,89.45054945054945,0.0,-0.3076923076923077
3.26,0.40969999999999995,-13.10760688781911,-14.593406593406593,-20.0,-18.197802197802197,25.0,26.98901098901099,90.0,89.45054945054945,0.0,-0.3076923076923077
3.28,0.41159999999999997,-12.713968908683796,-14.593406593406593,-20.0,-18.197802197802197,25.0,26.98901098901099,90.0,89.45054945054945,0.0,-0.3076923076923077
3.3,0.4135,-12.284426911552199,-14.32967032967033,-20.0,-18.197802197802197,25.0,26.98901098901099,90.0,89.45054945054945,0.0,-0.3076923076923077
3.32,0.4154,-11.819671300879397,-13.978021978021978,-20.0,-18.197802197802197,25.0,26.98901098901099,90.0,89.45054945054945,0.0,-0.13186813186813187
3.34,0.4173,-11.320513167898035,-13.538461538461538,-20.0,-18.197802197802197,25.0,26.98901098901099,90.0,89.45054945054945,0.0,0.04395604395604396
3.36,0.4192,-10.78788533067508,-13.098901098901099,-20.0,-18.197802197802197,25.0,26.98901098901099,90.0,89.45054945054945,0.0,0.04395604395604396
3.38,0.42110000000000003,-10.222842974110943,-12.483516483516484,-20.0,-18.197802197802197,25.0,26.98901098901099,90.0,89.45054945054945,0.0,0.04395604395604396
3.4,0.42300000000000004,-9.626563870092609,-11.956043956043956,-20.0,-18.197802197802197,25.0,26.98901098901099,90.0,89.45054945054945,0.0,-0.04395604395604396
3.42,0.42490000000000006,-9.00034815885218,-11.428571428571429,-20.0,-18.197802197802197,25.0,26.98901098901099,90.0,89.45054945054945,0.0,-0.13186813186813187
3.44,0.42679999999999996,-8.345617673557184,-10.901098901098901,-20.0,-18.197802197802197,25.0,26.98901098901099,90.0,89.45054945054945,0.0,-0.3076923076923077
3.46,0.42869999999999997,-7.663914791266043,-10.461538461538462,-20.0,-18.197802197802197,25.0,26.98901098901099,90.0,89.45054945054945,0.0,-0.3076923076923077
3.48,0.4306,-6.956900794630051,-9.934065934065934,-20.0,-18.197802197802197,25.0,26.98901098901099,90.0,89.45054945054945,0.0,-0.3076923076923077
3.5,0.4325,-6.226353730107466,-9.582417582417582,-20.0,-18.197802197802197,25.0,26.98901098901099,90.0,89.45054945054945,0.0,-0.3076923076923077
3.52,0.4344,-5.474165749982524,-9.054945054945055,-20.0,-18.197802197802197,25.0,26.98901098901099,90.0,89.45054945054945,0.0,-0.3076923076923077
3.54,0.4363,-4.702339927147839,-8.43956043956044,-20.0,-18.197802197802197,25.0,26.98901098901099,90.0,89.45054945054945,0.0,-0.3076923076923077
3.56,0.43820000000000003,-3.9129865334164347,-7.736263736263736,-20.0,-18.197802197802197,25.0,26.98901098901099,90.0,89.45054945054945,0.0,-0.21978021978021978
3.58,0.44010000000000005,-3.108318774075042,-6.945054945054945,-20.0,-18.197802197802197,25.0,26.98901098901099,90.0,89.45054945054945,0.0,-0.04395604395604396
3.6,0.44200000000000006,-2.2906479734739524,-6.153846153846154,-20.0,-18.197802197802197,25.0,26.98901098901099,90.0,89.45054945054945,0.0,0.04395604395604396
3.62,0.4439000000000001,-1.4623782086657646,-5.274725274725275,-20.0,-18.197802197802197,25.0,26.98901098901099,90.0,89.45054945054945,0.0,0.04395604395604396
3.64,0.4458,-0.6260003904536404,-4.483516483516484,-20.0,-18.197802197802197,25.0,26.98901098901099,90.0,89.45054945054945,0.0,-0.04395604395604396
3.66,0.4477,0.2159142063175033,-3.6043956043956045,-20.0,-18.197802197802197,25.0,26.98901098901099,90.0,89.45054945054945,0.0,-0.13186813186813187
3.68,0.4496,1.0607209587990984,-2.8131868131868134,-20.0,-18.197802197802197,25.0,26.98901098901099,90.0,89.45054945054945,0.0,-0.3076923076923077
3.7,0.4515,1.9057094513721444,-2.021978021978022,-20.0,-18.197802197802197,25.0,26.98901098901099,90.0,89.45054945054945,0.0,-0.3076923076923077
3.72,0.4534,2.7481115601294963,-1.3186813186813187,-20.0,-18.197802197802197,25.0,26.98901098901099,90.0,89.45054945054945,0.0,-0.3076923076923077
3.74,0.45530000000000004,3.5851100537513685,-0.6153846153846154,-20.0,-18.197802197802197,25.0,26.98901098901099,90.0,89.45054945054945,0.0,-0.3076923076923077
3.76,0.45719999999999994,4.413847694923479,0.08791208791208792,-20.0,-18.197802197802197,25.0,26.98901098901099,90.0,89.45054945054945,0.0,-0.3076923076923077
3.78,0.45909999999999995,5.231436823375459,0.7912087912087912,-20.0,-18.197802197802197,25.0,26.98901098901099,90.0,89.45054945054945,0.0,-0.3076923076923077
3.8,0.46099999999999997,6.034969398481905,1.6703296703296704,-20.0,-18.197802197802197,25.0,26.98901098901099,90.0,89.45054945054945,0.0,-0.3076923076923077
3.82,0.4629,6.821527476183857,2.5494505494505493,-20.0,-18.197802197802197,25.0,26.98901098901099,90.0,89.45054945054945,0.0,-0.21978021978021978
3.84,0.4648,7.588194091766065,3.4285714285714284,-20.0,-18.197802197802197,25.0,26.98901098901099,90.0,89.45054945054945,0.0,-0.13186813186813187
3.86,0.4667,8.332064516783236,4.395604395604396,-20.0,-18.197802197802197,25.0,26.98901098901099,90.0,89.45054945054945,0.0,-0.13186813186813187
3.88,0.4686,9.050257855181881,5.274725274725275,-20.0,-18.197802197802197,25.0,26.98901098901099,90.0,89.45054945054945,0.0,-0.21978021978021978
3.9,0.47050000000000003,9.739928940429992,6.153846153846154,-20.0,-18.197802197802197,25.0,26.98901098901099,90.0,89.45054945054945,0.0,-0.3076923076923077
3.92,0.47240000000000004,10.398280492264298,6.945054945054945,-20.0,-18.197802197802197,25.0,26.98901098901099,90.0,89.45054945054945,0.0,-0.3076923076923077
3.94,0.47430000000000005,11.02257548851286,7.648351648351649,-20.0,-18.197802197802197,25.0,26.98901098901099,90.0,89.45054945054945,0.0,-0.3076923076923077
3.96,0.47619999999999996,11.610149704369288,8.351648351648352,-20.0,-18.197802197802197,25.0,26.98901098901099,90.0,89.45054945054945,0.0,-0.3076923076923077
3.98,0.47809999999999997,12.158424368505088,8.967032967032967,-20.0,-18.197802197802197,25.0,26.98901098901099,90.0,89.45054945054945,0.0,-0.3076923076923077
4.0,0.48,12.664918882530229,9.494505494505495,-20.0,-18.197802197802197,25.0,26.98901098901099,90.0,89.45054945054945,0.0,-0.3076923076923077
4.02,0.4819,13.127263547570866,10.021978021978022,-20.0,-18.197802197802197,25.0,26.98901098901099,90.0,89.45054945054945,0.0,-0.3076923076923077
4.04,0.4838,13.543212239151075,10.54945054945055,-20.0,-18.197802197802197,25.0,26.98901098901099,90.0,89.45054945054945,0.0,-0.3076923076923077
4.06,0.4857,13.910654969163005,11.164835164835164,-20.0,-18.197802197802197,25.0,26.98901098901099,90.0,89.45054945054945,0.0,-0.3076923076923077
4.08,0.48760000000000003,14.227630271515444,11.780219780219781,-20.0,-18.197802197802197,25.0,26.98901098901099,90.0,89.45054945054945,0.0,-0.3076923076923077
4.1,0.48949999999999994,14.49233734608103,12.307692307692308,-20.0,-18.197802197802197,25.0,26.98901098901099,90.0,89.45054945054945,0.0,-0.3076923076923077
4.12,0.49140000000000006,14.703147893848953,12.923076923076923,-20.0,-18.197802197802197,25.0,26.98901098901099,90.0,89.45054945054945,0.0,-0.3076923076923077
4.14,0.49329999999999996,14.858617574748882,13.45054945054945,-20.0,-18.197802197802197,25.0,26.98901098901099,90.0,89.45054945054945,0.0,-0.3076923076923077
4.16,0.4952,14.957497018472461,13.802197802197803,-20.0,-18.197802197802197,25.0,26.98901098901099,90.0,89.45054945054945,0.0,-0.3076923076923077
4.18,0.4971,14.998742317799268,14.065934065934066,-20.0,-18.197802197802197,25.0,26.98901098901099,90.0,89.45054945054945,0.0,-0.3076923076923077
4.2,0.499,14.981524933460237,14.241758241758241,-20.0,-18.197802197802197,25.0,26.98901098901099,90.0,89.45054945054945,0.0,-0.3076923076923077
4.22,0.5009,14.90524093946203,14.241758241758241,-20.0,-18.197802197802197,25.0,26.98901098901099,90.0,89.45054945054945,0.0,-0.3076923076923077
4.24,0.5028,14.769519538072743,14.32967032967033,-20.0,-18.197802197802197,25.0,26.98901098901099,90.0,89.45054945054945,0.0,-0.3076923076923077
4.26,0.5047,14.574230774351141,14.32967032967033,-20.0,-18.197802197802197,25.0,26.98901098901099,90.0,89.45054945054945,0.0,-0.3076923076923077
4.28,0.5066,14.319492381206095,14.241758241758241,-20.0,-18.197802197802197,25.0,26.98901098901099,90.0,89.45054945054945,0.0,-0.3076923076923077
4.3,0.5085,14.00567568751676,14.153846153846153,-20.0,-18.197802197802197,25.0,26.98901098901099,90.0,89.45054945054945,0.0,-0.3076923076923077
4.32,0.5104000000000001,13.63341052384095,14.153846153846153,-20.0,-18.197802197802197,25.0,26.98901098901099,90.0,89.45054945054945,0.0,-0.3076923076923077
4.34,0.5123,13.203589062702713,14.065934065934066,-20.0,-18.197802197802197,25.0,26.98901098901099,90.0,89.45054945054945,0.0,-0.3076923076923077
4.36,0.5142,12.717368533388498,14.065934065934066,-20.0,-18.197802197802197,25.0,26.98901098901099,90.0,89.45054945054945,0.0,-0.3076923076923077
4.38,0.5161,12.176172754605464,14.065934065934066,-20.0,-18.197802197802197,25.0,26.98901098901099,90.0,89.45054945054945,0.0,-0.3076923076923077
4.4,0.518,11.581692432266648,13.89010989010989,-20.0,-18.197802197802197,25.0,26.98901098901099,90.0,89.45054945054945,0.0,-0.3076923076923077
4.42,0.5199,10.935884174072449,13.45054945054945,-20.0,-18.197802197802197,25.0,26.98901098901099,90.0,89.45054945054945,0.0,-0.3076923076923077
4.44,0.5218,10.240968177450924,12.923076923076923,-20.0,-18.197802197802197,25.0,26.98901098901099,90.0,89.45054945054945,0.0,-0.3076923076923077
4.46,0.5237,9.499424552803154,12.483516483516484,-20.0,-18.197802197802197,25.0,26.98901098901099,90.0,89.45054945054945,0.0,-0.3076923076923077
4.48,0.5256000000000001,8.713988249858645,11.868131868131869,-20.0,-18.197802197802197,25.0,26.98901098901099,90.0,89.45054945054945,0.0,-0.3076923076923077
4.5,0.5275,7.887642561278934,11.164835164835164,-20.0,-18.197802197802197,25.0,26.98901098901099,90.0,89.45054945054945,0.0,-0.3076923076923077
4.52,0.5294,7.023611184430855,10.461538461538462,-20.0,-18.197802197802197,25.0,26.98901098901099,90.0,89.45054945054945,0.0,-0.3076923076923077
4.54,0.5313,6.125348829474809,9.758241758241759,-20.0,-18.197802197802197,25.0,26.98901098901099,90.0,89.45054945054945,0.0,-0.3076923076923077
4.56,0.5332,5.1965303695496825,9.054945054945055,-20.0,-18.197802197802197,25.0,26.98901098901099,90.0,89.45054945054945,0.0,-0.3076923076923077
4.58,0.5351,4.2410385368612715,8.351648351648352,-20.0,-18.197802197802197,25.0,26.98901098901099,90.0,89.45054945054945,0.0,-0.3076923076923077
4.6,0.5369999999999999,3.26295017686766,7.56043956043956,-20.0,-18.197802197802197,25.0,26.98901098901099,90.0,89.45054945054945,0.0,-0.3076923076923077
4.62,0.5389,2.2665210814619323,6.681318681318682,-20.0,-18.197802197802197,25.0,26.98901098901099,90.0,89.45054945054945,0.0,-0.3076923076923077
4.64,0.5408,1.2561694310517721,5.802197802197802,-20.0,-18.197802197802197,25.0,26.98901098901099,90.0,89.45054945054945,0.0,-0.3076923076923077
4.66,0.5427000000000001,0.23645788467257195,4.923076923076923,-20.0,-18.197802197802197,25.0,26.98901098901099,90.0,89.45054945054945,0.0,-0.3076923076923077
4.68,0.5446,-0.7879256332863269,3.956043956043956,-20.0,-18.197802197802197,25.0,26.98901098901099,90.0,89.45054945054945,0.0,-0.3076923076923077
4.7,0.5465,-1.812188391580359,3.076923076923077,-20.0,-18.197802197802197,25.0,26.98901098901099,90.0,89.45054945054945,0.0,-0.3076923076923077
4.72,0.5484,-2.8314544879852708,2.10989010989011,-20.0,-18.197802197802197,25.0,26.98901098901099,90.0,89.45054945054945,0.0,-0.3076923076923077
4.74,0.5503,-3.8407875849886066,1.054945054945055,-20.0,-18.197802197802197,25.0,26.98901098901099,90.0,89.45054945054945,0.0,-0.3076923076923077
4.76,0.5522,-4.835214658038928,0.17582417582417584,-20.0,-18.197802197802197,25.0,26.98901098901099,90.0,89.45054945054945,0.0,-0.3076923076923077
4.78,0.5541,-5.80975065949338,-0.967032967032967,-20.0,-18.197802197802197,25.0,26.98901098901099,90.0,89.45054945054945,0.0,-0.3076923076923077
4.8,0.5559999999999999,-6.759423991954071,-1.934065934065934,-20.0,-18.197802197802197,25.0,26.98901098901099,90.0,89.45054945054945,0.0,-0.3076923076923077
4.82,0.5579000000000001,-7.679302675462829,-2.901098901098901,-20.0,-18.197802197802197,25.0,26.98901098901099,90.0,89.45054945054945,0.0,-0.3076923076923077
4.84,0.5598,-8.56452108409979,-3.956043956043956,-20.0,-18.197802197802197,25.0,26.98901098901099,90.0,89.45054945054945,0.0,-0.3076923076923077
4.86,0.5617000000000001,-9.410307118981196,-4.835164835164835,-20.0,-18.197802197802197,25.0,26.98901098901099,90.0,89.45054945054945,0.0,-0.3076923076923077
4.88,0.5636,-10.21200967654823,-5.802197802197802,-20.0,-18.197802197802197,25.0,26.98901098901099,90.0,89.45054945054945,0.0,-0.3076923076923077
4.9,0.5655,-10.965126263463226,-6.769230769230769,-20.0,-18.197802197802197,25.0,26.98901098901099,90.0,89.45054945054945,0.0,-0.3076923076923077
4.92,0.5674,-11.665330602453208,-7.648351648351649,-20.0,-18.197802197802197,25.0,26.98901098901099,90.0,89.45054945054945,0.0,-0.3076923076923077
4.94,0.5693,-12.308500067148513,-8.527472527472527,-20.0,-18.197802197802197,25.0,26.98901098901099,90.0,89.45054945054945,0.0,-0.3076923076923077
4.96,0.5712,-12.890742778424942,-9.406593406593407,-20.0,-18.197802197802197,25.0,26.98901098901099,90.0,89.45054945054945,0.0,-0.3076923076923077
4.98,0.5731,-13.408424190054369,-10.10989010989011,-20.0,-18.197802197802197,25.0,26.98901098901099,90.0,89.45054945054945,0.0,-0.3076923076923077
5.0,0.575,-13.858192987669296,-10.813186813186814,-20.0,-18.197802197802197,25.0,26.98901098901099,90.0,89.45054945054945,0.0,-0.3076923076923077
5.02,0.5769,-14.237006122227848,-11.516483516483516,-20.0,-18.197802197802197,25.0,26.98901098901099,90.0,89.45054945054945,0.0,-0.3076923076923077
5.04,0.5788,-14.542152797390186,-12.131868131868131,-20.0,-18.197802197802197,25.0,26.98901098901099,90.0,89.45054945054945,0.0,-0.3076923076923077
5.06,0.5807,-14.77127722955552,-12.659340659340659,-20.0,-18.197802197802197,25.0,26.98901098901099,90.0,89.45054945054945,0.0,-0.3076923076923077
5.08,0.5826,-14.922399999816294,-13.186813186813186,-20.0,-18.197802197802197,25.0,26.98901098901099,90.0,89.45054945054945,0.0,-0.3076923076923077
5.1,0.5845,-14.993937818819346,-13.538461538461538,-20.0,-18.197802197802197,25.0,26.98901098901099,90.0,89.45054945054945,0.0,-0.3076923076923077
5.12,0.5864,-14.984721528532654,-13.89010989010989,-20.0,-18.197802197802197,25.0,26.98901098901099,90.0,89.45054945054945,0.0,-0.3076923076923077
5.14,0.5882999999999999,-14.89401216924045,-14.153846153846153,-20.0,-18.197802197802197,25.0,26.98901098901099,90.0,89.45054945054945,0.0,-0.21978021978021978
5.16,0.5902000000000001,-14.72151494576594,-14.32967032967033,-20.0,-18.197802197802197,25.0,26.98901098901099,90.0,89.45054945054945,0.0,-0.13186813186813187
5.18,0.5921,-14.467390933974965,-14.417582417582418,-20.0,-18.197802197802197,25.0,26.98901098901099,90.0,89.45054945054945,0.0,-0.13186813186813187
5.2,0.5940000000000001,-14.132266377063887,-14.417582417582418,-20.0,-18.197802197802197,25.0,26.98901098901099,90.0,89.45054945054945,0.0,-0.04395604395604396
5.22,0.5959,-13.717239430989753,-14.417582417582418,-20.0,-18.197802197802197,25.0,26.98901098901099,90.0,89.45054945054945,0.0,-0.04395604395604396
5.24,0.5978,-13.22388422965725,-14.417582417582418,-20.0,-18.197802197802197,25.0,26.98901098901099,90.0,89.45054945054945,0.0,-0.04395604395604396
5.26,0.5997,-12.65425215312589,-14.417582417582418,-20.0,-18.197802197802197,25.0,26.98901098901099,90.0,89.45054945054945,0.0,-0.04395604395604396
5.28,0.6016,-12.010870196114398,-14.32967032967033,-20.0,-18.197802197802197,25.0,26.98901098901099,90.0,89.45054945054945,0.0,-0.13186813186813187
5.3,0.6034999999999999,-11.29673634942882,-14.065934065934066,-20.0,-18.197802197802197,25.0,26.98901098901099,90.0,89.45054945054945,0.0,-0.13186813186813187
5.32,0.6054,-10.515311923571682,-13.538461538461538,-20.0,-18.197802197802197,25.0,26.98901098901099,90.0,89.45054945054945,0.0,-0.04395604395604396
5.34,0.6073,-9.670510761652316,-13.098901098901099,-20.0,-18.197802197802197,25.0,26.98901098901099,90.0,89.45054945054945,0.0,0.04395604395604396
5.36,0.6092,-8.766685307730251,-12.483516483516484,-20.0,-18.197802197802197,25.0,26.98901098901099,90.0,89.45054945054945,0.0,0.04395604395604396
5.38,0.6111,-7.8086095168124245,-11.692307692307692,-20.0,-18.197802197802197,25.0,26.98901098901099,90.0,89.45054945054945,0.0,0.04395604395604396
5.4,0.613,-6.8014586137817,-10.989010989010989,-20.0,-18.197802197802197,25.0,26.98901098901099,90.0,89.45054945054945,0.0,0.04395604395604396
5.42,0.6149,-5.750785730460962,-10.197802197802197,-20.0,-18.197802197802197,25.0,26.98901098901099,90.0,89.45054945054945,0.0,0.04395604395604396
5.44,0.6168,-4.662495472681013,-9.406593406593407,-20.0,-18.197802197802197,25.0,26.98901098901099,90.0,89.45054945054945,0.0,-0.04395604395604396
5.46,0.6187,-3.5428144924973415,-8.527472527472527,-20.0,-18.197802197802197,25.0,26.98901098901099,90.0,89.45054945054945,0.0,-0.13186813186813187
5.48,0.6206,-2.3982591644353213,-7.56043956043956,-20.0,-18.197802197802197,25.0,26.98901098901099,90.0,89.45054945054945,0.0,-0.13186813186813187
5.5,0.6224999999999999,-1.2356004886873024,-6.593406593406593,-20.0,-18.197802197802197,25.0,26.98901098901099,90.0,89.45054945054945,0.0,-0.13186813186813187
5.52,0.6244,-0.06182636836112497,-5.626373626373627,-20.0,-18.197802197802197,25.0,26.98901098901099,90.0,89.45054945054945,0.0,-0.13186813186813187
5.54,0.6263,1.1158985679797844,-4.571428571428571,-20.0,-18.197802197802197,25.0,26.98901098901099,90.0,89.45054945054945,0.0,-0.13186813186813187
5.56,0.6282,2.290275403336543,-3.4285714285714284,-20.0,-18.197802197802197,25.0,26.98901098901099,90.0,89.45054945054945,0.0,-0.13186813186813187
5.58,0.6301,3.453915410217384,-2.3736263736263736,-20.0,-18.197802197802197,25.0,26.98901098901099,90.0,89.45054945054945,0.0,-0.13186813186813187
5.6,0.6319999999999999,4.599386327998164,-1.3186813186813187,-20.0,-18.197802197802197,25.0,26.98901098901099,90.0,89.45054945054945,0.0,-0.13186813186813187
5.62,0.6339,5.719260176163859,-0.17582417582417584,-20.0,-18.197802197802197,25.0,26.98901098901099,90.0,89.45054945054945,0.0,-0.13186813186813187
5.64,0.6357999999999999,6.80616231889389,1.054945054945055,-20.0,-18.197802197802197,25.0,26.98901098901099,90.0,89.45054945054945,0.0,-0.13186813186813187
5.66,0.6377,7.852821476718129,2.197802197802198,-20.0,-18.197802197802197,25.0,26.98901098901099,90.0,89.45054945054945,0.0,-0.21978021978021978
5.68,0.6396,8.852120362688659,3.2527472527472527,-20.0,-18.197802197802197,25.0,26.98901098901099,90.0,89.45054945054945,0.0,-0.3076923076923077
5.7,0.6415,9.797146603924169,4.395604395604396,-20.0,-18.197802197802197,25.0,26.98901098901099,90.0,89.45054945054945,0.0,-0.3076923076923077
5.72,0.6434,10.681243594672331,5.538461538461538,-20.0,-18.197802197802197,25.0,26.98901098901099,90.0,89.45054945054945,0.0,-0.3076923076923077
5.74,0.6453,11.498060914430429,6.593406593406593,-20.0,-18.197802197802197,25.0,26.98901098901099,90.0,89.45054945054945,0.0,-0.3076923076923077
5.76,0.6472,12.241603934343196,7.648351648351649,-20.0,-18.197802197802197,25.0,26.98901098901099,90.0,89.45054945054945,0.0,-0.3076923076923077
5.78,0.6491,12.906282227264082,8.615384615384615,-20.0,-18.197802197802197,25.0,26.98901098901099,90.0,89.45054945054945,0.0,-0.3076923076923077
5.8,0.6509999999999999,13.486956391690663,9.582417582417582,-20.0,-18.197802197802197,25.0,26.98901098901099,90.0,89.45054945054945,0.0,-0.3076923076923077
5.82,0.6529,13.978982897436449,10.461538461538462,-20.0,-18.197802197802197,25.0,26.98901098901099,90.0,89.45054945054945,0.0,-0.3076923076923077
5.84,0.6547999999999999,14.378256561527461,11.340659340659341,-20.0,-18.197802197802197,25.0,26.98901098901099,90.0,89.45054945054945,0.0,-0.3076923076923077
5.86,0.6567000000000001,14.681250266546256,12.043956043956044,-20.0,-18.197802197802197,25.0,26.98901098901099,90.0,89.45054945054945,0.0,-0.3076923076923077
5.88,0.6586,14.885051540598559,12.659340659340659,-20.0,-18.197802197802197,25.0,26.98901098901099,90.0,89.45054945054945,0.0,-0.3076923076923077
5.9,0.6605,14.987395628343558,13.186813186813186,-20.0,-18.197802197802197,25.0,26.98901098901099,90.0,89.45054945054945,0.0,-0.3076923076923077
5.92,0.6624,14.986694696169508,13.538461538461538,-20.0,-18.197802197802197,25.0,26.98901098901099,90.0,89.45054945054945,0.0,-0.3076923076923077
5.94,0.6643,14.882062831658933,13.802197802197803,-20.0,-18.197802197802197,25.0,26.98901098901099,90.0,89.45054945054945,0.0,-0.3076923076923077
5.96,0.6662,14.673336517982202,13.978021978021978,-20.0,-18.197802197802197,25.0,26.98901098901099,90.0,89.45054945054945,0.0,-0.3076923076923077
5.98,0.6681,14.36109028777256,14.065934065934066,-20.0,-18.197802197802197,25.0,26.98901098901099,90.0,89.45054945054945,0.0,-0.3076923076923077
6.0,0.67,13.946647288323756,14.153846153846153,-20.0,-18.197802197802197,25.0,26.98901098901099,90.0,89.45054945054945,0.0,-0.3076923076923077
6.02,0.6718999999999999,13.432084520536103,14.153846153846153,-20.0,-18.197802197802197,25.0,26.98901098901099,90.0,89.45054945054945,0.0,-0.3076923076923077
6.04,0.6738,12.820232547810516,14.065934065934066,-20.0,-18.197802197802197,25.0,26.98901098901099,90.0,89.45054945054945,0.0,-0.3076923076923077
6.06,0.6757,12.114669507908292,13.89010989010989,-20.0,-18.197802197802197,25.0,26.98901098901099,90.0,89.45054945054945,0.0,-0.3076923076923077
6.08,0.6776,11.319709300481021,13.626373626373626,-20.0,-18.197802197802197,25.0,26.98901098901099,90.0,89.45054945054945,0.0,-0.3076923076923077
6.1,0.6795,10.440383865321609,13.186813186813186,-20.0,-18.197802197802197,25.0,26.98901098901099,90.0,89.45054945054945,0.0,-0.3076923076923077
6.12,0.6814,9.48241951114459,12.747252747252746,-20.0,-18.197802197802197,25.0,26.98901098901099,90.0,89.45054945054945,0.0,-0.3076923076923077
6.14,0.6832999999999999,8.452207301600279,12.131868131868131,-20.0,-18.197802197802197,25.0,26.98901098901099,90.0,89.45054945054945,0.0,-0.3076923076923077
6.16,0.6852,7.356767553943773,11.428571428571429,-20.0,-18.197802197802197,25.0,26.98901098901099,90.0,89.45054945054945,0.0,-0.3076923076923077
6.18,0.6870999999999999,6.203708555983656,10.637362637362637,-20.0,-18.197802197802197,25.0,26.98901098901099,90.0,89.45054945054945,0.0,-0.3076923076923077
6.2,0.6890000000000001,5.00117965824076,9.846153846153847,-20.0,-18.197802197802197,25.0,26.98901098901099,90.0,89.45054945054945,0.0,-0.3076923076923077
6.22,0.6909,3.7578189502722923,8.87912087912088,-20.0,-18.197802197802197,25.0,26.98901098901099,90.0,89.45054945054945,0.0,-0.3076923076923077
6.24,0.6928,2.4826957824087903,7.912087912087912,-20.0,-18.197802197802197,25.0,26.98901098901099,90.0,89.45054945054945,0.0,-0.3076923076923077
6.26,0.6947,1.1852484462896222,6.857142857142857,-20.0,-18.197802197802197,25.0,26.98901098901099,90.0,89.45054945054945,0.0,-0.3076923076923077
6.28,0.6966,-0.12478262093129398,5.802197802197802,-20.0,-18.197802197802197,25.0,26.98901098901099,90.0,89.45054945054945,0.0,-0.3076923076923077
6.3,0.6985,-1.437425693469036,4.65934065934066,-20.0,-18.197802197802197,25.0,26.98901098901099,90.0,89.45054945054945,0.0,-0.3076923076923077
6.32,0.7004,-2.742552210907124,3.5164835164835164,-20.0,-18.197802197802197,25.0,26.98901098901099,90.0,89.45054945054945,0.0,-0.3076923076923077
6.34,0.7022999999999999,-4.029954318735317,2.2857142857142856,-20.0,-18.197802197802197,25.0,26.98901098901099,90.0,89.45054945054945,0.0,-0.3076923076923077
6.36,0.7042,-5.289424940906706,1.1428571428571428,-20.0,-18.197802197802197,25.0,26.98901098901099,90.0,89.45054945054945,0.0,-0.3076923076923077
6.38,0.7061,-6.510839789107797,-0.17582417582417584,-20.0,-18.197802197802197,25.0,26.98901098901099,90.0,89.45054945054945,0.0,-0.3076923076923077
6.4,0.7080000000000001,-7.68424067633821,-1.4945054945054945,-20.0,-18.197802197802197,25.0,26.98901098901099,90.0,89.45054945054945,0.0,-0.3076923076923077
6.42,0.7099,-8.799919469459736,-2.7252747252747254,-20.0,-18.197802197802197,25.0,26.98901098901099,90.0,89.45054945054945,0.0,-0.3076923076923077
6.44,0.7118,-9.848501987112272,-3.956043956043956,-20.0,-18.197802197802197,25.0,26.98901098901099,90.0,89.45054945054945,0.0,-0.3076923076923077
6.46,0.7137,-10.821031126240417,-5.186813186813187,-20.0,-18.197802197802197,25.0,26.98901098901099,90.0,89.45054945054945,0.0,-0.3076923076923077
6.48,0.7156,-11.709048482889772,-6.417582417582418,-20.0,-18.197802197802197,25.0,26.98901098901099,90.0,89.45054945054945,0.0,-0.3076923076923077
6.5,0.7175,-12.504673721299998,-7.56043956043956,-20.0,-18.197802197802197,25.0,26.98901098901099,90.0,89.45054945054945,0.0,-0.3076923076923077
6.52,0.7193999999999999,-13.20068094002401,-8.615384615384615,-20.0,-18.197802197802197,25.0,26.98901098901099,90.0,89.45054945054945,0.0,-0.3076923076923077
6.54,0.7212999999999999,-13.79057128514816,-9.582417582417582,-20.0,-18.197802197802197,25.0,26.98901098901099,90.0,89.45054945054945,0.0,-0.3076923076923077
6.56,0.7232,-14.26864106895981,-10.637362637362637,-20.0,-18.197802197802197,25.0,26.98901098901099,90.0,89.45054945054945,0.0,-0.3076923076923077
6.58,0.7251,-14.63004466781765,-11.428571428571429,-20.0,-18.197802197802197,25.0,26.98901098901099,90.0,89.45054945054945,0.0,-0.3076923076923077
6.6,0.727,-14.870851495688855,-12.219780219780219,-20.0,-18.197802197802197,25.0,26.98901098901099,90.0,89.45054945054945,0.0,-0.21978021978021978
6.62,0.7289,-14.988096379921625,-12.835164835164836,-20.0,-18.197802197802197,25.0,26.98901098901099,90.0,89.45054945054945,0.0,-0.21978021978021978
6.64,0.7308,-14.979822703344853,-13.45054945054945,-20.0,-18.197802197802197,25.0,26.98901098901099,90.0,89.45054945054945,0.0,-0.13186813186813187
6.66,0.7327,-14.845117721688492,-13.89010989010989,-20.0,-18.197802197802197,25.0,26.98901098901099,90.0,89.45054945054945,0.0,0.04395604395604396
6.68,0.7345999999999999,-14.58413951747426,-14.241758241758241,-20.0,-18.197802197802197,25.0,26.98901098901099,90.0,89.45054945054945,0.0,0.04395604395604396
6.7,0.7365,-14.198135110741589,-14.32967032967033,-20.0,-18.197802197802197,25.0,26.98901098901099,90.0,89.45054945054945,0.0,0.04395604395604396
6.72,0.7384,-13.68944931296907,-14.32967032967033,-20.0,-18.197802197802197,25.0,26.98901098901099,90.0,89.45054945054945,0.0,0.04395604395604396
6.74,0.7403,-13.061523982968556,-14.32967032967033,-20.0,-18.197802197802197,25.0,26.98901098901099,90.0,89.45054945054945,0.0,0.04395604395604396
6.76,0.7422,-12.318887421930125,-14.153846153846153,-20.0,-18.197802197802197,25.0,26.98901098901099,90.0,89.45054945054945,0.0,0.04395604395604396
6.78,0.7441,-11.467133728656915,-13.89010989010989,-20.0,-18.197802197802197,25.0,26.98901098901099,90.0,89.45054945054945,0.0,0.04395604395604396
6.8,0.746,-10.512892024753503,-13.45054945054945,-20.0,-18.197802197802197,25.0,26.98901098901099,90.0,89.45054945054945,0.0,0.04395604395604396
6.82,0.7479,-9.463785552440964,-13.010989010989011,-20.0,-18.197802197802197,25.0,26.98901098901099,90.0,89.45054945054945,0.0,0.04395604395604396
6.84,0.7498,-8.32838074401516,-12.395604395604396,-20.0,-18.197802197802197,25.0,26.98901098901099,90.0,89.45054945054945,0.0,0.04395604395604396
6.86,0.7517,-7.116126460922656,-11.692307692307692,-20.0,-18.197802197802197,25.0,26.98901098901099,90.0,89.45054945054945,0.0,0.04395604395604396
6.88,0.7535999999999999,-5.83728370111369,-10.901098901098901,-20.0,-18.197802197802197,25.0,26.98901098901099,90.0,89.45054945054945,0.0,0.04395604395604396
6.9,0.7555000000000001,-4.5028461748040645,-9.934065934065934,-20.0,-18.197802197802197,25.0,26.98901098901099,90.0,89.45054945054945,0.0,0.04395604395604396
6.92,0.7574,-3.1244522500386127,-9.054945054945055,-20.0,-18.197802197802197,25.0,26.98901098901099,90.0,89.45054945054945,0.0,0.04395604395604396
6.94,0.7593,-1.7142888694605132,-7.912087912087912,-20.0,-18.197802197802197,25.0,26.98901098901099,90.0,89.45054945054945,0.0,0.04395604395604396
6.96,0.7612,-0.28498813738913226,-6.857142857142857,-20.0,-18.197802197802197,25.0,26.98901098901099,90.0,89.45054945054945,0.0,0.04395604395604396
6.98,0.7631,1.1504826294182882,-5.626373626373627,-20.0,-18.197802197802197,25.0,26.98901098901099,90.0,89.45054945054945,0.0,0.04395604395604396
7.0,0.765,2.578936504191157,-4.395604395604396,-20.0,-18.197802197802197,25.0,26.98901098901099,90.0,89.45054945054945,0.0,0.04395604395604396
7.02,0.7668999999999999,3.9870872385151372,-2.989010989010989,-20.0,-18.197802197802197,25.0,26.98901098901099,90.0,89.45054945054945,0.0,0.04395604395604396
7.04,0.7688,5.361673192035845,-1.7582417582417582,-20.0,-18.197802197802197,25.0,26.98901098901099,90.0,89.45054945054945,0.0,0.04395604395604396
7.06,0.7706999999999999,6.68958378933501,-0.3516483516483517,-20.0,-18.197802197802197,25.0,26.98901098901099,90.0,89.45054945054945,0.0,0.04395604395604396
7.08,0.7726,7.957987329140921,0.967032967032967,-20.0,-18.197802197802197,25.0,26.98901098901099,90.0,89.45054945054945,0.0,-0.04395604395604396
7.1,0.7745,9.15445892021577,2.2857142857142856,-20.0,-18.197802197802197,25.0,26.98901098901099,90.0,89.45054945054945,0.0,-0.13186813186813187
7.12,0.7764,10.267107278251874,3.6043956043956045,-20.0,-18.197802197802197,25.0,26.98901098901099,90.0,89.45054945054945,0.0,-0.21978021978021978
7.14,0.7783,11.284699089753273,4.923076923076923,-20.0,-18.197802197802197,25.0,26.98901098901099,90.0,89.45054945054945,0.0,-0.3076923076923077
7.16,0.7802,12.196779632960665,6.241758241758242,-20.0,-18.197802197802197,25.0,26.98901098901099,90.0,89.45054945054945,0.0,-0.3076923076923077
7.18,0.7820999999999999,12.993788343061267,7.56043956043956,-20.0,-18.197802197802197,25.0,26.98901098901099,90.0,89.45054945054945,0.0,-0.3076923076923077
7.2,0.784,13.667168019772497,8.791208791208792,-20.0,-18.197802197802197,25.0,26.98901098901099,90.0,89.45054945054945,0.0,-0.3076923076923077
7.22,0.7858999999999999,14.209466400324693,9.934065934065934,-20.0,-18.197802197802197,25.0,26.98901098901099,90.0,89.45054945054945,0.0,-0.3076923076923077
7.24,0.7878000000000001,14.614428860198789,10.989010989010989,-20.0,-18.197802197802197,25.0,26.98901098901099,90.0,89.45054945054945,0.0,-0.3076923076923077
7.26,0.7897,14.877081057836724,11.868131868131869,-20.0,-18.197802197802197,25.0,26.98901098901099,90.0,89.45054945054945,0.0,-0.3076923076923077
7.28,0.7916,14.99380040794096,12.483516483516484,-20.0,-18.197802197802197,25.0,26.98901098901099,90.0,89.45054945054945,0.0,-0.3076923076923077
7.3,0.7935,14.962375350736663,13.010989010989011,-20.0,-18.197802197802197,25.0,26.98901098901099,90.0,89.45054945054945,0.0,-0.3076923076923077
7.32,0.7954,14.782051481356406,13.45054945054945,-20.0,-18.197802197802197,25.0,26.98901098901099,90.0,89.45054945054945,0.0,-0.3076923076923077
7.34,0.7973,14.453563713807405,13.714285714285714,-20.0,-18.197802197802197,25.0,26.98901098901099,90.0,89.45054945054945,0.0,-0.3076923076923077
7.36,0.7992,13.979153777114973,13.89010989010989,-20.0,-18.197802197802197,25.0,26.98901098901099,90.0,89.45054945054945,0.0,-0.3076923076923077
7.38,0.8010999999999999,13.362572476341052,13.89010989010989,-20.0,-18.197802197802197,25.0,26.98901098901099,90.0,89.45054945054945,0.0,-0.3076923076923077
7.4,0.803,12.609066297219911,13.89010989010989,-20.0,-18.197802197802197,25.0,26.98901098901099,90.0,89.45054945054945,0.0,-0.3076923076923077
7.42,0.8049,11.725348088933929,13.802197802197803,-20.0,-18.197802197802197,25.0,26.98901098901099,90.0,89.45054945054945,0.0,-0.3076923076923077
7.44,0.8068000000000001,10.719551723695918,13.538461538461538,-20.0,-18.197802197802197,25.0,26.98901098901099,90.0,89.45054945054945,0.0,-0.3076923076923077
7.46,0.8087,9.60117080280094,13.010989010989011,-20.0,-18.197802197802197,25.0,26.98901098901099,90.0,89.45054945054945,0.0,-0.3076923076923077
7.48,0.8106,8.38098165497386,12.483516483516484,-20.0,-18.197802197802197,25.0,26.98901098901099,90.0,89.45054945054945,0.0,-0.3076923076923077
7.5,0.8125,7.070951052389954,11.780219780219781,-20.0,-18.197802197802197,25.0,26.98901098901099,90.0,89.45054945054945,0.0,-0.3076923076923077
7.52,0.8143999999999999,5.684129250746533,10.901098901098901,-20.0,-18.197802197802197,25.0,26.98901098901099,90.0,89.45054945054945,0.0,-0.3076923076923077
7.54,0.8163,4.234529140216156,10.021978021978022,-20.0,-18.197802197802197,25.0,26.98901098901099,90.0,89.45054945054945,0.0,-0.3076923076923077
7.56,0.8181999999999999,2.7369924719068806,8.967032967032967,-20.0,-18.197802197802197,25.0,26.98901098901099,90.0,89.45054945054945,0.0,-0.3076923076923077
7.58,0.8200999999999999,1.2070442974400812,7.736263736263736,-20.0,-18.197802197802197,25.0,26.98901098901099,90.0,89.45054945054945,0.0,-0.3076923076923077
7.6,0.822,-0.33926307475090167,6.593406593406593,-20.0,-18.197802197802197,25.0,26.98901098901099,90.0,89.45054945054945,0.0,-0.3076923076923077
7.62,0.8239,-1.8855151460145438,5.362637362637362,-20.0,-18.197802197802197,25.0,26.98901098901099,90.0,89.45054945054945,0.0,-0.3076923076923077
7.64,0.8258,-3.415107711174542,4.043956043956044,-20.0,-18.197802197802197,25.0,26.98901098901099,90.0,89.45054945054945,0.0,-0.3076923076923077
7.66,0.8277,-4.911425021658541,2.5494505494505493,-20.0,-18.197802197802197,25.0,26.98901098901099,90.0,89.45054945054945,0.0,-0.3076923076923077
7.68,0.8296,-6.358021774121289,1.2307692307692308,-20.0,-18.197802197802197,25.0,26.98901098901099,90.0,89.45054945054945,0.0,-0.3076923076923077
7.7,0.8315,-7.738806971916225,-0.26373626373626374,-20.0,-18.197802197802197,25.0,26.98901098901099,90.0,89.45054945054945,0.0,-0.3076923076923077
7.72,0.8333999999999999,-9.038227627476623,-1.6703296703296704,-20.0,-18.197802197802197,25.0,26.98901098901099,90.0,89.45054945054945,0.0,-0.3076923076923077
7.74,0.8353,-10.24145021547015,-3.2527472527472527,-20.0,-18.197802197802197,25.0,26.98901098901099,90.0,89.45054945054945,0.0,-0.3076923076923077
7.76,0.8371999999999999,-11.334537750986135,-4.65934065934066,-20.0,-18.197802197802197,25.0,26.98901098901099,90.0,89.45054945054945,0.0,-0.3076923076923077
7.78,0.8391,-12.304620355293915,-5.978021978021978,-20.0,-18.197802197802197,25.0,26.98901098901099,90.0,89.45054945054945,0.0,-0.3076923076923077
7.8,0.841,-13.140057184906507,-7.2967032967032965,-20.0,-18.197802197802197,25.0,26.98901098901099,90.0,89.45054945054945,0.0,-0.3076923076923077
7.82,0.8429,-13.830587638596953,-8.615384615384615,-20.0,-18.197802197802197,25.0,26.98901098901099,90.0,89.45054945054945,0.0,-0.3076923076923077
7.84,0.8448,-14.367469822123704,-9.846153846153847,-20.0,-18.197802197802197,25.0,26.98901098901099,90.0,89.45054945054945,0.0,-0.3076923076923077
7.86,0.8467,-14.743604341935164,-10.901098901098901,-20.0,-18.197802197802197,25.0,26.98901098901099,90.0,89.45054945054945,0.0,-0.3076923076923077
7.88,0.8486,-14.953641616903221,-11.868131868131869,-20.0,-18.197802197802197,25.0,26.98901098901099,90.0,89.45054945054945,0.0,-0.3076923076923077
7.9,0.8505,-14.994071040726116,-12.747252747252746,-20.0,-18.197802197802197,25.0,26.98901098901099,90.0,89.45054945054945,0.0,-0.21978021978021978
7.92,0.8523999999999999,-14.863290496234946,-13.362637362637363,-20.0,-18.197802197802197,25.0,26.98901098901099,90.0,89.45054945054945,0.0,-0.04395604395604396
7.94,0.8543000000000001,-14.561654915282954,-13.802197802197803,-20.0,-18.197802197802197,25.0,26.98901098901099,90.0,89.45054945054945,0.0,0.04395604395604396
7.96,0.8562,-14.091502792690997,-13.978021978021978,-20.0,-18.197802197802197,25.0,26.98901098901099,90.0,89.45054945054945,0.0,0.04395604395604396
7.98,0.8581,-13.457159798017143,-14.065934065934066,-20.0,-18.197802197802197,25.0,26.98901098901099,90.0,89.45054945054945,0.0,0.04395604395604396
8.0,0.86,-12.664918882530245,-14.065934065934066,-20.0,-18.197802197802197,25.0,26.98901098901099,90.0,89.45054945054945,0.0,0.04395604395604396
8.02,0.8619,-11.722996548183637,-13.978021978021978,-20.0,-18.197802197802197,25.0,26.98901098901099,90.0,89.45054945054945,0.0,0.04395604395604396
8.04,0.8637999999999999,-10.64146522779597,-13.714285714285714,-20.0,-18.197802197802197,25.0,26.98901098901099,90.0,89.45054945054945,0.0,0.04395604395604396
8.06,0.8657,-9.43216201794783,-13.274725274725276,-20.0,-18.197802197802197,25.0,26.98901098901099,90.0,89.45054945054945,0.0,0.04395604395604396
8.08,0.8676,-8.10857430495073,-12.659340659340659,-20.0,-18.197802197802197,25.0,26.98901098901099,90.0,89.45054945054945,0.0,0.04395604395604396
8.1,0.8694999999999999,-6.6857031260532125,-11.956043956043956,-20.0,-18.197802197802197,25.0,26.98901098901099,90.0,89.45054945054945,0.0,0.04395604395604396
8.12,0.8714,-5.179905409076294,-11.164835164835164,-20.0,-18.197802197802197,25.0,26.98901098901099,90.0,89.45054945054945,0.0,0.04395604395604396
8.14,0.8733000000000001,-3.6087165299969146,-10.10989010989011,-20.0,-18.197802197802197,25.0,26.98901098901099,90.0,89.45054945054945,0.0,0.04395604395604396
8.16,0.8752,-1.9906549156435085,-8.967032967032967,-20.0,-18.197802197802197,25.0,26.98901098901099,90.0,89.45054945054945,0.0,0.04395604395604396
8.18,0.8771,-0.34501069357095343,-7.736263736263736,-20.0,-18.197802197802197,25.0,26.98901098901099,90.0,89.45054945054945,0.0,0.04395604395604396
8.2,0.8789999999999999,1.3083793506764243,-6.417582417582418,-20.0,-18.197802197802197,25.0,26.98901098901099,90.0,89.45054945054945,0.0,0.04395604395604396
8.22,0.8809,2.949368011334111,-5.0989010989010985,-20.0,-18.197802197802197,25.0,26.98901098901099,90.0,89.45054945054945,0.0,0.04395604395604396
8.24,0.8828,4.557742384874111,-3.6923076923076925,-20.0,-18.197802197802197,25.0,26.98901098901099,90.0,89.45054945054945,0.0,0.04395604395604396
8.26,0.8846999999999999,6.113474182359119,-2.10989010989011,-20.0,-18.197802197802197,25.0,26.98901098901099,90.0,89.45054945054945,0.0,0.04395604395604396
8.28,0.8865999999999999,7.596972584225622,-0.6153846153846154,-20.0,-18.197802197802197,25.0,26.98901098901099,90.0,89.45054945054945,0.0,0.04395604395604396
8.3,0.8885000000000001,8.989336472286519,0.8791208791208791,-20.0,-18.197802197802197,25.0,26.98901098901099,90.0,89.45054945054945,0.0,0.04395604395604396
8.32,0.8904,10.272602793779305,2.4615384615384617,-20.0,-18.197802197802197,25.0,26.98901098901099,90.0,89.45054945054945,0.0,-0.04395604395604396
8.34,0.8923,11.429987772498638,4.043956043956044,-20.0,-18.197802197802197,25.0,26.98901098901099,90.0,89.45054945054945,0.0,-0.13186813186813187
8.36,0.8941999999999999,12.446117684441925,5.538461538461538,-20.0,-18.197802197802197,25.0,26.98901098901099,90.0,89.45054945054945,0.0,-0.3076923076923077
8.38,0.8961,13.307245961426256,7.032967032967033,-20.0,-18.197802197802197,25.0,26.98901098901099,90.0,89.45054945054945,0.0,-0.3076923076923077
8.4,0.898,14.001453476746153,8.527472527472527,-20.0,-18.197802197802197,25.0,26.98901098901099,90.0,89.45054945054945,0.0,-0.3076923076923077
8.42,0.8999,14.518829002499322,9.846153846153847,-20.0,-18.197802197802197,25.0,26.98901098901099,90.0,89.45054945054945,0.0,-0.3076923076923077
8.44,0.9017999999999999,14.851627008458232,10.989010989010989,-20.0,-18.197802197802197,25.0,26.98901098901099,90.0,89.45054945054945,0.0,-0.3076923076923077
8.46,0.9037000000000001,14.99440019644696,11.868131868131869,-20.0,-18.197802197802197,25.0,26.98901098901099,90.0,89.45054945054945,0.0,-0.3076923076923077
8.48,0.9056000000000001,14.944104430565003,12.571428571428571,-20.0,-18.197802197802197,25.0,26.98901098901099,90.0,89.45054945054945,0.0,-0.3076923076923077
8.5,0.9075,14.700174030121747,13.098901098901099,-20.0,-18.197802197802197,25.0,26.98901098901099,90.0,89.45054945054945,0.0,-0.3076923076923077
8.52,0.9094,14.264565735987166,13.45054945054945,-20.0,-18.197802197802197,25.0,26.98901098901099,90.0,89.45054945054945,0.0,-0.3076923076923077
8.54,0.9112999999999999,13.64177003877664,13.626373626373626,-20.0,-18.197802197802197,25.0,26.98901098901099,90.0,89.45054945054945,0.0,-0.3076923076923077
8.56,0.9132,12.838788964802538,13.714285714285714,-20.0,-18.197802197802197,25.0,26.98901098901099,90.0,89.45054945054945,0.0,-0.3076923076923077
8.58,0.9151,11.8650798484027,13.714285714285714,-20.0,-18.197802197802197,25.0,26.98901098901099,90.0,89.45054945054945,0.0,-0.3076923076923077
8.6,0.9169999999999999,10.73246507190363,13.45054945054945,-20.0,-18.197802197802197,25.0,26.98901098901099,90.0,89.45054945054945,0.0,-0.3076923076923077
8.62,0.9188999999999999,9.45500822143293,13.098901098901099,-20.0,-18.197802197802197,25.0,26.98901098901099,90.0,89.45054945054945,0.0,-0.3076923076923077
8.64,0.9208000000000001,8.048857581957245,12.571428571428571,-20.0,-18.197802197802197,25.0,26.98901098901099,90.0,89.45054945054945,0.0,-0.3076923076923077
8.66,0.9227,6.532058371843441,11.780219780219781,-20.0,-18.197802197802197,25.0,26.98901098901099,90.0,89.45054945054945,0.0,-0.3076923076923077
8.68,0.9246,4.924335589192302,10.901098901098901,-20.0,-18.197802197802197,25.0,26.98901098901099,90.0,89.45054945054945,0.0,-0.3076923076923077
8.7,0.9264999999999999,3.246849802274094,9.846153846153847,-20.0,-18.197802197802197,25.0,26.98901098901099,90.0,89.45054945054945,0.0,-0.3076923076923077
8.72,0.9284,1.5219286575782334,8.703296703296703,-20.0,-18.197802197802197,25.0,26.98901098901099,90.0,89.45054945054945,0.0,-0.3076923076923077
8.74,0.9303,-0.22722270570398465,7.384615384615385,-20.0,-18.197802197802197,25.0,26.98901098901099,90.0,89.45054945054945,0.0,-0.3076923076923077
8.76,0.9321999999999999,-1.9768287634232027,5.978021978021978,-20.0,-18.197802197802197,25.0,26.98901098901099,90.0,89.45054945054945,0.0,-0.3076923076923077
8.78,0.9340999999999999,-3.7028643220267417,4.65934065934066,-20.0,-18.197802197802197,25.0,26.98901098901099,90.0,89.45054945054945,0.0,-0.3076923076923077
8.8,0.936,-5.381384630233516,3.1648351648351647,-20.0,-18.197802197802197,25.0,26.98901098901099,90.0,89.45054945054945,0.0,-0.3076923076923077
8.82,0.9379000000000001,-6.988860429578291,1.5824175824175823,-20.0,-18.197802197802197,25.0,26.98901098901099,90.0,89.45054945054945,0.0,-0.3076923076923077
8.84,0.9398,-8.502513298091051,-0.08791208791208792,-20.0,-18.197802197802197,25.0,26.98901098901099,90.0,89.45054945054945,0.0,-0.3076923076923077
8.86,0.9417,-9.900646514705963,-1.6703296703296704,-20.0,-18.197802197802197,25.0,26.98901098901099,90.0,89.45054945054945,0.0,-0.3076923076923077
8.88,0.9436000000000001,-11.162966611107498,-3.340659340659341,-20.0,-18.197802197802197,25.0,26.98901098901099,90.0,89.45054945054945,0.0,-0.3076923076923077
8.9,0.9455,-12.270890785771511,-4.835164835164835,-20.0,-18.197802197802197,25.0,26.98901098901099,90.0,89.45054945054945,0.0,-0.3076923076923077
8.92,0.9474,-13.207835434162652,-6.5054945054945055,-20.0,-18.197802197802197,25.0,26.98901098901099,90.0,89.45054945054945,0.0,-0.3076923076923077
8.94,0.9492999999999999,-13.959481200651073,-7.912087912087912,-20.0,-18.197802197802197,25.0,26.98901098901099,90.0,89.45054945054945,0.0,-0.3076923076923077
8.96,0.9512,-14.514010181887919,-9.23076923076923,-20.0,-18.197802197802197,25.0,26.98901098901099,90.0,89.45054945054945,0.0,-0.3076923076923077
8.98,0.9531000000000001,-14.862311207224563,-10.461538461538462,-20.0,-18.197802197802197,25.0,26.98901098901099,90.0,89.45054945054945,0.0,-0.3076923076923077
9.0,0.955,-14.99814948722491,-11.604395604395604,-20.0,-18.197802197802197,25.0,26.98901098901099,90.0,89.45054945054945,0.0,-0.21978021978021978
9.02,0.9569,-14.918297353226103,-12.659340659340659,-20.0,-18.197802197802197,25.0,26.98901098901099,90.0,89.45054945054945,0.0,-0.13186813186813187
9.04,0.9587999999999999,-14.622623304921905,-13.274725274725276,-20.0,-18.197802197802197,25.0,26.98901098901099,90.0,89.45054945054945,0.0,0.04395604395604396
9.06,0.9607,-14.11413713362813,-13.626373626373626,-20.0,-18.197802197802197,25.0,26.98901098901099,90.0,89.45054945054945,0.0,0.04395604395604396
9.08,0.9626,-13.398989489717632,-13.802197802197803,-20.0,-18.197802197802197,25.0,26.98901098901099,90.0,89.45054945054945,0.0,0.04395604395604396
9.1,0.9644999999999999,-12.486424906130326,-13.802197802197803,-20.0,-18.197802197802197,25.0,26.98901098901099,90.0,89.45054945054945,0.0,0.04395604395604396
9.12,0.9663999999999999,-11.38868796738618,-13.714285714285714,-20.0,-18.197802197802197,25.0,26.98901098901099,90.0,89.45054945054945,0.0,0.04395604395604396
9.14,0.9683,-10.120883015803638,-13.362637362637363,-20.0,-18.197802197802197,25.0,26.98901098901099,90.0,89.45054945054945,0.0,0.04395604395604396
9.16,0.9702,-8.700788503586923,-12.923076923076923,-20.0,-18.197802197802197,25.0,26.98901098901099,90.0,89.45054945054945,0.0,-0.04395604395604396
9.18,0.9721,-7.148627820401131,-12.307692307692308,-20.0,-18.197802197802197,25.0,26.98901098901099,90.0,89.45054945054945,0.0,0.04395604395604396
9.2,0.9739999999999999,-5.486799139880067,-11.428571428571429,-20.0,-18.197802197802197,25.0,26.98901098901099,90.0,89.45054945054945,0.0,0.04395604395604396
9.22,0.9759000000000001,-3.7395675237546393,-10.54945054945055,-20.0,-18.197802197802197,25.0,26.98901098901099,90.0,89.45054945054945,0.0,0.04395604395604396
9.24,0.9778,-1.9327231874094395,-9.406593406593407,-20.0,-18.197802197802197,25.0,26.98901098901099,90.0,89.45054945054945,0.0,0.04395604395604396
9.26,0.9797,-0.09321045414745958,-8.175824175824175,-20.0,-18.197802197802197,25.0,26.98901098901099,90.0,89.45054945054945,0.0,0.04395604395604396
9.28,0.9815999999999999,1.7512675039615364,-6.769230769230769,-20.0,-18.197802197802197,25.0,26.98901098901099,90.0,89.45054945054945,0.0,0.04395604395604396
9.3,0.9835,3.5726625339115747,-5.362637362637362,-20.0,-18.197802197802197,25.0,26.98901098901099,90.0,89.45054945054945,0.0,0.04395604395604396
9.32,0.9854,5.343007940542871,-3.78021978021978,-20.0,-18.197802197802197,25.0,26.98901098901099,90.0,89.45054945054945,0.0,0.04395604395604396
9.34,0.9873,7.034851108834849,-2.10989010989011,-20.0,-18.197802197802197,25.0,26.98901098901099,90.0,89.45054945054945,0.0,0.04395604395604396
9.36,0.9892,8.62168566413685,-0.43956043956043955,-20.0,-18.197802197802197,25.0,26.98901098901099,90.0,89.45054945054945,0.0,0.04395604395604396
9.38,0.9911000000000001,10.078376365397215,1.1428571428571428,-20.0,-18.197802197802197,25.0,26.98901098901099,90.0,89.45054945054945,0.0,0.04395604395604396
9.4,0.993,11.381569871635387,2.8131868131868134,-20.0,-18.197802197802197,25.0,26.98901098901099,90.0,89.45054945054945,0.0,-0.13186813186813187
9.42,0.9949,12.510084575923935,4.571428571428571,-20.0,-18.197802197802197,25.0,26.98901098901099,90.0,89.45054945054945,0.0,-0.21978021978021978
9.44,0.9967999999999999,13.445272866665613,6.241758241758242,-20.0,-18.197802197802197,25.0,26.98901098901099,90.0,89.45054945054945,0.0,-0.3076923076923077
9.46,0.9987,14.171349453865417,7.912087912087912,-20.0,-18.197802197802197,25.0,26.98901098901099,90.0,89.45054945054945,0.0,-0.3076923076923077
9.48,1.0006000000000002,14.675679787474186,9.494505494505495,-20.0,-18.197802197802197,25.0,26.98901098901099,90.0,89.45054945054945,0.0,-0.3076923076923077
9.5,1.0025,14.949023092909973,10.725274725274724,-20.0,-18.197802197802197,25.0,26.98901098901099,90.0,89.45054945054945,0.0,-0.3076923076923077
9.52,1.0044,14.985725150794064,11.780219780219781,-20.0,-18.197802197802197,25.0,26.98901098901099,90.0,89.45054945054945,0.0,-0.3076923076923077
9.54,1.0063,14.783856647137458,12.483516483516484,-20.0,-18.197802197802197,25.0,26.98901098901099,90.0,89.45054945054945,0.0,-0.3076923076923077
9.56,1.0082,14.34529370814899,13.098901098901099,-20.0,-18.197802197802197,25.0,26.98901098901099,90.0,89.45054945054945,0.0,-0.3076923076923077
9.58,1.0101,13.67573810018615,13.362637362637363,-20.0,-18.197802197802197,25.0,26.98901098901099,90.0,89.45054945054945,0.0,-0.3076923076923077
9.6,1.012,12.784675508111953,13.45054945054945,-20.0,-18.197802197802197,25.0,26.98901098901099,90.0,89.45054945054945,0.0,-0.3076923076923077
9.62,1.0139,11.685271290882637,13.45054945054945,-20.0,-18.197802197802197,25.0,26.98901098901099,90.0,89.45054945054945,0.0,-0.3076923076923077
9.64,1.0158,10.394204136608005,13.274725274725276,-20.0,-18.197802197802197,25.0,26.98901098901099,90.0,89.45054945054945,0.0,-0.3076923076923077
9.66,1.0177,8.931439084457821,12.835164835164836,-20.0,-18.197802197802197,25.0,26.98901098901099,90.0,89.45054945054945,0.0,-0.3076923076923077
9.68,1.0196,7.319942430562685,12.219780219780219,-20.0,-18.197802197802197,25.0,26.98901098901099,90.0,89.45054945054945,0.0,-0.3076923076923077
9.7,1.0215,5.585342071698203,11.516483516483516,-20.0,-18.197802197802197,25.0,26.98901098901099,90.0,89.45054945054945,0.0,-0.3076923076923077
9.72,1.0234,3.755537845888057,10.54945054945055,-20.0,-18.197802197802197,25.0,26.98901098901099,90.0,89.45054945054945,0.0,-0.3076923076923077
9.74,1.0253,1.8602673848561462,9.494505494505495,-20.0,-18.197802197802197,25.0,26.98901098901099,90.0,89.45054945054945,0.0,-0.3076923076923077
9.76,1.0272000000000001,-0.06936611855472688,8.175824175824175,-20.0,-18.197802197802197,25.0,26.98901098901099,90.0,89.45054945054945,0.0,-0.3076923076923077
9.78,1.0291,-2.0013970217662482,6.769230769230769,-20.0,-18.197802197802197,25.0,26.98901098901099,90.0,89.45054945054945,0.0,-0.3076923076923077
9.8,1.0310000000000001,-3.903523315033023,5.274725274725275,-20.0,-18.197802197802197,25.0,26.98901098901099,90.0,89.45054945054945,0.0,-0.3076923076923077
9.82,1.0329000000000002,-5.743647183288959,3.6923076923076925,-20.0,-18.197802197802197,25.0,26.98901098901099,90.0,89.45054945054945,0.0,-0.3076923076923077
9.84,1.0348,-7.490421102085291,1.934065934065934,-20.0,-18.197802197802197,25.0,26.98901098901099,90.0,89.45054945054945,0.0,-0.3076923076923077
9.86,1.0367,-9.113790212181176,0.17582417582417584,-20.0,-18.197802197802197,25.0,26.98901098901099,90.0,89.45054945054945,0.0,-0.3076923076923077
9.88,1.0386000000000002,-10.585521560070868,-1.5824175824175823,-20.0,-18.197802197802197,25.0,26.98901098901099,90.0,89.45054945054945,0.0,-0.3076923076923077
9.9,1.0405,-11.87971079495971,-3.340659340659341,-20.0,-18.197802197802197,25.0,26.98901098901099,90.0,89.45054945054945,0.0,-0.3076923076923077
9.92,1.0424,-12.973257081374468,-5.010989010989011,-20.0,-18.197802197802197,25.0,26.98901098901099,90.0,89.45054945054945,0.0,-0.3076923076923077
9.94,1.0443,-13.846297322842746,-6.769230769230769,-20.0,-18.197802197802197,25.0,26.98901098901099,90.0,89.45054945054945,0.0,-0.3076923076923077
9.96,1.0462,-14.482591295120194,-8.351648351648352,-20.0,-18.197802197802197,25.0,26.98901098901099,90.0,89.45054945054945,0.0,-0.3076923076923077
9.98,1.0481,-14.869849953409027,-9.846153846153847,-20.0,-18.197802197802197,25.0,26.98901098901099,90.0,89.45054945054945,0.0,-0.3076923076923077
10.0,1.05,-15.0,-11.252747252747254,-20.0,-18.197802197802197,25.0,26.98901098901099,90.0,89.45054945054945,0.0,-0.3076923076923077
10.02,1.0519,-14.86937876675879,-12.307692307692308,-20.0,-18.197802197802197,25.0,26.98901098901099,90.0,89.45054945054945,0.0,-0.13186813186813187
10.04,1.0538,-14.478854567876994,-12.923076923076923,-20.0,-18.197802197802197,25.0,26.98901098901099,90.0,89.45054945054945,0.0,0.13186813186813187
10.06,1.0557,-13.833868896421405,-13.362637362637363,-20.0,-18.197802197802197,25.0,26.98901098901099,90.0,89.45054945054945,0.0,0.13186813186813187
10.08,1.0576,-12.944398154866853,-13.626373626373626,-20.0,-18.197802197802197,25.0,26.98901098901099,90.0,89.45054945054945,0.0,0.13186813186813187
10.1,1.0595,-11.824834003960264,-13.626373626373626,-20.0,-18.197802197802197,25.0,26.98901098901099,90.0,89.45054945054945,0.0,0.13186813186813187
10.12,1.0614,-10.493782862758982,-13.45054945054945,-20.0,-18.197802197802197,25.0,26.98901098901099,90.0,89.45054945054945,0.0,0.13186813186813187
10.14,1.0633000000000001,-8.973786570536017,-13.098901098901099,-20.0,-18.197802197802197,25.0,26.98901098901099,90.0,89.45054945054945,0.0,0.13186813186813187
10.16,1.0652000000000001,-7.290967702090698,-12.483516483516484,-20.0,-18.197802197802197,25.0,26.98901098901099,90.0,89.45054945054945,0.0,0.13186813186813187
10.18,1.0671,-5.474604484512536,-11.692307692307692,-20.0,-18.197802197802197,25.0,26.98901098901099,90.0,89.45054945054945,0.0,0.13186813186813187
10.2,1.069,-3.5566416678502306,-10.813186813186814,-20.0,-18.197802197802197,25.0,26.98901098901099,90.0,89.45054945054945,0.0,0.13186813186813187
10.22,1.0709000000000002,-1.5711450266677067,-9.67032967032967,-20.0,-18.197802197802197,25.0,26.98901098901099,90.0,89.45054945054945,0.0,0.13186813186813187
10.24,1.0728,0.4462916130384888,-8.351648351648352,-20.0,-18.197802197802197,25.0,26.98901098901099,90.0,89.45054945054945,0.0,0.13186813186813187
10.26,1.0747,2.4591768427057064,-6.857142857142857,-20.0,-18.197802197802197,25.0,26.98901098901099,90.0,89.45054945054945,0.0,0.13186813186813187
10.28,1.0766,4.430778730155717,-5.274725274725275,-20.0,-18.197802197802197,25.0,26.98901098901099,90.0,89.45054945054945,0.0,0.13186813186813187
10.3,1.0785,6.32479681586849,-3.6043956043956045,-20.0,-18.197802197802197,25.0,26.98901098901099,90.0,89.45054945054945,0.0,0.13186813186813187
10.32,1.0804,8.106036846080768,-1.934065934065934,-20.0,-18.197802197802197,25.0,26.98901098901099,90.0,89.45054945054945,0.0,0.13186813186813187
10.34,1.0823,9.741075710212481,-0.08791208791208792,-20.0,-18.197802197802197,25.0,26.98901098901099,90.0,89.45054945054945,0.0,0.13186813186813187
10.36,1.0842,11.198903946633916,1.7582417582417582,-20.0,-18.197802197802197,25.0,26.98901098901099,90.0,89.45054945054945,0.0,0.04395604395604396
10.38,1.0861,12.451533314637045,3.5164835164835164,-20.0,-18.197802197802197,25.0,26.98901098901099,90.0,89.45054945054945,0.0,-0.04395604395604396
10.4,1.088,13.474557306175587,5.362637362637362,-20.0,-18.197802197802197,25.0,26.98901098901099,90.0,89.45054945054945,0.0,-0.21978021978021978
10.42,1.0899,14.247653088457138,7.1208791208791204,-20.0,-18.197802197802197,25.0,26.98901098901099,90.0,89.45054945054945,0.0,-0.3076923076923077
10.44,1.0918,14.755014223077746,8.87912087912088,-20.0,-18.197802197802197,25.0,26.98901098901099,90.0,89.45054945054945,0.0,-0.3076923076923077
10.46,1.0937000000000001,14.98570458956157,10.373626373626374,-20.0,-18.197802197802197,25.0,26.98901098901099,90.0,89.45054945054945,0.0,-0.3076923076923077
10.48,1.0956000000000001,14.93392523660051,11.604395604395604,-20.0,-18.197802197802197,25.0,26.98901098901099,90.0,89.45054945054945,0.0,-0.3076923076923077
10.5,1.0975000000000001,14.599187374021126,12.395604395604396,-20.0,-18.197802197802197,25.0,26.98901098901099,90.0,89.45054945054945,0.0,-0.3076923076923077
10.52,1.0994,13.986386379119804,12.923076923076923,-20.0,-18.197802197802197,25.0,26.98901098901099,90.0,89.45054945054945,0.0,-0.3076923076923077
10.54,1.1013,13.10577349492742,13.274725274725276,-20.0,-18.197802197802197,25.0,26.98901098901099,90.0,89.45054945054945,0.0,-0.3076923076923077
10.56,1.1032000000000002,11.972823813868558,13.274725274725276,-20.0,-18.197802197802197,25.0,26.98901098901099,90.0,89.45054945054945,0.0,-0.3076923076923077
10.58,1.1051000000000002,10.608001133589243,13.274725274725276,-20.0,-18.197802197802197,25.0,26.98901098901099,90.0,89.45054945054945,0.0,-0.3076923076923077
10.6,1.107,9.03642230517635,12.923076923076923,-20.0,-18.197802197802197,25.0,26.98901098901099,90.0,89.45054945054945,0.0,-0.3076923076923077
10.62,1.1089,7.287425728311762,12.307692307692308,-20.0,-18.197802197802197,25.0,26.98901098901099,90.0,89.45054945054945,0.0,-0.3076923076923077
10.64,1.1108000000000002,5.394050642492573,11.516483516483516,-20.0,-18.197802197802197,25.0,26.98901098901099,90.0,89.45054945054945,0.0,-0.3076923076923077
10.66,1.1127,3.3924357772248883,10.54945054945055,-20.0,-18.197802197802197,25.0,26.98901098901099,90.0,89.45054945054945,0.0,-0.3076923076923077
10.68,1.1146,1.3211477162320122,9.406593406593407,-20.0,-18.197802197802197,25.0,26.98901098901099,90.0,89.45054945054945,0.0,-0.3076923076923077
10.7,1.1165,-0.7795490384197516,8.087912087912088,-20.0,-18.197802197802197,25.0,26.98901098901099,90.0,89.45054945054945,0.0,-0.3076923076923077
10.72,1.1184,-2.8684668844975936,6.593406593406593,-20.0,-18.197802197802197,25.0,26.98901098901099,90.0,89.45054945054945,0.0,-0.3076923076923077
10.74,1.1203,-4.9043002041727055,5.010989010989011,-20.0,-18.197802197802197,25.0,26.98901098901099,90.0,89.45054945054945,0.0,-0.3076923076923077
10.76,1.1222,-6.846445165904792,3.2527472527472527,-20.0,-18.197802197802197,25.0,26.98901098901099,90.0,89.45054945054945,0.0,-0.3076923076923077
10.78,1.1241,-8.655818053017395,1.4945054945054945,-20.0,-18.197802197802197,25.0,26.98901098901099,90.0,89.45054945054945,0.0,-0.3076923076923077
10.8,1.1260000000000001,-10.295655600027532,-0.3516483516483517,-20.0,-18.197802197802197,25.0,26.98901098901099,90.0,89.45054945054945,0.0,-0.3076923076923077
10.82,1.1279000000000001,-11.732280818448022,-2.197802197802198,-20.0,-18.197802197802197,25.0,26.98901098901099,90.0,89.45054945054945,0.0,-0.3076923076923077
10.84,1.1298000000000001,-12.935818132895662,-4.043956043956044,-20.0,-18.197802197802197,25.0,26.98901098901099,90.0,89.45054945054945,0.0,-0.3076923076923077
10.86,1.1317000000000002,-13.880842328595362,-5.978021978021978,-20.0,-18.197802197802197,25.0,26.98901098901099,90.0,89.45054945054945,0.0,-0.3076923076923077
10.88,1.1336000000000002,-14.546946828472894,-7.736263736263736,-20.0,-18.197802197802197,25.0,26.98901098901099,90.0,89.45054945054945,0.0,-0.3076923076923077
10.9,1.1355000000000002,-14.919218160440797,-9.494505494505495,-20.0,-18.197802197802197,25.0,26.98901098901099,90.0,89.45054945054945,0.0,-0.3076923076923077
10.92,1.1374000000000002,-14.988605124490316,-10.901098901098901,-20.0,-18.197802197802197,25.0,26.98901098901099,90.0,89.45054945054945,0.0,-0.3076923076923077
10.94,1.1393,-14.752173099024754,-12.043956043956044,-20.0,-18.197802197802197,25.0,26.98901098901099,90.0,89.45054945054945,0.0,0.04395604395604396
10.96,1.1412000000000002,-14.213236103966628,-12.659340659340659,-20.0,-18.197802197802197,25.0,26.98901098901099,90.0,89.45054945054945,0.0,0.04395604395604396
10.98,1.1431000000000002,-13.381361625703246,-13.186813186813186,-20.0,-18.197802197802197,25.0,26.98901098901099,90.0,89.45054945054945,0.0,0.04395604395604396
11.0,1.145,-12.272245761375357,-13.274725274725276,-20.0,-18.197802197802197,25.0,26.98901098901099,90.0,89.45054945054945,0.0,0.04395604395604396
11.02,1.1469,-10.907458907907293,-13.274725274725276,-20.0,-18.197802197802197,25.0,26.98901098901099,90.0,89.45054945054945,0.0,0.04395604395604396
11.04,1.1488,-9.314064951027902,-13.098901098901099,-20.0,-18.197802197802197,25.0,26.98901098901099,90.0,89.45054945054945,0.0,0.04395604395604396
11.06,1.1507,-7.5241196448326555,-12.571428571428571,-20.0,-18.197802197802197,25.0,26.98901098901099,90.0,89.45054945054945,0.0,0.04395604395604396
11.08,1.1526,-5.574056554778613,-11.868131868131869,-20.0,-18.197802197802197,25.0,26.98901098901099,90.0,89.45054945054945,0.0,0.04395604395604396
11.1,1.1545,-3.5039715072777615,-10.901098901098901,-20.0,-18.197802197802197,25.0,26.98901098901099,90.0,89.45054945054945,0.0,0.04395604395604396
11.12,1.1564,-1.356818888748025,-9.758241758241759,-20.0,-18.197802197802197,25.0,26.98901098901099,90.0,89.45054945054945,0.0,0.04395604395604396
11.14,1.1583,0.8224646905898518,-8.43956043956044,-20.0,-18.197802197802197,25.0,26.98901098901099,90.0,89.45054945054945,0.0,0.04395604395604396
11.16,1.1602000000000001,2.9878919611485624,-7.032967032967033,-20.0,-18.197802197802197,25.0,26.98901098901099,90.0,89.45054945054945,0.0,0.04395604395604396
11.18,1.1621000000000001,5.093392817633699,-5.274725274725275,-20.0,-18.197802197802197,25.0,26.98901098901099,90.0,89.45054945054945,0.0,0.04395604395604396
11.2,1.164,7.093798243923004,-3.5164835164835164,-20.0,-18.197802197802197,25.0,26.98901098901099,90.0,89.45054945054945,0.0,0.04395604395604396
11.22,1.1659000000000002,8.945819401627546,-1.7582417582417582,-20.0,-18.197802197802197,25.0,26.98901098901099,90.0,89.45054945054945,0.0,0.04395604395604396
11.24,1.1678000000000002,10.609000603226214,0.17582417582417584,-20.0,-18.197802197802197,25.0,26.98901098901099,90.0,89.45054945054945,0.0,0.04395604395604396
11.26,1.1697000000000002,12.046625006783174,2.10989010989011,-20.0,-18.197802197802197,25.0,26.98901098901099,90.0,89.45054945054945,0.0,0.04395604395604396
11.28,1.1716,13.226552453190468,4.043956043956044,-20.0,-18.197802197802197,25.0,26.98901098901099,90.0,89.45054945054945,0.0,-0.04395604395604396
11.3,1.1735000000000002,14.121969918697395,5.978021978021978,-20.0,-18.197802197802197,25.0,26.98901098901099,90.0,89.45054945054945,0.0,-0.21978021978021978
11.32,1.1754000000000002,14.712036564745366,7.912087912087912,-20.0,-18.197802197802197,25.0,26.98901098901099,90.0,89.45054945054945,0.0,-0.3076923076923077
11.34,1.1773,14.982407312847736,9.582417582417582,-20.0,-18.197802197802197,25.0,26.98901098901099,90.0,89.45054945054945,0.0,-0.3076923076923077
11.36,1.1792,14.925621222954394,10.989010989010989,-20.0,-18.197802197802197,25.0,26.98901098901099,90.0,89.45054945054945,0.0,-0.3076923076923077
11.38,1.1811000000000003,14.541343667878886,11.956043956043956,-20.0,-18.197802197802197,25.0,26.98901098901099,90.0,89.45054945054945,0.0,-0.3076923076923077
11.4,1.183,13.836454322854014,12.659340659340659,-20.0,-18.197802197802197,25.0,26.98901098901099,90.0,89.45054945054945,0.0,-0.3076923076923077
11.42,1.1849,12.82497626840659,13.010989010989011,-20.0,-18.197802197802197,25.0,26.98901098901099,90.0,89.45054945054945,0.0,-0.3076923076923077
11.44,1.1868,11.527844969200215,13.098901098901099,-20.0,-18.197802197802197,25.0,26.98901098901099,90.0,89.45054945054945,0.0,-0.3076923076923077
11.46,1.1887,9.97251946768149,13.010989010989011,-20.0,-18.197802197802197,25.0,26.98901098901099,90.0,89.45054945054945,0.0,-0.3076923076923077
11.48,1.1906,8.192441740892622,12.747252747252746,-20.0,-18.197802197802197,25.0,26.98901098901099,90.0,89.45054945054945,0.0,-0.3076923076923077
11.5,1.1925000000000001,6.2263537301074265,12.131868131868131,-20.0,-18.197802197802197,25.0,26.98901098901099,90.0,89.45054945054945,0.0,-0.3076923076923077
11.52,1.1944000000000001,4.117484983098772,11.164835164835164,-20.0,-18.197802197802197,25.0,26.98901098901099,90.0,89.45054945054945,0.0,-0.3076923076923077
11.54,1.1963,1.9126270654098048,10.10989010989011,-20.0,-18.197802197802197,25.0,26.98901098901099,90.0,89.45054945054945,0.0,-0.3076923076923077
11.56,1.1982000000000002,-0.33888617996315995,8.791208791208792,-20.0,-18.197802197802197,25.0,26.98901098901099,90.0,89.45054945054945,0.0,-0.3076923076923077
11.58,1.2001000000000002,-2.5862708911509116,7.2967032967032965,-20.0,-18.197802197802197,25.0,26.98901098901099,90.0,89.45054945054945,0.0,-0.3076923076923077
11.6,1.202,-4.77843421536307,5.626373626373627,-20.0,-18.197802197802197,25.0,26.98901098901099,90.0,89.45054945054945,0.0,-0.3076923076923077
11.62,1.2039,-6.865138741190194,3.956043956043956,-20.0,-18.197802197802197,25.0,26.98901098901099,90.0,89.45054945054945,0.0,-0.3076923076923077
11.64,1.2058000000000002,-8.798163904741848,2.10989010989011,-20.0,-18.197802197802197,25.0,26.98901098901099,90.0,89.45054945054945,0.0,-0.3076923076923077
11.66,1.2077000000000002,-10.532437464067963,0.08791208791208792,-20.0,-18.197802197802197,25.0,26.98901098901099,90.0,89.45054945054945,0.0,-0.3076923076923077
11.68,1.2096,-12.027110278736414,-1.8461538461538463,-20.0,-18.197802197802197,25.0,26.98901098901099,90.0,89.45054945054945,0.0,-0.3076923076923077
11.7,1.2115,-13.246548404615357,-3.868131868131868,-20.0,-18.197802197802197,25.0,26.98901098901099,90.0,89.45054945054945,0.0,-0.3076923076923077
11.72,1.2134000000000003,-14.161217916482071,-5.802197802197802,-20.0,-18.197802197802197,25.0,26.98901098901099,90.0,89.45054945054945,0.0,-0.3076923076923077
11.74,1.2153,-14.74843988669332,-7.736263736263736,-20.0,-18.197802197802197,25.0,26.98901098901099,90.0,89.45054945054945,0.0,-0.3076923076923077
11.76,1.2172,-14.992995545318164,-9.494505494505495,-20.0,-18.197802197802197,25.0,26.98901098901099,90.0,89.45054945054945,0.0,-0.3076923076923077
11.78,1.2191,-14.887564779476275,-11.076923076923077,-20.0,-18.197802197802197,25.0,26.98901098901099,90.0,89.45054945054945,0.0,-0.21978021978021978
11.8,1.221,-14.432984736558558,-12.043956043956044,-20.0,-18.197802197802197,25.0,26.98901098901099,90.0,89.45054945054945,0.0,0.13186813186813187
11.82,1.2229,-13.638319303665895,-12.659340659340659,-20.0,-18.197802197802197,25.0,26.98901098901099,90.0,89.45054945054945,0.0,0.04395604395604396
11.84,1.2248,-12.520734558277473,-13.098901098901099,-20.0,-18.197802197802197,25.0,26.98901098901099,90.0,89.45054945054945,0.0,0.04395604395604396
11.86,1.2267000000000001,-11.105179826943704,-13.098901098901099,-20.0,-18.197802197802197,25.0,26.98901098901099,90.0,89.45054945054945,0.0,0.13186813186813187
11.88,1.2286000000000001,-9.423878645620999,-13.098901098901099,-20.0,-18.197802197802197,25.0,26.98901098901099,90.0,89.45054945054945,0.0,0.13186813186813187
11.9,1.2305000000000001,-7.5156385771724805,-12.659340659340659,-20.0,-18.197802197802197,25.0,26.98901098901099,90.0,89.45054945054945,0.0,0.13186813186813187
11.92,1.2324000000000002,-5.424993395225718,-11.956043956043956,-20.0,-18.197802197802197,25.0,26.98901098901099,90.0,89.45054945054945,0.0,0.13186813186813187
11.94,1.2343,-3.2011954750024576,-11.076923076923077,-20.0,-18.197802197802197,25.0,26.98901098901099,90.0,89.45054945054945,0.0,0.13186813186813187
11.96,1.2362000000000002,-0.8970802290011534,-9.934065934065934,-20.0,-18.197802197802197,25.0,26.98901098901099,90.0,89.45054945054945,0.0,0.13186813186813187
11.98,1.2381000000000002,1.4321720184040454,-8.527472527472527,-20.0,-18.197802197802197,25.0,26.98901098901099,90.0,89.45054945054945,0.0,0.13186813186813187
12.0,1.2400000000000002,3.730348307472876,-7.032967032967033,-20.0,-18.197802197802197,25.0,26.98901098901099,90.0,89.45054945054945,0.0,0.13186813186813187
12.02,1.2419,5.941558673744491,-5.274725274725275,-20.0,-18.197802197802197,25.0,26.98901098901099,90.0,89.45054945054945,0.0,0.13186813186813187
12.04,1.2438,8.011602653405882,-3.340659340659341,-20.0,-18.197802197802197,25.0,26.98901098901099,90.0,89.45054945054945,0.0,0.13186813186813187
12.06,1.2457000000000003,9.889313266272344,-1.4065934065934067,-20.0,-18.197802197802197,25.0,26.98901098901099,90.0,89.45054945054945,0.0,0.13186813186813187
12.08,1.2476,11.527844969200077,0.5274725274725275,-20.0,-18.197802197802197,25.0,26.98901098901099,90.0,89.45054945054945,0.0,0.13186813186813187
12.1,1.2495,12.885872794093766,2.5494505494505493,-20.0,-18.197802197802197,25.0,26.98901098901099,90.0,89.45054945054945,0.0,0.13186813186813187
12.12,1.2514,13.928671440995258,4.747252747252747,-20.0,-18.197802197802197,25.0,26.98901098901099,90.0,89.45054945054945,0.0,-0.04395604395604396
12.14,1.2533,14.629045470661483,6.945054945054945,-20.0,-18.197802197802197,25.0,26.98901098901099,90.0,89.45054945054945,0.0,-0.21978021978021978
12.16,1.2552,14.968084893885708,8.791208791208792,-20.0,-18.197802197802197,25.0,26.98901098901099,90.0,89.45054945054945,0.0,-0.3076923076923077
12.18,1.2571,14.935724327096374,10.373626373626374,-20.0,-18.197802197802197,25.0,26.98901098901099,90.0,89.45054945054945,0.0,-0.3076923076923077
12.2,1.2590000000000001,14.531088395883193,11.604395604395604,-20.0,-18.197802197802197,25.0,26.98901098901099,90.0,89.45054945054945,0.0,-0.3076923076923077
12.22,1.2609000000000001,13.762611121831823,12.307692307692308,-20.0,-18.197802197802197,25.0,26.98901098901099,90.0,89.45054945054945,0.0,-0.3076923076923077
12.24,1.2628000000000001,12.647922508466749,12.747252747252746,-20.0,-18.197802197802197,25.0,26.98901098901099,90.0,89.45054945054945,0.0,-0.3076923076923077
12.26,1.2647000000000002,11.213501320000608,12.835164835164836,-20.0,-18.197802197802197,25.0,26.98901098901099,90.0,89.45054945054945,0.0,-0.3076923076923077
12.28,1.2666,9.49409898138449,12.747252747252746,-20.0,-18.197802197802197,25.0,26.98901098901099,90.0,89.45054945054945,0.0,-0.3076923076923077
12.3,1.2685000000000002,7.531945471168042,12.395604395604396,-20.0,-18.197802197802197,25.0,26.98901098901099,90.0,89.45054945054945,0.0,-0.3076923076923077
12.32,1.2704000000000002,5.3757538767776385,11.780219780219781,-20.0,-18.197802197802197,25.0,26.98901098901099,90.0,89.45054945054945,0.0,-0.3076923076923077
12.34,1.2723,3.0795457812065634,10.901098901098901,-20.0,-18.197802197802197,25.0,26.98901098901099,90.0,89.45054945054945,0.0,-0.3076923076923077
12.36,1.2742,0.7013247004575849,9.67032967032967,-20.0,-18.197802197802197,25.0,26.98901098901099,90.0,89.45054945054945,0.0,-0.3076923076923077
12.38,1.2761000000000002,-1.6983707505854193,8.263736263736265,-20.0,-18.197802197802197,25.0,26.98901098901099,90.0,89.45054945054945,0.0,-0.3076923076923077
12.4,1.2780000000000002,-4.057998551307929,6.681318681318682,-20.0,-18.197802197802197,25.0,26.98901098901099,90.0,89.45054945054945,0.0,-0.3076923076923077
12.42,1.2799,-6.316591519788767,5.010989010989011,-20.0,-18.197802197802197,25.0,26.98901098901099,90.0,89.45054945054945,0.0,-0.3076923076923077
12.44,1.2818,-8.415341842576623,3.076923076923077,-20.0,-18.197802197802197,25.0,26.98901098901099,90.0,89.45054945054945,0.0,-0.3076923076923077
12.46,1.2837000000000003,-10.299150678115442,1.1428571428571428,-20.0,-18.197802197802197,25.0,26.98901098901099,90.0,89.45054945054945,0.0,-0.3076923076923077
12.48,1.2856,-11.9181017393652,-0.8791208791208791,-20.0,-18.197802197802197,25.0,26.98901098901099,90.0,89.45054945054945,0.0,-0.3076923076923077
12.5,1.2875,-13.228818965225335,-2.989010989010989,-20.0,-18.197802197802197,25.0,26.98901098901099,90.0,89.45054945054945,0.0,-0.3076923076923077
12.52,1.2894,-14.195670676780662,-5.0989010989010985,-20.0,-18.197802197802197,25.0,26.98901098901099,90.0,89.45054945054945,0.0,-0.3076923076923077
12.54,1.2913000000000001,-14.79178594955377,-7.2967032967032965,-20.0,-18.197802197802197,25.0,26.98901098901099,90.0,89.45054945054945,0.0,-0.3076923076923077
12.56,1.2932000000000001,-14.999853254223627,-9.142857142857142,-20.0,-18.197802197802197,25.0,26.98901098901099,90.0,89.45054945054945,0.0,-0.3076923076923077
12.58,1.2951000000000001,-14.812676634748634,-10.637362637362637,-20.0,-18.197802197802197,25.0,26.98901098901099,90.0,89.45054945054945,0.0,-0.13186813186813187
12.6,1.2970000000000002,-14.233470686880416,-11.780219780219781,-20.0,-18.197802197802197,25.0,26.98901098901099,90.0,89.45054945054945,0.0,0.13186813186813187
12.62,1.2989,-13.275882229732316,-12.571428571428571,-20.0,-18.197802197802197,25.0,26.98901098901099,90.0,89.45054945054945,0.0,0.04395604395604396
12.64,1.3008000000000002,-11.96373366521454,-12.835164835164836,-20.0,-18.197802197802197,25.0,26.98901098901099,90.0,89.45054945054945,0.0,0.13186813186813187
12.66,1.3027000000000002,-10.330490414192676,-12.923076923076923,-20.0,-18.197802197802197,25.0,26.98901098901099,90.0,89.45054945054945,0.0,0.13186813186813187
12.68,1.3046,-8.418462310585406,-12.747252747252746,-20.0,-18.197802197802197,25.0,26.98901098901099,90.0,89.45054945054945,0.0,0.13186813186813187
12.7,1.3065,-6.277756223652732,-12.219780219780219,-20.0,-18.197802197802197,25.0,26.98901098901099,90.0,89.45054945054945,0.0,0.13186813186813187
12.72,1.3084000000000002,-3.9650042599604265,-11.428571428571429,-20.0,-18.197802197802197,25.0,26.98901098901099,90.0,89.45054945054945,0.0,0.13186813186813187
12.74,1.3103,-1.541898468311874,-10.461538461538462,-20.0,-18.197802197802197,25.0,26.98901098901099,90.0,89.45054945054945,0.0,0.13186813186813187
12.76,1.3122,0.9264311599163961,-9.142857142857142,-20.0,-18.197802197802197,25.0,26.98901098901099,90.0,89.45054945054945,0.0,0.13186813186813187
12.78,1.3141,3.3731536152284516,-7.56043956043956,-20.0,-18.197802197802197,25.0,26.98901098901099,90.0,89.45054945054945,0.0,0.13186813186813187
12.8,1.3160000000000003,5.731542993512843,-5.8901098901098905,-20.0,-18.197802197802197,25.0,26.98901098901099,90.0,89.45054945054945,0.0,0.13186813186813187
12.82,1.3179,7.93680532341376,-4.043956043956044,-20.0,-18.197802197802197,25.0,26.98901098901099,90.0,89.45054945054945,0.0,0.13186813186813187
12.84,1.3198,9.92787611547685,-2.021978021978022,-20.0,-18.197802197802197,25.0,26.98901098901099,90.0,89.45054945054945,0.0,0.13186813186813187
12.86,1.3217,11.649138519617223,0.08791208791208792,-20.0,-18.197802197802197,25.0,26.98901098901099,90.0,89.45054945054945,0.0,0.13186813186813187
12.88,1.3236,13.052013238759198,2.10989010989011,-20.0,-18.197802197802197,25.0,26.98901098901099,90.0,89.45054945054945,0.0,0.13186813186813187
12.9,1.3255000000000001,14.096373999319184,4.3076923076923075,-20.0,-18.197802197802197,25.0,26.98901098901099,90.0,89.45054945054945,0.0,0.13186813186813187
12.92,1.3274000000000001,14.751746383234451,6.5054945054945055,-20.0,-18.197802197802197,25.0,26.98901098901099,90.0,89.45054945054945,0.0,-0.04395604395604396
12.94,1.3293000000000001,14.998253101789707,8.615384615384615,-20.0,-18.197802197802197,25.0,26.98901098901099,90.0,89.45054945054945,0.0,-0.3076923076923077
12.96,1.3312000000000002,14.82727522066767,10.285714285714286,-20.0,-18.197802197802197,25.0,26.98901098901099,90.0,89.45054945054945,0.0,-0.3076923076923077
12.98,1.3331000000000002,14.241806274523713,11.428571428571429,-20.0,-18.197802197802197,25.0,26.98901098901099,90.0,89.45054945054945,0.0,-0.3076923076923077
13.0,1.3350000000000002,13.25648445133038,12.219780219780219,-20.0,-18.197802197802197,25.0,26.98901098901099,90.0,89.45054945054945,0.0,-0.3076923076923077
13.02,1.3369,11.897296866796907,12.659340659340659,-20.0,-18.197802197802197,25.0,26.98901098901099,90.0,89.45054945054945,0.0,-0.3076923076923077
13.04,1.3388,10.200959149384694,12.659340659340659,-20.0,-18.197802197802197,25.0,26.98901098901099,90.0,89.45054945054945,0.0,-0.3076923076923077
13.06,1.3407000000000002,8.213982862039643,12.483516483516484,-20.0,-18.197802197802197,25.0,26.98901098901099,90.0,89.45054945054945,0.0,-0.3076923076923077
13.08,1.3426,5.9914524330092975,12.043956043956044,-20.0,-18.197802197802197,25.0,26.98901098901099,90.0,89.45054945054945,0.0,-0.3076923076923077
13.1,1.3445,3.5955419877167234,11.252747252747254,-20.0,-18.197802197802197,25.0,26.98901098901099,90.0,89.45054945054945,0.0,-0.3076923076923077
13.12,1.3464,1.0938105044582258,10.10989010989011,-20.0,-18.197802197802197,25.0,26.98901098901099,90.0,89.45054945054945,0.0,-0.3076923076923077
13.14,1.3483,-1.4426791905744756,8.791208791208792,-20.0,-18.197802197802197,25.0,26.98901098901099,90.0,89.45054945054945,0.0,-0.3076923076923077
13.16,1.3502,-3.9413661473698722,7.208791208791209,-20.0,-18.197802197802197,25.0,26.98901098901099,90.0,89.45054945054945,0.0,-0.3076923076923077
13.18,1.3521,-6.33026573501093,5.450549450549451,-20.0,-18.197802197802197,25.0,26.98901098901099,90.0,89.45054945054945,0.0,-0.3076923076923077
13.2,1.354,-8.540053777878832,3.5164835164835164,-20.0,-18.197802197802197,25.0,26.98901098901099,90.0,89.45054945054945,0.0,-0.3076923076923077
13.22,1.3559,-10.506099993176914,1.5824175824175823,-20.0,-18.197802197802197,25.0,26.98901098901099,90.0,89.45054945054945,0.0,-0.3076923076923077
13.24,1.3578000000000001,-12.170390710202138,-0.5274725274725275,-20.0,-18.197802197802197,25.0,26.98901098901099,90.0,89.45054945054945,0.0,-0.3076923076923077
13.26,1.3597000000000001,-13.483282993716527,-2.7252747252747254,-20.0,-18.197802197802197,25.0,26.98901098901099,90.0,89.45054945054945,0.0,-0.3076923076923077
